; G-Code generated by Simplify3D(R) Version 4.1.1
; Mar 7, 2020 at 10:23:55 PM
; Settings Summary
;   processName,Process1
;   applyToModels,Base
;   profileName,Default (modified)
;   profileVersion,2015-05-01 08:00:00
;   baseProfile,
;   printMaterial,PLA
;   printQuality,Medium
;   printExtruders,
;   extruderName,Primary Extruder
;   extruderToolheadNumber,0
;   extruderDiameter,0.35
;   extruderAutoWidth,0
;   extruderWidth,0.4
;   extrusionMultiplier,0.9
;   extruderUseRetract,1
;   extruderRetractionDistance,1
;   extruderExtraRestartDistance,0
;   extruderRetractionZLift,0
;   extruderRetractionSpeed,1800
;   extruderUseCoasting,0
;   extruderCoastingDistance,0.2
;   extruderUseWipe,0
;   extruderWipeDistance,5
;   primaryExtruder,0
;   layerHeight,0.2
;   topSolidLayers,3
;   bottomSolidLayers,3
;   perimeterOutlines,2
;   printPerimetersInsideOut,1
;   startPointOption,2
;   startPointOriginX,0
;   startPointOriginY,0
;   sequentialIslands,0
;   spiralVaseMode,0
;   firstLayerHeightPercentage,90
;   firstLayerWidthPercentage,100
;   firstLayerUnderspeed,0.5
;   useRaft,0
;   raftExtruder,0
;   raftTopLayers,3
;   raftBaseLayers,2
;   raftOffset,3
;   raftSeparationDistance,0.14
;   raftTopInfill,100
;   aboveRaftSpeedMultiplier,0.3
;   useSkirt,1
;   skirtExtruder,0
;   skirtLayers,1
;   skirtOutlines,4
;   skirtOffset,4
;   usePrimePillar,0
;   primePillarExtruder,999
;   primePillarWidth,12
;   primePillarLocation,7
;   primePillarSpeedMultiplier,1
;   useOozeShield,0
;   oozeShieldExtruder,999
;   oozeShieldOffset,2
;   oozeShieldOutlines,1
;   oozeShieldSidewallShape,1
;   oozeShieldSidewallAngle,30
;   oozeShieldSpeedMultiplier,1
;   infillExtruder,0
;   internalInfillPattern,Rectilinear
;   externalInfillPattern,Rectilinear
;   infillPercentage,10
;   outlineOverlapPercentage,15
;   infillExtrusionWidthPercentage,100
;   minInfillLength,5
;   infillLayerInterval,1
;   internalInfillAngles,45,-45
;   overlapInternalInfillAngles,0
;   externalInfillAngles,45,-45
;   generateSupport,1
;   supportExtruder,0
;   supportInfillPercentage,20
;   supportExtraInflation,0
;   supportBaseLayers,0
;   denseSupportExtruder,0
;   denseSupportLayers,0
;   denseSupportInfillPercentage,70
;   supportLayerInterval,1
;   supportHorizontalPartOffset,0.3
;   supportUpperSeparationLayers,1
;   supportLowerSeparationLayers,1
;   supportType,0
;   supportGridSpacing,4
;   maxOverhangAngle,45
;   supportAngles,0
;   temperatureName,Primary Extruder,Heated build platform
;   temperatureNumber,0,0
;   temperatureSetpointCount,1,1
;   temperatureSetpointLayers,1,1
;   temperatureSetpointTemperatures,210,60
;   temperatureStabilizeAtStartup,1,1
;   temperatureHeatedBed,0,1
;   fanLayers,1,2
;   fanSpeeds,0,100
;   blipFanToFullPower,0
;   adjustSpeedForCooling,1
;   minSpeedLayerTime,15
;   minCoolingSpeedSlowdown,20
;   increaseFanForCooling,0
;   minFanLayerTime,45
;   maxCoolingFanSpeed,100
;   increaseFanForBridging,0
;   bridgingFanSpeed,100
;   use5D,1
;   relativeEdistances,0
;   allowEaxisZeroing,1
;   independentExtruderAxes,0
;   includeM10123,0
;   stickySupport,1
;   applyToolheadOffsets,0
;   gcodeXoffset,0
;   gcodeYoffset,0
;   gcodeZoffset,0
;   overrideMachineDefinition,0
;   machineTypeOverride,0
;   strokeXoverride,200
;   strokeYoverride,200
;   strokeZoverride,200
;   originOffsetXoverride,0
;   originOffsetYoverride,0
;   originOffsetZoverride,0
;   homeXdirOverride,-1
;   homeYdirOverride,-1
;   homeZdirOverride,-1
;   flipXoverride,1
;   flipYoverride,-1
;   flipZoverride,1
;   toolheadOffsets,0,0|0,0|0,0|0,0|0,0|0,0
;   overrideFirmwareConfiguration,0
;   firmwareTypeOverride,RepRap (Marlin/Repetier/Sprinter)
;   GPXconfigOverride,r2
;   baudRateOverride,115200
;   overridePrinterModels,0
;   printerModelsOverride
;   startingGcode,G28 ; home all axes
;   layerChangeGcode,
;   retractionGcode,
;   toolChangeGcode,
;   endingGcode,M104 S0 ; turn off extruder,M140 S0 ; turn off bed,M84 ; disable motors
;   exportFileFormat,gcode
;   celebration,0
;   celebrationSong,Random Song
;   postProcessing,
;   defaultSpeed,3600
;   outlineUnderspeed,0.5
;   solidInfillUnderspeed,0.8
;   supportUnderspeed,0.8
;   rapidXYspeed,4800
;   rapidZspeed,1000
;   minBridgingArea,50
;   bridgingExtraInflation,0
;   bridgingExtrusionMultiplier,1
;   bridgingSpeedMultiplier,1
;   useFixedBridgingAngle,0
;   fixedBridgingAngle,0
;   applyBridgingToPerimeters,0
;   filamentDiameters,1.75|1.75|1.75|1.75|1.75|1.75
;   filamentPricesPerKg,46|46|46|46|46|46
;   filamentDensities,1.25|1.25|1.25|1.25|1.25|1.25
;   useMinPrintHeight,0
;   minPrintHeight,0
;   useMaxPrintHeight,0
;   maxPrintHeight,0
;   useDiaphragm,0
;   diaphragmLayerInterval,20
;   robustSlicing,1
;   mergeAllIntoSolid,0
;   onlyRetractWhenCrossingOutline,1
;   retractBetweenLayers,1
;   useRetractionMinTravel,0
;   retractionMinTravel,3
;   retractWhileWiping,0
;   onlyWipeOutlines,1
;   avoidCrossingOutline,0
;   maxMovementDetourFactor,3
;   toolChangeRetractionDistance,12
;   toolChangeExtraRestartDistance,-0.5
;   toolChangeRetractionSpeed,600
;   externalThinWallType,0
;   internalThinWallType,2
;   thinWallAllowedOverlapPercentage,10
;   singleExtrusionMinLength,1
;   singleExtrusionMinPrintingWidthPercentage,50
;   singleExtrusionMaxPrintingWidthPercentage,200
;   singleExtrusionEndpointExtension,0.2
;   horizontalSizeCompensation,0
G90
M82
M106 S0
M140 S60
M190 S60
M104 S210 T0
M109 S210 T0
G28 ; home all axes
; process Process1
; layer 1, Z = 0.180
T0
G92 E0.0000
G1 E-1.0000 F1800
; feature skirt
; tool H0.180 W0.400
G1 Z0.180 F1000
G1 X113.549 Y105.763 F4800
G1 E0.0000 F1800
G92 E0.0000
G1 X116.712 Y102.600 E0.1205 F1800
G1 X183.288 Y102.600 E1.9141
G1 X186.451 Y105.763 E2.0346
G1 X186.451 Y154.237 E3.3406
G1 X183.288 Y157.400 E3.4611
G1 X116.712 Y157.400 E5.2547
G1 X113.549 Y154.237 E5.3752
G1 X113.549 Y105.763 E6.6811
G92 E0.0000
G1 E-1.0000 F1800
G1 X113.949 Y105.929 F4800
G1 E0.0000 F1800
G92 E0.0000
G1 X116.878 Y103.000 E0.1116 F1800
G1 X183.122 Y103.000 E1.8963
G1 X186.051 Y105.929 E2.0079
G1 X186.051 Y154.071 E3.3048
G1 X183.122 Y157.000 E3.4164
G1 X116.878 Y157.000 E5.2011
G1 X113.949 Y154.071 E5.3127
G1 X113.949 Y105.929 E6.6097
G92 E0.0000
G1 E-1.0000 F1800
G1 X114.349 Y106.095 F4800
G1 E0.0000 F1800
G92 E0.0000
G1 X117.043 Y103.400 E0.1027 F1800
G1 X182.957 Y103.400 E1.8784
G1 X185.651 Y106.095 E1.9811
G1 X185.651 Y153.905 E3.2691
G1 X182.957 Y156.600 E3.3718
G1 X117.043 Y156.600 E5.1476
G1 X114.349 Y153.905 E5.2502
G1 X114.349 Y106.095 E6.5383
G92 E0.0000
G1 E-1.0000 F1800
G1 X114.749 Y106.260 F4800
G1 E0.0000 F1800
G92 E0.0000
G1 X117.209 Y103.800 E0.0937 F1800
G1 X182.791 Y103.800 E1.8606
G1 X185.251 Y106.260 E1.9543
G1 X185.251 Y153.740 E3.2334
G1 X182.791 Y156.200 E3.3272
G1 X117.209 Y156.200 E5.0940
G1 X114.749 Y153.740 E5.1877
G1 X114.749 Y106.260 E6.4669
G92 E0.0000
G1 E-1.0000 F1800
; feature inner perimeter
G1 X119.549 Y108.600 F4800
G1 E0.0000 F1800
G92 E0.0000
G1 X180.451 Y108.600 E1.6408 F1350
G1 X180.451 Y151.400 E2.7938
G1 X119.549 Y151.400 E4.4346
G1 X119.549 Y108.600 E5.5876
; feature outer perimeter
G1 X119.149 Y108.200 F4800
G92 E0.0000
G1 X180.851 Y108.200 E1.6623 F900
G1 X180.851 Y151.800 E2.8369
G1 X119.149 Y151.800 E4.4992
G1 X119.149 Y108.200 E5.6739
; feature inner perimeter
G1 X124.400 Y112.400 F4800
G92 E0.0000
G1 X124.400 Y147.600 E0.9483 F1350
G1 X137.600 Y147.600 E1.3039
G1 X137.600 Y112.400 E2.2522
G1 X124.400 Y112.400 E2.6079
; feature outer perimeter
G1 X124.800 Y112.800 F4800
G92 E0.0000
G1 X124.800 Y147.200 E0.9268 F900
G1 X137.200 Y147.200 E1.2608
G1 X137.200 Y112.800 E2.1876
G1 X124.800 Y112.800 E2.5217
; feature inner perimeter
G1 X143.400 Y112.400 F4800
G92 E0.0000
G1 X143.400 Y147.600 E0.9483 F1350
G1 X156.600 Y147.600 E1.3039
G1 X156.600 Y112.400 E2.2522
G1 X143.400 Y112.400 E2.6079
; feature outer perimeter
G1 X143.800 Y112.800 F4800
G92 E0.0000
G1 X143.800 Y147.200 E0.9268 F900
G1 X156.200 Y147.200 E1.2608
G1 X156.200 Y112.800 E2.1876
G1 X143.800 Y112.800 E2.5217
; feature inner perimeter
G1 X162.400 Y112.400 F4800
G92 E0.0000
G1 X162.400 Y147.600 E0.9483 F1350
G1 X175.600 Y147.600 E1.3039
G1 X175.600 Y112.400 E2.2522
G1 X162.400 Y112.400 E2.6079
; feature outer perimeter
G1 X162.800 Y112.800 F4800
G92 E0.0000
G1 X162.800 Y147.200 E0.9268 F900
G1 X175.200 Y147.200 E1.2608
G1 X175.200 Y112.800 E2.1876
G1 X162.800 Y112.800 E2.5217
; feature solid layer
G1 X162.060 Y118.301 F4800
G92 E0.0000
G1 X156.940 Y113.181 E0.1951 F1440
G1 X156.940 Y113.747 E0.2103
G1 X162.060 Y118.867 E0.4054
G1 X162.060 Y119.433 E0.4206
G1 X156.940 Y114.313 E0.6157
G1 X156.940 Y114.878 E0.6309
G1 X162.060 Y119.998 E0.8260
G1 X162.060 Y120.564 E0.8412
G1 X156.940 Y115.444 E1.0363
G1 X156.940 Y116.010 E1.0516
G1 X162.060 Y121.130 E1.2466
G1 X162.060 Y121.695 E1.2619
G1 X156.940 Y116.575 E1.4569
G1 X156.940 Y117.141 E1.4722
G1 X162.060 Y122.261 E1.6673
G1 X162.060 Y122.827 E1.6825
G1 X156.940 Y117.707 E1.8776
G1 X156.940 Y118.272 E1.8928
G1 X162.060 Y123.392 E2.0879
G1 X162.060 Y123.958 E2.1031
G1 X156.940 Y118.838 E2.2982
G1 X156.940 Y119.404 E2.3134
G1 X162.060 Y124.524 E2.5085
G1 X162.060 Y125.089 E2.5237
G1 X156.940 Y119.969 E2.7188
G1 X156.940 Y120.535 E2.7341
G1 X162.060 Y125.655 E2.9291
G1 X162.060 Y126.221 E2.9444
G1 X156.940 Y121.101 E3.1394
G1 X156.940 Y121.666 E3.1547
G1 X162.060 Y126.786 E3.3497
G1 X162.060 Y127.352 E3.3650
G1 X156.940 Y122.232 E3.5601
G1 X156.940 Y122.798 E3.5753
G1 X162.060 Y127.918 E3.7704
G1 X162.060 Y128.484 E3.7856
G1 X156.940 Y123.364 E3.9807
G1 X156.940 Y123.929 E3.9959
G1 X162.060 Y129.049 E4.1910
G1 X162.060 Y129.615 E4.2062
G1 X156.940 Y124.495 E4.4013
G1 X156.940 Y125.061 E4.4165
G1 X162.060 Y130.181 E4.6116
G1 X162.060 Y130.746 E4.6269
G1 X156.940 Y125.626 E4.8219
G1 X156.940 Y126.192 E4.8372
G1 X162.060 Y131.312 E5.0322
G1 X162.060 Y131.878 E5.0475
G1 X156.940 Y126.758 E5.2425
G1 X156.940 Y127.323 E5.2578
G1 X162.060 Y132.443 E5.4529
G1 X162.060 Y133.009 E5.4681
G1 X156.940 Y127.889 E5.6632
G1 X156.940 Y128.455 E5.6784
G1 X162.060 Y133.575 E5.8735
G1 X162.060 Y134.140 E5.8887
G1 X156.940 Y129.020 E6.0838
G1 X156.940 Y129.586 E6.0990
G1 X162.060 Y134.706 E6.2941
G1 X162.060 Y135.272 E6.3093
G1 X156.940 Y130.152 E6.5044
G1 X156.940 Y130.717 E6.5197
G1 X162.060 Y135.837 E6.7147
G1 X162.060 Y136.403 E6.7300
G1 X156.940 Y131.283 E6.9250
G1 X156.940 Y131.849 E6.9403
G1 X162.060 Y136.969 E7.1354
G1 X162.060 Y137.535 E7.1506
G1 X156.940 Y132.415 E7.3457
G1 X156.940 Y132.980 E7.3609
G1 X162.060 Y138.100 E7.5560
G1 X162.060 Y138.666 E7.5712
G1 X156.940 Y133.546 E7.7663
G1 X156.940 Y134.112 E7.7815
G1 X162.060 Y139.232 E7.9766
G1 X162.060 Y139.797 E7.9918
G1 X156.940 Y134.677 E8.1869
G1 X156.940 Y135.243 E8.2022
G1 X162.060 Y140.363 E8.3972
G1 X162.060 Y140.929 E8.4125
G1 X156.940 Y135.809 E8.6075
G1 X156.940 Y136.374 E8.6228
G1 X162.060 Y141.494 E8.8178
G1 X162.060 Y142.060 E8.8331
G1 X156.940 Y136.940 E9.0282
G1 X156.940 Y137.506 E9.0434
G1 X162.060 Y142.626 E9.2385
G1 X162.060 Y143.191 E9.2537
G1 X156.940 Y138.071 E9.4488
G1 X156.940 Y138.637 E9.4640
G1 X162.060 Y143.757 E9.6591
G1 X162.060 Y144.323 E9.6743
G1 X156.940 Y139.203 E9.8694
G1 X156.940 Y139.768 E9.8846
G1 X162.060 Y144.888 E10.0797
G1 X162.060 Y145.454 E10.0950
G1 X156.940 Y140.334 E10.2900
G1 X156.940 Y140.900 E10.3053
G1 X162.060 Y146.020 E10.5003
G1 X162.060 Y146.585 E10.5156
G1 X156.940 Y141.465 E10.7106
G1 X156.940 Y142.031 E10.7259
G1 X162.060 Y147.151 E10.9210
G1 X162.060 Y147.717 E10.9362
G1 X156.940 Y142.597 E11.1313
G1 X156.940 Y143.163 E11.1465
G1 X164.837 Y151.060 E11.4474
G1 X165.403 Y151.060 E11.4626
G1 X162.283 Y147.940 E11.5815
G1 X162.849 Y147.940 E11.5968
G1 X165.969 Y151.060 E11.7156
G1 X166.535 Y151.060 E11.7309
G1 X163.415 Y147.940 E11.8497
G1 X163.980 Y147.940 E11.8650
G1 X167.100 Y151.060 E11.9839
G1 X167.666 Y151.060 E11.9991
G1 X164.546 Y147.940 E12.1180
G1 X165.112 Y147.940 E12.1332
G1 X168.232 Y151.060 E12.2521
G1 X168.797 Y151.060 E12.2673
G1 X165.677 Y147.940 E12.3862
G1 X166.243 Y147.940 E12.4014
G1 X169.363 Y151.060 E12.5203
G1 X169.929 Y151.060 E12.5355
G1 X166.809 Y147.940 E12.6544
G1 X167.374 Y147.940 E12.6697
G1 X170.494 Y151.060 E12.7885
G1 X171.060 Y151.060 E12.8038
G1 X167.940 Y147.940 E12.9226
G1 X168.506 Y147.940 E12.9379
G1 X171.626 Y151.060 E13.0567
G1 X172.191 Y151.060 E13.0720
G1 X169.071 Y147.940 E13.1909
G1 X169.637 Y147.940 E13.2061
G1 X172.757 Y151.060 E13.3250
G1 X173.323 Y151.060 E13.3402
G1 X170.203 Y147.940 E13.4591
G1 X170.768 Y147.940 E13.4743
G1 X173.888 Y151.060 E13.5932
G1 X174.454 Y151.060 E13.6084
G1 X171.334 Y147.940 E13.7273
G1 X171.900 Y147.940 E13.7425
G1 X175.020 Y151.060 E13.8614
G1 X175.585 Y151.060 E13.8767
G1 X172.465 Y147.940 E13.9955
G1 X173.031 Y147.940 E14.0108
G1 X176.151 Y151.060 E14.1296
G1 X176.717 Y151.060 E14.1449
G1 X173.597 Y147.940 E14.2638
G1 X174.163 Y147.940 E14.2790
G1 X177.283 Y151.060 E14.3979
G1 X177.848 Y151.060 E14.4131
G1 X174.728 Y147.940 E14.5320
G1 X175.294 Y147.940 E14.5472
G1 X178.414 Y151.060 E14.6661
G1 X178.980 Y151.060 E14.6813
G1 X175.860 Y147.940 E14.8002
G1 X175.940 Y147.940 E14.8024
G1 X175.940 Y147.455 E14.8154
G1 X179.545 Y151.060 E14.9528
G1 X180.111 Y151.060 E14.9680
G1 X175.940 Y146.889 E15.1270
G1 X175.940 Y146.323 E15.1422
G1 X180.111 Y150.495 E15.3011
G1 X180.111 Y149.929 E15.3164
G1 X175.940 Y145.758 E15.4753
G1 X175.940 Y145.192 E15.4905
G1 X180.111 Y149.363 E15.6495
G1 X180.111 Y148.798 E15.6647
G1 X175.940 Y144.626 E15.8236
G1 X175.940 Y144.061 E15.8389
G1 X180.111 Y148.232 E15.9978
G1 X180.111 Y147.666 E16.0130
G1 X175.940 Y143.495 E16.1720
G1 X175.940 Y142.929 E16.1872
G1 X180.111 Y147.101 E16.3461
G1 X180.111 Y146.535 E16.3614
G1 X175.940 Y142.364 E16.5203
G1 X175.940 Y141.798 E16.5355
G1 X180.111 Y145.969 E16.6944
G1 X180.111 Y145.403 E16.7097
G1 X175.940 Y141.232 E16.8686
G1 X175.940 Y140.666 E16.8839
G1 X180.111 Y144.838 E17.0428
G1 X180.111 Y144.272 E17.0580
G1 X175.940 Y140.101 E17.2169
G1 X175.940 Y139.535 E17.2322
G1 X180.111 Y143.706 E17.3911
G1 X180.111 Y143.141 E17.4064
G1 X175.940 Y138.969 E17.5653
G1 X175.940 Y138.404 E17.5805
G1 X180.111 Y142.575 E17.7394
G1 X180.111 Y142.009 E17.7547
G1 X175.940 Y137.838 E17.9136
G1 X175.940 Y137.272 E17.9289
G1 X180.111 Y141.444 E18.0878
G1 X180.111 Y140.878 E18.1030
G1 X175.940 Y136.707 E18.2619
G1 X175.940 Y136.141 E18.2772
G1 X180.111 Y140.312 E18.4361
G1 X180.111 Y139.747 E18.4514
G1 X175.940 Y135.575 E18.6103
G1 X175.940 Y135.010 E18.6255
G1 X180.111 Y139.181 E18.7844
G1 X180.111 Y138.615 E18.7997
G1 X175.940 Y134.444 E18.9586
G1 X175.940 Y133.878 E18.9738
G1 X180.111 Y138.050 E19.1328
G1 X180.111 Y137.484 E19.1480
G1 X175.940 Y133.313 E19.3069
G1 X175.940 Y132.747 E19.3222
G1 X180.111 Y136.918 E19.4811
G1 X180.111 Y136.352 E19.4963
G1 X175.940 Y132.181 E19.6553
G1 X175.940 Y131.616 E19.6705
G1 X180.111 Y135.787 E19.8294
G1 X180.111 Y135.221 E19.8447
G1 X175.940 Y131.050 E20.0036
G1 X175.940 Y130.484 E20.0188
G1 X180.111 Y134.655 E20.1778
G1 X180.111 Y134.090 E20.1930
G1 X175.940 Y129.918 E20.3519
G1 X175.940 Y129.353 E20.3672
G1 X180.111 Y133.524 E20.5261
G1 X180.111 Y132.958 E20.5413
G1 X175.940 Y128.787 E20.7003
G1 X175.940 Y128.221 E20.7155
G1 X180.111 Y132.393 E20.8744
G1 X180.111 Y131.827 E20.8897
G1 X175.940 Y127.656 E21.0486
G1 X175.940 Y127.090 E21.0638
G1 X180.111 Y131.261 E21.2228
G1 X180.111 Y130.696 E21.2380
G1 X175.940 Y126.524 E21.3969
G1 X175.940 Y125.959 E21.4122
