; G-Code generated by Simplify3D(R) Version 4.1.1
; Mar 7, 2020 at 10:23:26 PM
; Settings Summary
;   processName,Process1
;   applyToModels,Caixa
;   profileName,Default (modified)
;   profileVersion,2015-05-01 08:00:00
;   baseProfile,
;   printMaterial,PLA
;   printQuality,Medium
;   printExtruders,
;   extruderName,Primary Extruder
;   extruderToolheadNumber,0
;   extruderDiameter,0.35
;   extruderAutoWidth,0
;   extruderWidth,0.4
;   extrusionMultiplier,0.9
;   extruderUseRetract,1
;   extruderRetractionDistance,1
;   extruderExtraRestartDistance,0
;   extruderRetractionZLift,0
;   extruderRetractionSpeed,1800
;   extruderUseCoasting,0
;   extruderCoastingDistance,0.2
;   extruderUseWipe,0
;   extruderWipeDistance,5
;   primaryExtruder,0
;   layerHeight,0.2
;   topSolidLayers,3
;   bottomSolidLayers,3
;   perimeterOutlines,2
;   printPerimetersInsideOut,1
;   startPointOption,2
;   startPointOriginX,0
;   startPointOriginY,0
;   sequentialIslands,0
;   spiralVaseMode,0
;   firstLayerHeightPercentage,90
;   firstLayerWidthPercentage,100
;   firstLayerUnderspeed,0.5
;   useRaft,0
;   raftExtruder,0
;   raftTopLayers,3
;   raftBaseLayers,2
;   raftOffset,3
;   raftSeparationDistance,0.14
;   raftTopInfill,100
;   aboveRaftSpeedMultiplier,0.3
;   useSkirt,1
;   skirtExtruder,0
;   skirtLayers,1
;   skirtOutlines,4
;   skirtOffset,4
;   usePrimePillar,0
;   primePillarExtruder,999
;   primePillarWidth,12
;   primePillarLocation,7
;   primePillarSpeedMultiplier,1
;   useOozeShield,0
;   oozeShieldExtruder,999
;   oozeShieldOffset,2
;   oozeShieldOutlines,1
;   oozeShieldSidewallShape,1
;   oozeShieldSidewallAngle,30
;   oozeShieldSpeedMultiplier,1
;   infillExtruder,0
;   internalInfillPattern,Rectilinear
;   externalInfillPattern,Rectilinear
;   infillPercentage,10
;   outlineOverlapPercentage,15
;   infillExtrusionWidthPercentage,100
;   minInfillLength,5
;   infillLayerInterval,1
;   internalInfillAngles,45,-45
;   overlapInternalInfillAngles,0
;   externalInfillAngles,45,-45
;   generateSupport,1
;   supportExtruder,0
;   supportInfillPercentage,20
;   supportExtraInflation,0
;   supportBaseLayers,0
;   denseSupportExtruder,0
;   denseSupportLayers,0
;   denseSupportInfillPercentage,70
;   supportLayerInterval,1
;   supportHorizontalPartOffset,0.3
;   supportUpperSeparationLayers,1
;   supportLowerSeparationLayers,1
;   supportType,0
;   supportGridSpacing,4
;   maxOverhangAngle,45
;   supportAngles,0
;   temperatureName,Primary Extruder,Heated build platform
;   temperatureNumber,0,0
;   temperatureSetpointCount,1,1
;   temperatureSetpointLayers,1,1
;   temperatureSetpointTemperatures,210,60
;   temperatureStabilizeAtStartup,1,1
;   temperatureHeatedBed,0,1
;   fanLayers,1,2
;   fanSpeeds,0,100
;   blipFanToFullPower,0
;   adjustSpeedForCooling,1
;   minSpeedLayerTime,15
;   minCoolingSpeedSlowdown,20
;   increaseFanForCooling,0
;   minFanLayerTime,45
;   maxCoolingFanSpeed,100
;   increaseFanForBridging,0
;   bridgingFanSpeed,100
;   use5D,1
;   relativeEdistances,0
;   allowEaxisZeroing,1
;   independentExtruderAxes,0
;   includeM10123,0
;   stickySupport,1
;   applyToolheadOffsets,0
;   gcodeXoffset,0
;   gcodeYoffset,0
;   gcodeZoffset,0
;   overrideMachineDefinition,0
;   machineTypeOverride,0
;   strokeXoverride,200
;   strokeYoverride,200
;   strokeZoverride,200
;   originOffsetXoverride,0
;   originOffsetYoverride,0
;   originOffsetZoverride,0
;   homeXdirOverride,-1
;   homeYdirOverride,-1
;   homeZdirOverride,-1
;   flipXoverride,1
;   flipYoverride,-1
;   flipZoverride,1
;   toolheadOffsets,0,0|0,0|0,0|0,0|0,0|0,0
;   overrideFirmwareConfiguration,0
;   firmwareTypeOverride,RepRap (Marlin/Repetier/Sprinter)
;   GPXconfigOverride,r2
;   baudRateOverride,115200
;   overridePrinterModels,0
;   printerModelsOverride
;   startingGcode,G28 ; home all axes
;   layerChangeGcode,
;   retractionGcode,
;   toolChangeGcode,
;   endingGcode,M104 S0 ; turn off extruder,M140 S0 ; turn off bed,M84 ; disable motors
;   exportFileFormat,gcode
;   celebration,0
;   celebrationSong,Random Song
;   postProcessing,
;   defaultSpeed,3600
;   outlineUnderspeed,0.5
;   solidInfillUnderspeed,0.8
;   supportUnderspeed,0.8
;   rapidXYspeed,4800
;   rapidZspeed,1000
;   minBridgingArea,50
;   bridgingExtraInflation,0
;   bridgingExtrusionMultiplier,1
;   bridgingSpeedMultiplier,1
;   useFixedBridgingAngle,0
;   fixedBridgingAngle,0
;   applyBridgingToPerimeters,0
;   filamentDiameters,1.75|1.75|1.75|1.75|1.75|1.75
;   filamentPricesPerKg,46|46|46|46|46|46
;   filamentDensities,1.25|1.25|1.25|1.25|1.25|1.25
;   useMinPrintHeight,0
;   minPrintHeight,0
;   useMaxPrintHeight,0
;   maxPrintHeight,0
;   useDiaphragm,0
;   diaphragmLayerInterval,20
;   robustSlicing,1
;   mergeAllIntoSolid,0
;   onlyRetractWhenCrossingOutline,1
;   retractBetweenLayers,1
;   useRetractionMinTravel,0
;   retractionMinTravel,3
;   retractWhileWiping,0
;   onlyWipeOutlines,1
;   avoidCrossingOutline,0
;   maxMovementDetourFactor,3
;   toolChangeRetractionDistance,12
;   toolChangeExtraRestartDistance,-0.5
;   toolChangeRetractionSpeed,600
;   externalThinWallType,0
;   internalThinWallType,2
;   thinWallAllowedOverlapPercentage,10
;   singleExtrusionMinLength,1
;   singleExtrusionMinPrintingWidthPercentage,50
;   singleExtrusionMaxPrintingWidthPercentage,200
;   singleExtrusionEndpointExtension,0.2
;   horizontalSizeCompensation,0
G90
M82
M106 S0
M140 S60
M190 S60
M104 S210 T0
M109 S210 T0
G28 ; home all axes
; process Process1
; layer 1, Z = 0.180
T0
G92 E0.0000
G1 E-1.0000 F1800
; feature skirt
; tool H0.180 W0.400
G1 Z0.180 F1000
G1 X88.263 Y102.600 F4800
G1 E0.0000 F1800
G92 E0.0000
G1 X211.737 Y102.600 E3.3265 F1800
G1 X214.900 Y105.763 E3.4470
G1 X214.900 Y154.237 E4.7529
G1 X211.737 Y157.400 E4.8734
G1 X88.263 Y157.400 E8.1999
G1 X85.100 Y154.237 E8.3204
G1 X85.100 Y105.763 E9.6263
G1 X88.263 Y102.600 E9.7468
G92 E0.0000
G1 E-1.0000 F1800
G1 X88.429 Y103.000 F4800
G1 E0.0000 F1800
G92 E0.0000
G1 X211.571 Y103.000 E3.3175 F1800
G1 X214.500 Y105.929 E3.4291
G1 X214.500 Y154.071 E4.7261
G1 X211.571 Y157.000 E4.8377
G1 X88.429 Y157.000 E8.1552
G1 X85.500 Y154.071 E8.2668
G1 X85.500 Y105.929 E9.5638
G1 X88.429 Y103.000 E9.6754
G92 E0.0000
G1 E-1.0000 F1800
G1 X88.595 Y103.400 F4800
G1 E0.0000 F1800
G92 E0.0000
G1 X211.405 Y103.400 E3.3086 F1800
G1 X214.100 Y106.095 E3.4113
G1 X214.100 Y153.905 E4.6993
G1 X211.405 Y156.600 E4.8020
G1 X88.595 Y156.600 E8.1106
G1 X85.900 Y153.905 E8.2133
G1 X85.900 Y106.095 E9.5013
G1 X88.595 Y103.400 E9.6040
G92 E0.0000
G1 E-1.0000 F1800
G1 X88.760 Y103.800 F4800
G1 E0.0000 F1800
G92 E0.0000
G1 X211.240 Y103.800 E3.2997 F1800
G1 X213.700 Y106.260 E3.3934
G1 X213.700 Y153.740 E4.6725
G1 X211.240 Y156.200 E4.7663
G1 X88.760 Y156.200 E8.0660
G1 X86.300 Y153.740 E8.1597
G1 X86.300 Y106.260 E9.4388
G1 X88.760 Y103.800 E9.5326
G92 E0.0000
G1 E-1.0000 F1800
; feature inner perimeter
G1 X91.100 Y108.600 F4800
G1 E0.0000 F1800
G92 E0.0000
G1 X208.900 Y108.600 E3.1736 F1350
G1 X208.900 Y151.400 E4.3267
G1 X91.100 Y151.400 E7.5003
G1 X91.100 Y108.600 E8.6534
; feature outer perimeter
G1 X90.700 Y108.200 F4800
G92 E0.0000
G1 X209.300 Y108.200 E3.1952 F900
G1 X209.300 Y151.800 E4.3698
G1 X90.700 Y151.800 E7.5650
G1 X90.700 Y108.200 E8.7396
; feature solid layer
G1 X91.864 Y151.060 F4800
G92 E0.0000
G1 X91.440 Y150.636 E0.0162 F1440
G1 X91.440 Y150.070 E0.0314
G1 X92.430 Y151.060 E0.0691
G1 X92.995 Y151.060 E0.0843
G1 X91.440 Y149.505 E0.1436
G1 X91.440 Y148.939 E0.1588
G1 X93.561 Y151.060 E0.2397
G1 X94.127 Y151.060 E0.2549
G1 X91.440 Y148.373 E0.3573
G1 X91.440 Y147.808 E0.3725
G1 X94.692 Y151.060 E0.4964
G1 X95.258 Y151.060 E0.5117
G1 X91.440 Y147.242 E0.6571
G1 X91.440 Y146.676 E0.6724
G1 X95.824 Y151.060 E0.8394
G1 X96.390 Y151.060 E0.8546
G1 X91.440 Y146.110 E1.0432
G1 X91.440 Y145.545 E1.0585
G1 X96.955 Y151.060 E1.2686
G1 X97.521 Y151.060 E1.2838
G1 X91.440 Y144.979 E1.5155
G1 X91.440 Y144.413 E1.5308
G1 X98.087 Y151.060 E1.7840
G1 X98.652 Y151.060 E1.7992
G1 X91.440 Y143.848 E2.0740
G1 X91.440 Y143.282 E2.0893
G1 X99.218 Y151.060 E2.3856
G1 X99.784 Y151.060 E2.4008
G1 X91.440 Y142.716 E2.7187
G1 X91.440 Y142.151 E2.7340
G1 X100.349 Y151.060 E3.0734
G1 X100.915 Y151.060 E3.0886
G1 X91.440 Y141.585 E3.4496
G1 X91.440 Y141.019 E3.4649
G1 X101.481 Y151.060 E3.8474
G1 X102.046 Y151.060 E3.8627
G1 X91.440 Y140.454 E4.2668
G1 X91.440 Y139.888 E4.2820
G1 X102.612 Y151.060 E4.7077
G1 X103.178 Y151.060 E4.7229
G1 X91.440 Y139.322 E5.1701
G1 X91.440 Y138.757 E5.1854
G1 X103.743 Y151.060 E5.6541
G1 X104.309 Y151.060 E5.6694
G1 X91.440 Y138.191 E6.1597
G1 X91.440 Y137.625 E6.1749
G1 X104.875 Y151.060 E6.6868
G1 X105.441 Y151.060 E6.7020
G1 X91.440 Y137.059 E7.2354
G1 X91.440 Y136.494 E7.2507
G1 X106.006 Y151.060 E7.8056
G1 X106.572 Y151.060 E7.8209
G1 X91.440 Y135.928 E8.3974
G1 X91.440 Y135.362 E8.4127
G1 X107.138 Y151.060 E9.0107
G1 X107.703 Y151.060 E9.0260
G1 X91.440 Y134.797 E9.6456
G1 X91.440 Y134.231 E9.6608
G1 X108.269 Y151.060 E10.3020
G1 X108.835 Y151.060 E10.3173
G1 X91.440 Y133.665 E10.9800
G1 X91.440 Y133.100 E10.9952
G1 X109.400 Y151.060 E11.6795
G1 X109.966 Y151.060 E11.6948
G1 X91.440 Y132.534 E12.4006
G1 X91.440 Y131.968 E12.4158
G1 X110.532 Y151.060 E13.1432
G1 X111.097 Y151.060 E13.1585
G1 X91.440 Y131.403 E13.9074
G1 X91.440 Y130.837 E13.9227
G1 X111.663 Y151.060 E14.6931
G1 X112.229 Y151.060 E14.7084
G1 X91.440 Y130.271 E15.5004
G1 X91.440 Y129.706 E15.5157
G1 X112.794 Y151.060 E16.3293
G1 X113.360 Y151.060 E16.3445
G1 X91.440 Y129.140 E17.1797
G1 X91.440 Y128.574 E17.1949
G1 X113.926 Y151.060 E18.0516
G1 X114.491 Y151.060 E18.0669
G1 X91.440 Y128.009 E18.9451
G1 X91.440 Y127.443 E18.9604
G1 X115.057 Y151.060 E19.8602
G1 X115.623 Y151.060 E19.8754
G1 X91.440 Y126.877 E20.7968
G1 X91.440 Y126.311 E20.8120
G1 X116.189 Y151.060 E21.7549
G1 X116.754 Y151.060 E21.7702
G1 X91.440 Y125.746 E22.7346
G1 X91.440 Y125.180 E22.7499
G1 X117.320 Y151.060 E23.7359
G1 X117.886 Y151.060 E23.7511
G1 X91.440 Y124.614 E24.7587
G1 X91.440 Y124.049 E24.7740
G1 X118.451 Y151.060 E25.8031
G1 X119.017 Y151.060 E25.8183
G1 X91.440 Y123.483 E26.8690
G1 X91.440 Y122.917 E26.8842
G1 X119.583 Y151.060 E27.9565
G1 X120.148 Y151.060 E27.9717
G1 X91.440 Y122.352 E29.0655
G1 X91.440 Y121.786 E29.0807
G1 X120.714 Y151.060 E30.1961
G1 X121.280 Y151.060 E30.2113
G1 X91.440 Y121.220 E31.3482
G1 X91.440 Y120.655 E31.3634
G1 X121.845 Y151.060 E32.5219
G1 X122.411 Y151.060 E32.5371
G1 X91.440 Y120.089 E33.7171
G1 X91.440 Y119.523 E33.7324
G1 X122.977 Y151.060 E34.9339
G1 X123.542 Y151.060 E34.9492
G1 X91.440 Y118.958 E36.1723
G1 X91.440 Y118.392 E36.1875
G1 X124.108 Y151.060 E37.4321
G1 X124.674 Y151.060 E37.4474
G1 X91.440 Y117.826 E38.7136
G1 X91.440 Y117.261 E38.7288
G1 X125.239 Y151.060 E40.0166
G1 X125.805 Y151.060 E40.0318
G1 X91.440 Y116.695 E41.3411
G1 X91.440 Y116.129 E41.3564
G1 X126.371 Y151.060 E42.6872
G1 X126.937 Y151.060 E42.7025
G1 X91.440 Y115.563 E44.0549
G1 X91.440 Y114.998 E44.0701
G1 X127.502 Y151.060 E45.4441
G1 X128.068 Y151.060 E45.4593
G1 X91.440 Y114.432 E46.8549
G1 X91.440 Y113.866 E46.8701
G1 X128.634 Y151.060 E48.2872
G1 X129.199 Y151.060 E48.3024
G1 X91.440 Y113.301 E49.7410
G1 X91.440 Y112.735 E49.7563
G1 X129.765 Y151.060 E51.2165
G1 X130.331 Y151.060 E51.2317
G1 X91.440 Y112.169 E52.7134
G1 X91.440 Y111.604 E52.7287
G1 X130.896 Y151.060 E54.2320
G1 X131.462 Y151.060 E54.2472
G1 X91.440 Y111.038 E55.7720
G1 X91.440 Y110.472 E55.7873
G1 X132.028 Y151.060 E57.3337
G1 X132.593 Y151.060 E57.3489
G1 X91.440 Y109.907 E58.9168
G1 X91.440 Y109.341 E58.9321
G1 X133.159 Y151.060 E60.5216
G1 X133.725 Y151.060 E60.5368
G1 X91.605 Y108.940 E62.1416
G1 X92.170 Y108.940 E62.1568
G1 X134.290 Y151.060 E63.7616
G1 X134.856 Y151.060 E63.7768
G1 X92.736 Y108.940 E65.3816
G1 X93.302 Y108.940 E65.3968
G1 X135.422 Y151.060 E67.0016
G1 X135.988 Y151.060 E67.0169
G1 X93.868 Y108.940 E68.6216
G1 X94.433 Y108.940 E68.6369
G1 X136.553 Y151.060 E70.2416
G1 X137.119 Y151.060 E70.2569
G1 X94.999 Y108.940 E71.8616
G1 X95.565 Y108.940 E71.8769
G1 X137.685 Y151.060 E73.4816
G1 X138.250 Y151.060 E73.4969
G1 X96.130 Y108.940 E75.1017
G1 X96.696 Y108.940 E75.1169
G1 X138.816 Y151.060 E76.7217
G1 X139.382 Y151.060 E76.7369
G1 X97.262 Y108.940 E78.3417
G1 X97.827 Y108.940 E78.3569
G1 X139.947 Y151.060 E79.9617
G1 X140.513 Y151.060 E79.9769
G1 X98.393 Y108.940 E81.5817
G1 X98.959 Y108.940 E81.5969
G1 X141.079 Y151.060 E83.2017
G1 X141.644 Y151.060 E83.2169
G1 X99.524 Y108.940 E84.8217
G1 X100.090 Y108.940 E84.8369
G1 X142.210 Y151.060 E86.4417
G1 X142.776 Y151.060 E86.4570
G1 X100.656 Y108.940 E88.0617
G1 X101.221 Y108.940 E88.0770
G1 X143.341 Y151.060 E89.6817
G1 X143.907 Y151.060 E89.6970
G1 X101.787 Y108.940 E91.3017
G1 X102.353 Y108.940 E91.3170
G1 X144.473 Y151.060 E92.9217
G1 X145.038 Y151.060 E92.9370
G1 X102.918 Y108.940 E94.5418
G1 X103.484 Y108.940 E94.5570
G1 X145.604 Y151.060 E96.1618
G1 X146.170 Y151.060 E96.1770
G1 X104.050 Y108.940 E97.7818
G1 X104.616 Y108.940 E97.7970
G1 X146.736 Y151.060 E99.4018
G1 X147.301 Y151.060 E99.4170
G1 X105.181 Y108.940 E101.0218
G1 X105.747 Y108.940 E101.0370
G1 X147.867 Y151.060 E102.6418
G1 X148.433 Y151.060 E102.6570
G1 X106.313 Y108.940 E104.2618
G1 X106.878 Y108.940 E104.2770
G1 X148.998 Y151.060 E105.8818
G1 X149.564 Y151.060 E105.8971
G1 X107.444 Y108.940 E107.5018
G1 X108.010 Y108.940 E107.5171
G1 X150.130 Y151.060 E109.1218
G1 X150.695 Y151.060 E109.1371
G1 X108.575 Y108.940 E110.7418
G1 X109.141 Y108.940 E110.7571
G1 X151.261 Y151.060 E112.3618
G1 X151.827 Y151.060 E112.3771
G1 X109.707 Y108.940 E113.9819
G1 X110.272 Y108.940 E113.9971
G1 X152.392 Y151.060 E115.6019
G1 X152.958 Y151.060 E115.6171
G1 X110.838 Y108.940 E117.2219
G1 X111.404 Y108.940 E117.2371
G1 X153.524 Y151.060 E118.8419
G1 X154.089 Y151.060 E118.8571
G1 X111.969 Y108.940 E120.4619
G1 X112.535 Y108.940 E120.4771
G1 X154.655 Y151.060 E122.0819
G1 X155.221 Y151.060 E122.0971
G1 X113.101 Y108.940 E123.7019
G1 X113.667 Y108.940 E123.7171
G1 X155.787 Y151.060 E125.3219
G1 X156.352 Y151.060 E125.3372
G1 X114.232 Y108.940 E126.9419
G1 X114.798 Y108.940 E126.9572
G1 X156.918 Y151.060 E128.5619
G1 X157.484 Y151.060 E128.5772
G1 X115.364 Y108.940 E130.1819
G1 X115.929 Y108.940 E130.1972
G1 X158.049 Y151.060 E131.8020
G1 X158.615 Y151.060 E131.8172
G1 X116.495 Y108.940 E133.4220
G1 X117.061 Y108.940 E133.4372
G1 X159.181 Y151.060 E135.0420
G1 X159.746 Y151.060 E135.0572
G1 X117.626 Y108.940 E136.6620
G1 X118.192 Y108.940 E136.6772
G1 X160.312 Y151.060 E138.2820
G1 X160.878 Y151.060 E138.2972
G1 X118.758 Y108.940 E139.9020
G1 X119.323 Y108.940 E139.9172
G1 X161.443 Y151.060 E141.5220
G1 X162.009 Y151.060 E141.5372
G1 X119.889 Y108.940 E143.1420
G1 X120.455 Y108.940 E143.1573
G1 X162.575 Y151.060 E144.7620
G1 X163.140 Y151.060 E144.7773
G1 X121.020 Y108.940 E146.3820
G1 X121.586 Y108.940 E146.3973
G1 X163.706 Y151.060 E148.0020
G1 X164.272 Y151.060 E148.0173
G1 X122.152 Y108.940 E149.6220
G1 X122.717 Y108.940 E149.6373
G1 X164.837 Y151.060 E151.2421
G1 X165.403 Y151.060 E151.2573
G1 X123.283 Y108.940 E152.8621
G1 X123.849 Y108.940 E152.8773
G1 X165.969 Y151.060 E154.4821
G1 X166.535 Y151.060 E154.4973
G1 X124.415 Y108.940 E156.1021
G1 X124.980 Y108.940 E156.1173
G1 X167.100 Y151.060 E157.7221
G1 X167.666 Y151.060 E157.7373
G1 X125.546 Y108.940 E159.3421
G1 X126.112 Y108.940 E159.3573
G1 X168.232 Y151.060 E160.9621
G1 X168.797 Y151.060 E160.9773
G1 X126.677 Y108.940 E162.5821
