; G-Code generated by Simplify3D(R) Version 4.1.1
; Mar 7, 2020 at 10:21:18 PM
; Settings Summary
;   processName,Process1
;   applyToModels,Chassi
;   profileName,Default (modified)
;   profileVersion,2015-05-01 08:00:00
;   baseProfile,
;   printMaterial,PLA
;   printQuality,Medium
;   printExtruders,
;   extruderName,Primary Extruder
;   extruderToolheadNumber,0
;   extruderDiameter,0.35
;   extruderAutoWidth,0
;   extruderWidth,0.4
;   extrusionMultiplier,0.9
;   extruderUseRetract,1
;   extruderRetractionDistance,1
;   extruderExtraRestartDistance,0
;   extruderRetractionZLift,0
;   extruderRetractionSpeed,1800
;   extruderUseCoasting,0
;   extruderCoastingDistance,0.2
;   extruderUseWipe,0
;   extruderWipeDistance,5
;   primaryExtruder,0
;   layerHeight,0.2
;   topSolidLayers,3
;   bottomSolidLayers,3
;   perimeterOutlines,2
;   printPerimetersInsideOut,1
;   startPointOption,2
;   startPointOriginX,0
;   startPointOriginY,0
;   sequentialIslands,0
;   spiralVaseMode,0
;   firstLayerHeightPercentage,90
;   firstLayerWidthPercentage,100
;   firstLayerUnderspeed,0.5
;   useRaft,0
;   raftExtruder,0
;   raftTopLayers,3
;   raftBaseLayers,2
;   raftOffset,3
;   raftSeparationDistance,0.14
;   raftTopInfill,100
;   aboveRaftSpeedMultiplier,0.3
;   useSkirt,1
;   skirtExtruder,0
;   skirtLayers,1
;   skirtOutlines,4
;   skirtOffset,4
;   usePrimePillar,0
;   primePillarExtruder,999
;   primePillarWidth,12
;   primePillarLocation,7
;   primePillarSpeedMultiplier,1
;   useOozeShield,0
;   oozeShieldExtruder,999
;   oozeShieldOffset,2
;   oozeShieldOutlines,1
;   oozeShieldSidewallShape,1
;   oozeShieldSidewallAngle,30
;   oozeShieldSpeedMultiplier,1
;   infillExtruder,0
;   internalInfillPattern,Rectilinear
;   externalInfillPattern,Rectilinear
;   infillPercentage,10
;   outlineOverlapPercentage,15
;   infillExtrusionWidthPercentage,100
;   minInfillLength,5
;   infillLayerInterval,1
;   internalInfillAngles,45,-45
;   overlapInternalInfillAngles,0
;   externalInfillAngles,45,-45
;   generateSupport,1
;   supportExtruder,0
;   supportInfillPercentage,20
;   supportExtraInflation,0
;   supportBaseLayers,0
;   denseSupportExtruder,0
;   denseSupportLayers,0
;   denseSupportInfillPercentage,70
;   supportLayerInterval,1
;   supportHorizontalPartOffset,0.3
;   supportUpperSeparationLayers,1
;   supportLowerSeparationLayers,1
;   supportType,0
;   supportGridSpacing,4
;   maxOverhangAngle,45
;   supportAngles,0
;   temperatureName,Primary Extruder,Heated build platform
;   temperatureNumber,0,0
;   temperatureSetpointCount,1,1
;   temperatureSetpointLayers,1,1
;   temperatureSetpointTemperatures,210,60
;   temperatureStabilizeAtStartup,1,1
;   temperatureHeatedBed,0,1
;   fanLayers,1,2
;   fanSpeeds,0,100
;   blipFanToFullPower,0
;   adjustSpeedForCooling,1
;   minSpeedLayerTime,15
;   minCoolingSpeedSlowdown,20
;   increaseFanForCooling,0
;   minFanLayerTime,45
;   maxCoolingFanSpeed,100
;   increaseFanForBridging,0
;   bridgingFanSpeed,100
;   use5D,1
;   relativeEdistances,0
;   allowEaxisZeroing,1
;   independentExtruderAxes,0
;   includeM10123,0
;   stickySupport,1
;   applyToolheadOffsets,0
;   gcodeXoffset,0
;   gcodeYoffset,0
;   gcodeZoffset,0
;   overrideMachineDefinition,0
;   machineTypeOverride,0
;   strokeXoverride,200
;   strokeYoverride,200
;   strokeZoverride,200
;   originOffsetXoverride,0
;   originOffsetYoverride,0
;   originOffsetZoverride,0
;   homeXdirOverride,-1
;   homeYdirOverride,-1
;   homeZdirOverride,-1
;   flipXoverride,1
;   flipYoverride,-1
;   flipZoverride,1
;   toolheadOffsets,0,0|0,0|0,0|0,0|0,0|0,0
;   overrideFirmwareConfiguration,0
;   firmwareTypeOverride,RepRap (Marlin/Repetier/Sprinter)
;   GPXconfigOverride,r2
;   baudRateOverride,115200
;   overridePrinterModels,0
;   printerModelsOverride
;   startingGcode,G28 ; home all axes
;   layerChangeGcode,
;   retractionGcode,
;   toolChangeGcode,
;   endingGcode,M104 S0 ; turn off extruder,M140 S0 ; turn off bed,M84 ; disable motors
;   exportFileFormat,gcode
;   celebration,0
;   celebrationSong,Random Song
;   postProcessing,
;   defaultSpeed,3600
;   outlineUnderspeed,0.5
;   solidInfillUnderspeed,0.8
;   supportUnderspeed,0.8
;   rapidXYspeed,4800
;   rapidZspeed,1000
;   minBridgingArea,50
;   bridgingExtraInflation,0
;   bridgingExtrusionMultiplier,1
;   bridgingSpeedMultiplier,1
;   useFixedBridgingAngle,0
;   fixedBridgingAngle,0
;   applyBridgingToPerimeters,0
;   filamentDiameters,1.75|1.75|1.75|1.75|1.75|1.75
;   filamentPricesPerKg,46|46|46|46|46|46
;   filamentDensities,1.25|1.25|1.25|1.25|1.25|1.25
;   useMinPrintHeight,0
;   minPrintHeight,0
;   useMaxPrintHeight,0
;   maxPrintHeight,0
;   useDiaphragm,0
;   diaphragmLayerInterval,20
;   robustSlicing,1
;   mergeAllIntoSolid,0
;   onlyRetractWhenCrossingOutline,1
;   retractBetweenLayers,1
;   useRetractionMinTravel,0
;   retractionMinTravel,3
;   retractWhileWiping,0
;   onlyWipeOutlines,1
;   avoidCrossingOutline,0
;   maxMovementDetourFactor,3
;   toolChangeRetractionDistance,12
;   toolChangeExtraRestartDistance,-0.5
;   toolChangeRetractionSpeed,600
;   externalThinWallType,0
;   internalThinWallType,2
;   thinWallAllowedOverlapPercentage,10
;   singleExtrusionMinLength,1
;   singleExtrusionMinPrintingWidthPercentage,50
;   singleExtrusionMaxPrintingWidthPercentage,200
;   singleExtrusionEndpointExtension,0.2
;   horizontalSizeCompensation,0
G90
M82
M106 S0
M140 S60
M190 S60
M104 S210 T0
M109 S210 T0
G28 ; home all axes
; process Process1
; layer 1, Z = 0.180
T0
G92 E0.0000
G1 E-1.0000 F1800
; feature skirt
; tool H0.180 W0.400
G1 Z0.180 F1000
G1 X62.600 Y65.263 F4800
G1 E0.0000 F1800
G92 E0.0000
G1 X65.763 Y62.100 E0.1205 F1800
G1 X84.773 Y62.100 E0.6326
G1 X87.773 Y59.100 E0.7469
G1 X110.227 Y59.100 E1.3519
G1 X113.227 Y62.100 E1.4662
G1 X133.460 Y62.100 E2.0113
G1 X134.366 Y62.256 E2.0360
G1 X195.419 Y83.840 E3.7806
G1 X195.801 Y84.380 E3.7984
G1 X206.457 Y84.380 E4.0855
G1 X209.620 Y87.543 E4.2060
G1 X209.620 Y88.380 E4.2286
G1 X214.457 Y88.380 E4.3589
G1 X217.620 Y91.543 E4.4794
G1 X217.620 Y92.380 E4.5019
G1 X226.457 Y92.380 E4.7400
G1 X229.620 Y95.543 E4.8605
G1 X229.620 Y96.380 E4.8831
G1 X234.457 Y96.380 E5.0134
G1 X237.620 Y99.543 E5.1339
G1 X237.620 Y160.457 E6.7750
G1 X234.457 Y163.620 E6.8955
G1 X229.620 Y163.620 E7.0258
G1 X229.620 Y164.457 E7.0483
G1 X226.457 Y167.620 E7.1688
G1 X217.620 Y167.620 E7.4069
G1 X217.620 Y168.457 E7.4295
G1 X214.457 Y171.620 E7.5500
G1 X209.620 Y171.620 E7.6803
G1 X209.620 Y172.457 E7.7028
G1 X206.457 Y175.620 E7.8233
G1 X195.801 Y175.620 E8.1104
G1 X195.419 Y176.160 E8.1282
G1 X134.366 Y197.744 E9.8728
G1 X133.460 Y197.900 E9.8976
G1 X113.227 Y197.900 E10.4427
G1 X110.227 Y200.900 E10.5570
G1 X87.773 Y200.900 E11.1619
G1 X84.773 Y197.900 E11.2762
G1 X65.763 Y197.900 E11.7883
G1 X62.600 Y194.737 E11.9089
G1 X62.600 Y65.263 E15.3970
G92 E0.0000
G1 E-1.0000 F1800
G1 X63.000 Y65.429 F4800
G1 E0.0000 F1800
G92 E0.0000
G1 X65.929 Y62.500 E0.1116 F1800
G1 X85.009 Y62.500 E0.6256
G1 X85.009 Y62.429 E0.6276
G1 X87.938 Y59.500 E0.7391
G1 X110.062 Y59.500 E1.3352
G1 X112.991 Y62.429 E1.4467
G1 X112.991 Y62.500 E1.4487
G1 X133.426 Y62.500 E1.9992
G1 X134.265 Y62.644 E2.0221
G1 X195.166 Y84.174 E3.7624
G1 X195.594 Y84.780 E3.7823
G1 X206.291 Y84.780 E4.0705
G1 X209.220 Y87.709 E4.1821
G1 X209.220 Y88.780 E4.2110
G1 X214.291 Y88.780 E4.3476
G1 X217.220 Y91.709 E4.4592
G1 X217.220 Y92.780 E4.4880
G1 X226.291 Y92.780 E4.7324
G1 X229.220 Y95.709 E4.8440
G1 X229.220 Y96.780 E4.8729
G1 X234.291 Y96.780 E5.0095
G1 X237.220 Y99.709 E5.1211
G1 X237.220 Y160.291 E6.7532
G1 X234.291 Y163.220 E6.8648
G1 X229.220 Y163.220 E7.0014
G1 X229.220 Y164.291 E7.0303
G1 X226.291 Y167.220 E7.1419
G1 X217.220 Y167.220 E7.3863
G1 X217.220 Y168.291 E7.4151
G1 X214.291 Y171.220 E7.5267
G1 X209.220 Y171.220 E7.6633
G1 X209.220 Y172.291 E7.6922
G1 X206.291 Y175.220 E7.8038
G1 X195.594 Y175.220 E8.0920
G1 X195.166 Y175.825 E8.1119
G1 X134.265 Y197.356 E9.8522
G1 X133.426 Y197.500 E9.8751
G1 X112.991 Y197.500 E10.4256
G1 X112.991 Y197.571 E10.4276
G1 X110.062 Y200.500 E10.5391
G1 X87.938 Y200.500 E11.1352
G1 X85.009 Y197.571 E11.2468
G1 X85.009 Y197.500 E11.2487
G1 X65.929 Y197.500 E11.7627
G1 X63.000 Y194.571 E11.8743
G1 X63.000 Y65.429 E15.3535
G92 E0.0000
G1 E-1.0000 F1800
G1 X63.400 Y65.595 F4800
G1 E0.0000 F1800
G92 E0.0000
G1 X66.095 Y62.900 E0.1027 F1800
G1 X85.409 Y62.900 E0.6230
G1 X85.409 Y62.595 E0.6312
G1 X88.104 Y59.900 E0.7339
G1 X109.896 Y59.900 E1.3210
G1 X112.591 Y62.595 E1.4237
G1 X112.591 Y62.900 E1.4319
G1 X133.392 Y62.900 E1.9923
G1 X134.164 Y63.032 E2.0134
G1 X194.913 Y84.509 E3.7493
G1 X195.387 Y85.180 E3.7714
G1 X206.125 Y85.180 E4.0607
G1 X208.820 Y87.875 E4.1634
G1 X208.820 Y89.180 E4.1985
G1 X214.125 Y89.180 E4.3415
G1 X216.820 Y91.875 E4.4441
G1 X216.820 Y93.180 E4.4793
G1 X226.125 Y93.180 E4.7300
G1 X228.820 Y95.875 E4.8327
G1 X228.820 Y97.180 E4.8678
G1 X234.125 Y97.180 E5.0108
G1 X236.820 Y99.875 E5.1134
G1 X236.820 Y160.125 E6.7366
G1 X234.125 Y162.820 E6.8393
G1 X228.820 Y162.820 E6.9822
G1 X228.820 Y164.125 E7.0174
G1 X226.125 Y166.820 E7.1201
G1 X216.820 Y166.820 E7.3708
G1 X216.820 Y168.125 E7.4059
G1 X214.125 Y170.820 E7.5086
G1 X208.820 Y170.820 E7.6515
G1 X208.820 Y172.125 E7.6867
G1 X206.125 Y174.820 E7.7893
G1 X195.387 Y174.820 E8.0787
G1 X194.913 Y175.491 E8.1008
G1 X134.164 Y196.968 E9.8367
G1 X133.392 Y197.100 E9.8578
G1 X112.591 Y197.100 E10.4182
G1 X112.591 Y197.405 E10.4264
G1 X109.896 Y200.100 E10.5291
G1 X88.104 Y200.100 E11.1161
G1 X85.409 Y197.405 E11.2188
G1 X85.409 Y197.100 E11.2270
G1 X66.095 Y197.100 E11.7474
G1 X63.400 Y194.405 E11.8501
G1 X63.400 Y65.595 E15.3203
G92 E0.0000
G1 E-1.0000 F1800
G1 X63.800 Y65.760 F4800
G1 E0.0000 F1800
G92 E0.0000
G1 X66.260 Y63.300 E0.0937 F1800
G1 X85.809 Y63.300 E0.6204
G1 X85.809 Y62.760 E0.6349
G1 X88.270 Y60.300 E0.7287
G1 X109.730 Y60.300 E1.3068
G1 X112.191 Y62.760 E1.4006
G1 X112.191 Y63.300 E1.4151
G1 X133.358 Y63.300 E1.9854
G1 X134.063 Y63.421 E2.0046
G1 X194.659 Y84.844 E3.7362
G1 X195.180 Y85.580 E3.7605
G1 X205.960 Y85.580 E4.0509
G1 X208.420 Y88.040 E4.1446
G1 X208.420 Y89.580 E4.1861
G1 X213.960 Y89.580 E4.3354
G1 X216.420 Y92.040 E4.4291
G1 X216.420 Y93.580 E4.4706
G1 X225.960 Y93.580 E4.7276
G1 X228.420 Y96.040 E4.8213
G1 X228.420 Y97.580 E4.8628
G1 X233.960 Y97.580 E5.0120
G1 X236.420 Y100.040 E5.1058
G1 X236.420 Y159.960 E6.7200
G1 X233.960 Y162.420 E6.8138
G1 X228.420 Y162.420 E6.9630
G1 X228.420 Y163.960 E7.0045
G1 X225.960 Y166.420 E7.0982
G1 X216.420 Y166.420 E7.3552
G1 X216.420 Y167.960 E7.3967
G1 X213.960 Y170.420 E7.4905
G1 X208.420 Y170.420 E7.6397
G1 X208.420 Y171.960 E7.6812
G1 X205.960 Y174.420 E7.7749
G1 X195.180 Y174.420 E8.0653
G1 X194.659 Y175.156 E8.0896
G1 X134.063 Y196.579 E9.8212
G1 X133.358 Y196.700 E9.8404
G1 X112.191 Y196.700 E10.4107
G1 X112.191 Y197.240 E10.4252
G1 X109.730 Y199.700 E10.5190
G1 X88.270 Y199.700 E11.0971
G1 X85.809 Y197.240 E11.1909
G1 X85.809 Y196.700 E11.2054
G1 X66.260 Y196.700 E11.7321
G1 X63.800 Y194.240 E11.8258
G1 X63.800 Y65.760 E15.2871
G92 E0.0000
G1 E-1.0000 F1800
; feature inner perimeter
G1 X68.600 Y68.100 F4800
G1 E0.0000 F1800
G92 E0.0000
G1 X90.609 Y68.100 E0.5930 F1350
G1 X90.609 Y65.100 E0.6738
G1 X107.391 Y65.100 E1.1259
G1 X107.391 Y68.100 E1.2067
G1 X132.897 Y68.100 E1.8939
G1 X191.401 Y88.783 E3.5656
G1 X191.401 Y171.217 E5.7864
G1 X132.897 Y191.900 E7.4581
G1 X107.391 Y191.900 E8.1453
G1 X107.391 Y194.900 E8.2261
G1 X90.609 Y194.900 E8.6782
G1 X90.609 Y191.900 E8.7590
G1 X68.600 Y191.900 E9.3520
G1 X68.600 Y68.100 E12.6873
; feature outer perimeter
G1 X68.200 Y67.700 F4800
G92 E0.0000
G1 X90.209 Y67.700 E0.5930 F900
G1 X90.209 Y64.700 E0.6738
G1 X107.791 Y64.700 E1.1474
G1 X107.791 Y67.700 E1.2282
G1 X132.966 Y67.700 E1.9065
G1 X191.801 Y88.500 E3.5877
G1 X191.801 Y171.500 E5.8237
G1 X132.966 Y192.300 E7.5049
G1 X107.791 Y192.300 E8.1832
G1 X107.791 Y195.300 E8.2640
G1 X90.209 Y195.300 E8.7376
G1 X90.209 Y192.300 E8.8185
G1 X68.200 Y192.300 E9.4114
G1 X68.200 Y67.700 E12.7682
; feature inner perimeter
G1 X77.257 Y112.195 F4800
G92 E0.0000
G1 X76.286 Y112.404 E0.0267 F1350
G1 X75.365 Y112.774 E0.0535
G1 X74.520 Y113.295 E0.0802
G1 X73.775 Y113.951 E0.1070
G1 X73.151 Y114.723 E0.1337
G1 X72.667 Y115.589 E0.1604
G1 X72.337 Y116.525 E0.1872
G1 X72.169 Y117.504 E0.2139
G1 X72.169 Y118.496 E0.2407
G1 X72.337 Y119.475 E0.2674
G1 X72.667 Y120.411 E0.2942
G1 X73.151 Y121.277 E0.3209
G1 X73.775 Y122.049 E0.3476
G1 X74.520 Y122.705 E0.3744
G1 X75.365 Y123.226 E0.4011
G1 X76.286 Y123.596 E0.4279
G1 X77.257 Y123.805 E0.4546
G1 X78.248 Y123.847 E0.4813
G1 X79.233 Y123.721 E0.5081
G1 X80.182 Y123.430 E0.5348
G1 X81.068 Y122.983 E0.5616
G1 X81.866 Y122.393 E0.5883
G1 X82.553 Y121.676 E0.6150
G1 X83.109 Y120.854 E0.6418
G1 X83.518 Y119.950 E0.6685
G1 X83.769 Y118.987 E0.6953
G1 X83.849 Y117.958 E0.7231
G1 X83.768 Y117.011 E0.7487
G1 X83.518 Y116.050 E0.7755
G1 X83.109 Y115.146 E0.8022
G1 X82.553 Y114.324 E0.8290
G1 X81.866 Y113.607 E0.8557
G1 X81.068 Y113.017 E0.8824
G1 X80.182 Y112.570 E0.9092
G1 X79.233 Y112.279 E0.9359
G1 X78.248 Y112.153 E0.9627
G1 X77.257 Y112.195 E0.9894
; feature outer perimeter
G1 X77.308 Y112.593 F4800
G92 E0.0000
G1 X76.404 Y112.788 E0.0249 F900
G1 X75.546 Y113.133 E0.0498
G1 X74.759 Y113.618 E0.0747
G1 X74.065 Y114.228 E0.0996
G1 X73.484 Y114.948 E0.1245
G1 X73.033 Y115.755 E0.1494
G1 X72.725 Y116.627 E0.1743
G1 X72.569 Y117.538 E0.1993
G1 X72.569 Y118.462 E0.2242
G1 X72.725 Y119.373 E0.2491
G1 X73.033 Y120.245 E0.2740
G1 X73.484 Y121.052 E0.2989
G1 X74.065 Y121.772 E0.3238
G1 X74.759 Y122.382 E0.3487
G1 X75.546 Y122.867 E0.3736
G1 X76.404 Y123.212 E0.3985
G1 X77.308 Y123.407 E0.4234
G1 X78.231 Y123.446 E0.4483
G1 X79.148 Y123.328 E0.4732
G1 X80.032 Y123.058 E0.4981
G1 X80.858 Y122.641 E0.5230
G1 X81.601 Y122.092 E0.5480
G1 X82.241 Y121.424 E0.5729
G1 X82.759 Y120.658 E0.5978
G1 X83.139 Y119.816 E0.6227
G1 X83.373 Y118.920 E0.6476
G1 X83.447 Y117.959 E0.6736
G1 X83.372 Y117.079 E0.6974
G1 X83.139 Y116.184 E0.7223
G1 X82.759 Y115.342 E0.7472
G1 X82.241 Y114.576 E0.7721
G1 X81.601 Y113.908 E0.7970
G1 X80.858 Y113.359 E0.8219
G1 X80.032 Y112.942 E0.8468
G1 X79.148 Y112.672 E0.8717
G1 X78.231 Y112.554 E0.8966
G1 X77.308 Y112.593 E0.9215
G92 E0.0000
G1 E-1.0000 F1800
; feature inner perimeter
G1 X78.248 Y136.153 F4800
G1 E0.0000 F1800
G92 E0.0000
G1 X77.257 Y136.195 E0.0267 F1350
G1 X76.286 Y136.404 E0.0535
G1 X75.365 Y136.774 E0.0802
G1 X74.520 Y137.295 E0.1070
G1 X73.775 Y137.951 E0.1337
G1 X73.151 Y138.723 E0.1604
G1 X72.667 Y139.589 E0.1872
G1 X72.337 Y140.525 E0.2139
G1 X72.169 Y141.504 E0.2407
G1 X72.169 Y142.496 E0.2674
G1 X72.337 Y143.475 E0.2942
G1 X72.667 Y144.411 E0.3209
G1 X73.151 Y145.277 E0.3476
G1 X73.775 Y146.049 E0.3744
G1 X74.520 Y146.705 E0.4011
G1 X75.365 Y147.226 E0.4279
G1 X76.286 Y147.596 E0.4546
G1 X77.257 Y147.805 E0.4813
G1 X78.248 Y147.847 E0.5081
G1 X79.233 Y147.721 E0.5348
G1 X80.182 Y147.430 E0.5616
G1 X81.068 Y146.983 E0.5883
G1 X81.866 Y146.393 E0.6150
G1 X82.553 Y145.676 E0.6418
G1 X83.109 Y144.854 E0.6685
G1 X83.518 Y143.950 E0.6953
G1 X83.769 Y142.987 E0.7221
G1 X83.849 Y141.958 E0.7499
G1 X83.768 Y141.011 E0.7755
G1 X83.518 Y140.050 E0.8022
G1 X83.109 Y139.146 E0.8290
G1 X82.553 Y138.324 E0.8557
G1 X81.866 Y137.607 E0.8824
G1 X81.068 Y137.017 E0.9092
G1 X80.182 Y136.570 E0.9359
G1 X79.233 Y136.279 E0.9627
G1 X78.248 Y136.153 E0.9894
; feature outer perimeter
