; G-Code generated by Simplify3D(R) Version 4.1.1
; Mar 7, 2020 at 10:01:30 PM
; Settings Summary
;   processName,Process1
;   applyToModels,Pneu
;   profileName,Default (modified)
;   profileVersion,2015-05-01 08:00:00
;   baseProfile,
;   printMaterial,PLA
;   printQuality,Medium
;   printExtruders,
;   extruderName,Primary Extruder
;   extruderToolheadNumber,0
;   extruderDiameter,0.35
;   extruderAutoWidth,0
;   extruderWidth,0.4
;   extrusionMultiplier,0.9
;   extruderUseRetract,1
;   extruderRetractionDistance,1
;   extruderExtraRestartDistance,0
;   extruderRetractionZLift,0
;   extruderRetractionSpeed,1800
;   extruderUseCoasting,0
;   extruderCoastingDistance,0.2
;   extruderUseWipe,0
;   extruderWipeDistance,5
;   primaryExtruder,0
;   layerHeight,0.2
;   topSolidLayers,3
;   bottomSolidLayers,3
;   perimeterOutlines,2
;   printPerimetersInsideOut,1
;   startPointOption,2
;   startPointOriginX,0
;   startPointOriginY,0
;   sequentialIslands,0
;   spiralVaseMode,0
;   firstLayerHeightPercentage,90
;   firstLayerWidthPercentage,100
;   firstLayerUnderspeed,0.5
;   useRaft,0
;   raftExtruder,0
;   raftTopLayers,3
;   raftBaseLayers,2
;   raftOffset,3
;   raftSeparationDistance,0.14
;   raftTopInfill,100
;   aboveRaftSpeedMultiplier,0.3
;   useSkirt,1
;   skirtExtruder,0
;   skirtLayers,1
;   skirtOutlines,4
;   skirtOffset,4
;   usePrimePillar,0
;   primePillarExtruder,999
;   primePillarWidth,12
;   primePillarLocation,7
;   primePillarSpeedMultiplier,1
;   useOozeShield,0
;   oozeShieldExtruder,999
;   oozeShieldOffset,2
;   oozeShieldOutlines,1
;   oozeShieldSidewallShape,1
;   oozeShieldSidewallAngle,30
;   oozeShieldSpeedMultiplier,1
;   infillExtruder,0
;   internalInfillPattern,Rectilinear
;   externalInfillPattern,Rectilinear
;   infillPercentage,100
;   outlineOverlapPercentage,15
;   infillExtrusionWidthPercentage,100
;   minInfillLength,5
;   infillLayerInterval,1
;   internalInfillAngles,45,-45
;   overlapInternalInfillAngles,0
;   externalInfillAngles,45,-45
;   generateSupport,0
;   supportExtruder,0
;   supportInfillPercentage,20
;   supportExtraInflation,0
;   supportBaseLayers,0
;   denseSupportExtruder,0
;   denseSupportLayers,0
;   denseSupportInfillPercentage,70
;   supportLayerInterval,1
;   supportHorizontalPartOffset,0.3
;   supportUpperSeparationLayers,1
;   supportLowerSeparationLayers,1
;   supportType,0
;   supportGridSpacing,4
;   maxOverhangAngle,45
;   supportAngles,0
;   temperatureName,Primary Extruder,Heated build platform
;   temperatureNumber,0,0
;   temperatureSetpointCount,1,1
;   temperatureSetpointLayers,1,1
;   temperatureSetpointTemperatures,210,60
;   temperatureStabilizeAtStartup,1,1
;   temperatureHeatedBed,0,1
;   fanLayers,1,2
;   fanSpeeds,0,100
;   blipFanToFullPower,0
;   adjustSpeedForCooling,1
;   minSpeedLayerTime,15
;   minCoolingSpeedSlowdown,20
;   increaseFanForCooling,0
;   minFanLayerTime,45
;   maxCoolingFanSpeed,100
;   increaseFanForBridging,0
;   bridgingFanSpeed,100
;   use5D,1
;   relativeEdistances,0
;   allowEaxisZeroing,1
;   independentExtruderAxes,0
;   includeM10123,0
;   stickySupport,1
;   applyToolheadOffsets,0
;   gcodeXoffset,0
;   gcodeYoffset,0
;   gcodeZoffset,0
;   overrideMachineDefinition,0
;   machineTypeOverride,0
;   strokeXoverride,200
;   strokeYoverride,200
;   strokeZoverride,200
;   originOffsetXoverride,0
;   originOffsetYoverride,0
;   originOffsetZoverride,0
;   homeXdirOverride,-1
;   homeYdirOverride,-1
;   homeZdirOverride,-1
;   flipXoverride,1
;   flipYoverride,-1
;   flipZoverride,1
;   toolheadOffsets,0,0|0,0|0,0|0,0|0,0|0,0
;   overrideFirmwareConfiguration,0
;   firmwareTypeOverride,RepRap (Marlin/Repetier/Sprinter)
;   GPXconfigOverride,r2
;   baudRateOverride,115200
;   overridePrinterModels,0
;   printerModelsOverride
;   startingGcode,G28 ; home all axes
;   layerChangeGcode,
;   retractionGcode,
;   toolChangeGcode,
;   endingGcode,M104 S0 ; turn off extruder,M140 S0 ; turn off bed,M84 ; disable motors
;   exportFileFormat,gcode
;   celebration,0
;   celebrationSong,Random Song
;   postProcessing,
;   defaultSpeed,3600
;   outlineUnderspeed,0.5
;   solidInfillUnderspeed,0.8
;   supportUnderspeed,0.8
;   rapidXYspeed,4800
;   rapidZspeed,1000
;   minBridgingArea,50
;   bridgingExtraInflation,0
;   bridgingExtrusionMultiplier,1
;   bridgingSpeedMultiplier,1
;   useFixedBridgingAngle,0
;   fixedBridgingAngle,0
;   applyBridgingToPerimeters,0
;   filamentDiameters,1.75|1.75|1.75|1.75|1.75|1.75
;   filamentPricesPerKg,46|46|46|46|46|46
;   filamentDensities,1.25|1.25|1.25|1.25|1.25|1.25
;   useMinPrintHeight,0
;   minPrintHeight,0
;   useMaxPrintHeight,0
;   maxPrintHeight,0
;   useDiaphragm,0
;   diaphragmLayerInterval,20
;   robustSlicing,1
;   mergeAllIntoSolid,0
;   onlyRetractWhenCrossingOutline,1
;   retractBetweenLayers,1
;   useRetractionMinTravel,0
;   retractionMinTravel,3
;   retractWhileWiping,0
;   onlyWipeOutlines,1
;   avoidCrossingOutline,0
;   maxMovementDetourFactor,3
;   toolChangeRetractionDistance,12
;   toolChangeExtraRestartDistance,-0.5
;   toolChangeRetractionSpeed,600
;   externalThinWallType,0
;   internalThinWallType,2
;   thinWallAllowedOverlapPercentage,10
;   singleExtrusionMinLength,1
;   singleExtrusionMinPrintingWidthPercentage,50
;   singleExtrusionMaxPrintingWidthPercentage,200
;   singleExtrusionEndpointExtension,0.2
;   horizontalSizeCompensation,0
G90
M82
M106 S0
M140 S60
M190 S60
M104 S210 T0
M109 S210 T0
G28 ; home all axes
; process Process1
; layer 1, Z = 0.180
T0
G92 E0.0000
G1 E-1.0000 F1800
; feature skirt
; tool H0.180 W0.400
G1 Z0.180 F1000
G1 X123.392 Y102.806 F4800
G1 E0.0000 F1800
G92 E0.0000
G1 X127.342 Y99.622 E0.1367 F1800
G1 X127.460 Y99.532 E0.1407
G1 X128.625 Y98.694 E0.1793
G1 X128.675 Y98.492 E0.1850
G1 X133.130 Y96.064 E0.3216
G1 X133.263 Y95.996 E0.3257
G1 X134.558 Y95.380 E0.3643
G1 X134.644 Y95.190 E0.3699
G1 X139.461 Y93.597 E0.5066
G1 X139.603 Y93.554 E0.5106
G1 X140.988 Y93.179 E0.5493
G1 X141.107 Y93.007 E0.5549
G1 X146.130 Y92.300 E0.6916
G1 X146.278 Y92.283 E0.6956
G1 X147.708 Y92.161 E0.7342
G1 X147.855 Y92.013 E0.7398
G1 X152.924 Y92.214 E0.8765
G1 X153.073 Y92.224 E0.8805
G1 X154.501 Y92.360 E0.9192
G1 X154.672 Y92.240 E0.9248
G1 X159.624 Y93.343 E1.0615
G1 X159.769 Y93.380 E1.0655
G1 X161.149 Y93.768 E1.1041
G1 X161.339 Y93.681 E1.1098
G1 X166.015 Y95.650 E1.2464
G1 X166.151 Y95.712 E1.2505
G1 X167.440 Y96.341 E1.2891
G1 X167.642 Y96.289 E1.2947
G1 X171.891 Y99.062 E1.4314
G1 X172.013 Y99.146 E1.4354
G1 X173.170 Y99.995 E1.4741
G1 X173.378 Y99.981 E1.4797
G1 X177.064 Y103.467 E1.6164
G1 X177.169 Y103.572 E1.6204
G1 X178.155 Y104.614 E1.6590
G1 X178.362 Y104.637 E1.6646
G1 X181.366 Y108.726 E1.8013
G1 X181.451 Y108.848 E1.8053
G1 X182.235 Y110.049 E1.8440
G1 X182.435 Y110.108 E1.8496
G1 X184.661 Y114.668 E1.9863
G1 X184.722 Y114.803 E1.9903
G1 X185.280 Y116.125 E2.0289
G1 X185.466 Y116.219 E2.0346
G1 X186.842 Y121.103 E2.1712
G1 X186.878 Y121.247 E2.1753
G1 X187.190 Y122.647 E2.2139
G1 X187.357 Y122.773 E2.2195
G1 X187.838 Y127.824 E2.3562
G1 X187.848 Y127.972 E2.3602
G1 X187.906 Y129.406 E2.3989
G1 X188.047 Y129.559 E2.4045
G1 X187.619 Y134.615 E2.5412
G1 X187.602 Y134.762 E2.5452
G1 X187.403 Y136.183 E2.5838
G1 X187.514 Y136.359 E2.5894
G1 X186.190 Y141.257 E2.7261
G1 X186.148 Y141.399 E2.7301
G1 X185.698 Y142.762 E2.7688
G1 X185.776 Y142.955 E2.7744
G1 X183.599 Y147.538 E2.9111
G1 X183.531 Y147.670 E2.9151
G1 X182.845 Y148.930 E2.9537
G1 X182.888 Y149.135 E2.9594
G1 X179.927 Y153.255 E3.0960
G1 X179.837 Y153.373 E3.1001
G1 X178.937 Y154.490 E3.1387
G1 X178.943 Y154.699 E3.1443
G1 X175.294 Y158.225 E3.2810
G1 X175.184 Y158.325 E3.2850
G1 X174.099 Y159.263 E3.3237
G1 X174.067 Y159.470 E3.3293
G1 X169.848 Y162.287 E3.4660
G1 X169.722 Y162.366 E3.4700
G1 X168.487 Y163.096 E3.5086
G1 X168.419 Y163.293 E3.5142
G1 X163.764 Y165.312 E3.6509
G1 X163.626 Y165.367 E3.6549
G1 X162.280 Y165.865 E3.6936
G1 X162.178 Y166.046 E3.6992
G1 X157.238 Y167.202 E3.8359
G1 X157.092 Y167.231 E3.8399
G1 X155.679 Y167.481 E3.8785
G1 X155.546 Y167.641 E3.8842
G1 X150.479 Y167.896 E4.0208
G1 X150.330 Y167.899 E4.0249
G1 X148.895 Y167.892 E4.0635
G1 X148.736 Y168.026 E4.0691
G1 X143.705 Y167.372 E4.2058
G1 X143.558 Y167.349 E4.2098
G1 X142.147 Y167.085 E4.2485
G1 X141.966 Y167.189 E4.2541
G1 X137.133 Y165.647 E4.3908
G1 X136.992 Y165.598 E4.3948
G1 X135.652 Y165.087 E4.4334
G1 X135.455 Y165.156 E4.4390
G1 X130.975 Y162.776 E4.5757
G1 X130.845 Y162.703 E4.5797
G1 X129.617 Y161.961 E4.6184
G1 X129.411 Y161.994 E4.6240
G1 X125.428 Y158.852 E4.7607
G1 X125.314 Y158.756 E4.7647
G1 X124.238 Y157.807 E4.8033
G1 X124.030 Y157.803 E4.8090
G1 X120.671 Y154.000 E4.9456
G1 X120.576 Y153.886 E4.9496
G1 X119.687 Y152.760 E4.9883
G1 X119.483 Y152.719 E4.9939
G1 X116.857 Y148.377 E5.1306
G1 X116.784 Y148.248 E5.1346
G1 X116.110 Y146.981 E5.1733
G1 X115.916 Y146.904 E5.1789
G1 X114.108 Y142.164 E5.3156
G1 X114.059 Y142.023 E5.3196
G1 X113.623 Y140.657 E5.3582
G1 X113.446 Y140.546 E5.3638
G1 X112.513 Y135.559 E5.5005
G1 X112.490 Y135.412 E5.5045
G1 X112.304 Y133.990 E5.5432
G1 X112.150 Y133.849 E5.5488
G1 X112.123 Y128.776 E5.6855
G1 X112.126 Y128.627 E5.6895
G1 X112.198 Y127.194 E5.7281
G1 X112.071 Y127.029 E5.7338
G1 X112.950 Y122.032 E5.8704
G1 X112.980 Y121.886 E5.8744
G1 X113.306 Y120.489 E5.9131
G1 X113.211 Y120.304 E5.9187
G1 X114.969 Y115.544 E6.0554
G1 X115.024 Y115.406 E6.0594
G1 X115.594 Y114.090 E6.0981
G1 X115.534 Y113.890 E6.1037
G1 X118.113 Y109.521 E6.2404
G1 X118.192 Y109.395 E6.2444
G1 X118.988 Y108.202 E6.2830
G1 X118.964 Y107.995 E6.2886
G1 X122.282 Y104.156 E6.4253
G1 X122.382 Y104.046 E6.4293
G1 X123.379 Y103.014 E6.4680
G1 X123.392 Y102.806 E6.4736
G92 E0.0000
G1 E-1.0000 F1800
G1 X123.780 Y103.007 F4800
G1 E0.0000 F1800
G92 E0.0000
G1 X127.589 Y99.937 E0.1318 F1800
G1 X127.698 Y99.853 E0.1355
G1 X128.978 Y98.933 E0.1780
G1 X129.021 Y98.759 E0.1828
G1 X133.317 Y96.418 E0.3146
G1 X133.440 Y96.355 E0.3183
G1 X134.863 Y95.679 E0.3608
G1 X134.937 Y95.515 E0.3656
G1 X139.581 Y93.978 E0.4974
G1 X139.713 Y93.939 E0.5011
G1 X141.234 Y93.527 E0.5436
G1 X141.336 Y93.379 E0.5484
G1 X146.181 Y92.696 E0.6802
G1 X146.318 Y92.681 E0.6839
G1 X147.888 Y92.547 E0.7264
G1 X148.014 Y92.420 E0.7312
G1 X152.903 Y92.614 E0.8630
G1 X153.040 Y92.623 E0.8667
G1 X154.609 Y92.772 E0.9092
G1 X154.757 Y92.669 E0.9140
G1 X159.532 Y93.732 E1.0458
G1 X159.666 Y93.766 E1.0496
G1 X161.182 Y94.193 E1.0920
G1 X161.346 Y94.118 E1.0968
G1 X165.855 Y96.017 E1.2286
G1 X165.980 Y96.074 E1.2324
G1 X167.396 Y96.764 E1.2748
G1 X167.571 Y96.720 E1.2797
G1 X171.668 Y99.394 E1.4115
G1 X171.781 Y99.472 E1.4152
G1 X173.051 Y100.404 E1.4576
G1 X173.231 Y100.392 E1.4625
G1 X176.785 Y103.754 E1.5943
G1 X176.882 Y103.851 E1.5980
G1 X177.965 Y104.996 E1.6404
G1 X178.144 Y105.015 E1.6453
G1 X181.041 Y108.958 E1.7771
G1 X181.119 Y109.071 E1.7808
G1 X181.981 Y110.391 E1.8232
G1 X182.153 Y110.442 E1.8281
G1 X184.299 Y114.838 E1.9599
G1 X184.356 Y114.964 E1.9636
G1 X184.968 Y116.416 E2.0060
G1 X185.129 Y116.497 E2.0109
G1 X186.455 Y121.206 E2.1427
G1 X186.489 Y121.339 E2.1464
G1 X186.832 Y122.877 E2.1888
G1 X186.975 Y122.986 E2.1937
G1 X187.439 Y127.856 E2.3255
G1 X187.449 Y127.993 E2.3292
G1 X187.512 Y129.568 E2.3717
G1 X187.633 Y129.700 E2.3765
G1 X187.221 Y134.575 E2.5083
G1 X187.205 Y134.712 E2.5120
G1 X186.986 Y136.273 E2.5545
G1 X187.082 Y136.425 E2.5593
G1 X185.806 Y141.147 E2.6911
G1 X185.766 Y141.279 E2.6948
G1 X185.272 Y142.776 E2.7373
G1 X185.339 Y142.942 E2.7421
G1 X183.240 Y147.361 E2.8739
G1 X183.177 Y147.484 E2.8776
G1 X182.424 Y148.868 E2.9201
G1 X182.460 Y149.044 E2.9249
G1 X179.606 Y153.017 E3.0567
G1 X179.522 Y153.127 E3.0604
G1 X178.534 Y154.354 E3.1029
G1 X178.538 Y154.533 E3.1077
G1 X175.020 Y157.933 E3.2395
G1 X174.918 Y158.026 E3.2432
G1 X173.727 Y159.057 E3.2857
G1 X173.699 Y159.234 E3.2905
G1 X169.630 Y161.951 E3.4223
G1 X169.514 Y162.025 E3.4260
G1 X168.157 Y162.826 E3.4685
G1 X168.098 Y162.996 E3.4733
G1 X163.610 Y164.943 E3.6051
G1 X163.482 Y164.994 E3.6089
G1 X162.004 Y165.540 E3.6513
G1 X161.916 Y165.697 E3.6561
G1 X157.152 Y166.811 E3.7880
G1 X157.017 Y166.838 E3.7917
G1 X155.465 Y167.112 E3.8341
G1 X155.350 Y167.250 E3.8390
G1 X150.464 Y167.496 E3.9708
G1 X150.326 Y167.499 E3.9745
G1 X148.751 Y167.491 E4.0169
G1 X148.613 Y167.607 E4.0218
G1 X143.762 Y166.976 E4.1536
G1 X143.626 Y166.954 E4.1573
G1 X142.076 Y166.665 E4.1997
G1 X141.920 Y166.754 E4.2046
G1 X137.259 Y165.267 E4.3364
G1 X137.129 Y165.222 E4.3401
G1 X135.657 Y164.661 E4.3825
G1 X135.488 Y164.721 E4.3874
G1 X131.167 Y162.425 E4.5192
G1 X131.047 Y162.357 E4.5229
G1 X129.699 Y161.543 E4.5653
G1 X129.521 Y161.571 E4.5702
G1 X125.680 Y158.541 E4.7020
G1 X125.574 Y158.453 E4.7057
G1 X124.393 Y157.410 E4.7481
G1 X124.213 Y157.407 E4.7530
G1 X120.975 Y153.740 E4.8848
G1 X120.886 Y153.634 E4.8885
G1 X119.910 Y152.397 E4.9310
G1 X119.734 Y152.361 E4.9358
G1 X117.202 Y148.175 E5.0676
G1 X117.134 Y148.055 E5.0713
G1 X116.394 Y146.664 E5.1138
G1 X116.227 Y146.597 E5.1186
G1 X114.484 Y142.026 E5.2504
G1 X114.439 Y141.896 E5.2541
G1 X113.959 Y140.395 E5.2966
G1 X113.807 Y140.300 E5.3014
G1 X112.908 Y135.491 E5.4332
G1 X112.886 Y135.355 E5.4369
G1 X112.682 Y133.792 E5.4794
G1 X112.549 Y133.672 E5.4842
G1 X112.523 Y128.779 E5.6160
G1 X112.526 Y128.642 E5.6197
G1 X112.605 Y127.068 E5.6622
G1 X112.495 Y126.925 E5.6670
G1 X113.343 Y122.107 E5.7988
G1 X113.371 Y121.972 E5.8025
G1 X113.729 Y120.437 E5.8450
G1 X113.647 Y120.278 E5.8498
G1 X115.342 Y115.688 E5.9816
G1 X115.393 Y115.560 E5.9853
G1 X116.020 Y114.114 E6.0278
G1 X115.968 Y113.942 E6.0326
G1 X118.454 Y109.729 E6.1644
G1 X118.528 Y109.613 E6.1682
G1 X119.402 Y108.302 E6.2106
G1 X119.382 Y108.123 E6.2154
G1 X122.581 Y104.422 E6.3473
G1 X122.674 Y104.320 E6.3510
G1 X123.768 Y103.187 E6.3934
G1 X123.780 Y103.007 E6.3983
G92 E0.0000
G1 E-1.0000 F1800
G1 X124.168 Y103.209 F4800
G1 E0.0000 F1800
G92 E0.0000
G1 X127.836 Y100.252 E0.1269 F1800
G1 X127.936 Y100.175 E0.1303
G1 X129.330 Y99.172 E0.1766
G1 X129.367 Y99.026 E0.1807
G1 X133.504 Y96.772 E0.3076
G1 X133.616 Y96.714 E0.3110
G1 X135.167 Y95.977 E0.3572
G1 X135.229 Y95.839 E0.3613
G1 X139.702 Y94.360 E0.4882
G1 X139.823 Y94.323 E0.4916
G1 X141.480 Y93.875 E0.5379
G1 X141.566 Y93.751 E0.5420
G1 X146.231 Y93.093 E0.6689
G1 X146.357 Y93.079 E0.6723
G1 X148.068 Y92.934 E0.7186
G1 X148.174 Y92.827 E0.7226
G1 X152.882 Y93.013 E0.8495
G1 X153.008 Y93.022 E0.8530
G1 X154.717 Y93.184 E0.8992
G1 X154.841 Y93.098 E0.9033
G1 X159.440 Y94.122 E1.0302
G1 X159.563 Y94.153 E1.0336
G1 X161.215 Y94.618 E1.0799
G1 X161.352 Y94.555 E1.0839
G1 X165.694 Y96.383 E1.2109
G1 X165.810 Y96.436 E1.2143
G1 X167.353 Y97.188 E1.2605
G1 X167.499 Y97.151 E1.2646
G1 X171.445 Y99.726 E1.3915
G1 X171.549 Y99.798 E1.3949
G1 X172.933 Y100.814 E1.4412
G1 X173.083 Y100.803 E1.4452
G1 X176.506 Y104.041 E1.5722
G1 X176.595 Y104.130 E1.5756
G1 X177.776 Y105.377 E1.6218
G1 X177.926 Y105.394 E1.6259
G1 X180.715 Y109.190 E1.7528
G1 X180.787 Y109.295 E1.7562
G1 X181.726 Y110.732 E1.8025
G1 X181.871 Y110.775 E1.8065
G1 X183.937 Y115.009 E1.9335
G1 X183.990 Y115.124 E1.9369
G1 X184.657 Y116.706 E1.9831
G1 X184.791 Y116.774 E1.9872
G1 X186.069 Y121.309 E2.1141
G1 X186.100 Y121.432 E2.1175
G1 X186.473 Y123.108 E2.1638
G1 X186.594 Y123.199 E2.1679
G1 X187.041 Y127.889 E2.2948
G1 X187.049 Y128.015 E2.2982
G1 X187.118 Y129.731 E2.3445
G1 X187.220 Y129.842 E2.3485
G1 X186.823 Y134.536 E2.4754
G1 X186.808 Y134.662 E2.4788
