; G-Code generated by Simplify3D(R) Version 4.1.1
; Mar 7, 2020 at 10:02:35 PM
; Settings Summary
;   processName,Process1
;   applyToModels,Roda
;   profileName,Default (modified)
;   profileVersion,2015-05-01 08:00:00
;   baseProfile,
;   printMaterial,PLA
;   printQuality,Medium
;   printExtruders,
;   extruderName,Primary Extruder
;   extruderToolheadNumber,0
;   extruderDiameter,0.35
;   extruderAutoWidth,0
;   extruderWidth,0.4
;   extrusionMultiplier,0.9
;   extruderUseRetract,1
;   extruderRetractionDistance,1
;   extruderExtraRestartDistance,0
;   extruderRetractionZLift,0
;   extruderRetractionSpeed,1800
;   extruderUseCoasting,0
;   extruderCoastingDistance,0.2
;   extruderUseWipe,0
;   extruderWipeDistance,5
;   primaryExtruder,0
;   layerHeight,0.2
;   topSolidLayers,3
;   bottomSolidLayers,3
;   perimeterOutlines,2
;   printPerimetersInsideOut,1
;   startPointOption,2
;   startPointOriginX,0
;   startPointOriginY,0
;   sequentialIslands,0
;   spiralVaseMode,0
;   firstLayerHeightPercentage,90
;   firstLayerWidthPercentage,100
;   firstLayerUnderspeed,0.5
;   useRaft,0
;   raftExtruder,0
;   raftTopLayers,3
;   raftBaseLayers,2
;   raftOffset,3
;   raftSeparationDistance,0.14
;   raftTopInfill,100
;   aboveRaftSpeedMultiplier,0.3
;   useSkirt,1
;   skirtExtruder,0
;   skirtLayers,1
;   skirtOutlines,4
;   skirtOffset,4
;   usePrimePillar,0
;   primePillarExtruder,999
;   primePillarWidth,12
;   primePillarLocation,7
;   primePillarSpeedMultiplier,1
;   useOozeShield,0
;   oozeShieldExtruder,999
;   oozeShieldOffset,2
;   oozeShieldOutlines,1
;   oozeShieldSidewallShape,1
;   oozeShieldSidewallAngle,30
;   oozeShieldSpeedMultiplier,1
;   infillExtruder,0
;   internalInfillPattern,Rectilinear
;   externalInfillPattern,Rectilinear
;   infillPercentage,10
;   outlineOverlapPercentage,15
;   infillExtrusionWidthPercentage,100
;   minInfillLength,5
;   infillLayerInterval,1
;   internalInfillAngles,45,-45
;   overlapInternalInfillAngles,0
;   externalInfillAngles,45,-45
;   generateSupport,0
;   supportExtruder,0
;   supportInfillPercentage,20
;   supportExtraInflation,0
;   supportBaseLayers,0
;   denseSupportExtruder,0
;   denseSupportLayers,0
;   denseSupportInfillPercentage,70
;   supportLayerInterval,1
;   supportHorizontalPartOffset,0.3
;   supportUpperSeparationLayers,1
;   supportLowerSeparationLayers,1
;   supportType,0
;   supportGridSpacing,4
;   maxOverhangAngle,45
;   supportAngles,0
;   temperatureName,Primary Extruder,Heated build platform
;   temperatureNumber,0,0
;   temperatureSetpointCount,1,1
;   temperatureSetpointLayers,1,1
;   temperatureSetpointTemperatures,210,60
;   temperatureStabilizeAtStartup,1,1
;   temperatureHeatedBed,0,1
;   fanLayers,1,2
;   fanSpeeds,0,100
;   blipFanToFullPower,0
;   adjustSpeedForCooling,1
;   minSpeedLayerTime,15
;   minCoolingSpeedSlowdown,20
;   increaseFanForCooling,0
;   minFanLayerTime,45
;   maxCoolingFanSpeed,100
;   increaseFanForBridging,0
;   bridgingFanSpeed,100
;   use5D,1
;   relativeEdistances,0
;   allowEaxisZeroing,1
;   independentExtruderAxes,0
;   includeM10123,0
;   stickySupport,1
;   applyToolheadOffsets,0
;   gcodeXoffset,0
;   gcodeYoffset,0
;   gcodeZoffset,0
;   overrideMachineDefinition,0
;   machineTypeOverride,0
;   strokeXoverride,200
;   strokeYoverride,200
;   strokeZoverride,200
;   originOffsetXoverride,0
;   originOffsetYoverride,0
;   originOffsetZoverride,0
;   homeXdirOverride,-1
;   homeYdirOverride,-1
;   homeZdirOverride,-1
;   flipXoverride,1
;   flipYoverride,-1
;   flipZoverride,1
;   toolheadOffsets,0,0|0,0|0,0|0,0|0,0|0,0
;   overrideFirmwareConfiguration,0
;   firmwareTypeOverride,RepRap (Marlin/Repetier/Sprinter)
;   GPXconfigOverride,r2
;   baudRateOverride,115200
;   overridePrinterModels,0
;   printerModelsOverride
;   startingGcode,G28 ; home all axes
;   layerChangeGcode,
;   retractionGcode,
;   toolChangeGcode,
;   endingGcode,M104 S0 ; turn off extruder,M140 S0 ; turn off bed,M84 ; disable motors
;   exportFileFormat,gcode
;   celebration,0
;   celebrationSong,Random Song
;   postProcessing,
;   defaultSpeed,3600
;   outlineUnderspeed,0.5
;   solidInfillUnderspeed,0.8
;   supportUnderspeed,0.8
;   rapidXYspeed,4800
;   rapidZspeed,1000
;   minBridgingArea,50
;   bridgingExtraInflation,0
;   bridgingExtrusionMultiplier,1
;   bridgingSpeedMultiplier,1
;   useFixedBridgingAngle,0
;   fixedBridgingAngle,0
;   applyBridgingToPerimeters,0
;   filamentDiameters,1.75|1.75|1.75|1.75|1.75|1.75
;   filamentPricesPerKg,46|46|46|46|46|46
;   filamentDensities,1.25|1.25|1.25|1.25|1.25|1.25
;   useMinPrintHeight,0
;   minPrintHeight,0
;   useMaxPrintHeight,0
;   maxPrintHeight,0
;   useDiaphragm,0
;   diaphragmLayerInterval,20
;   robustSlicing,1
;   mergeAllIntoSolid,0
;   onlyRetractWhenCrossingOutline,1
;   retractBetweenLayers,1
;   useRetractionMinTravel,0
;   retractionMinTravel,3
;   retractWhileWiping,0
;   onlyWipeOutlines,1
;   avoidCrossingOutline,0
;   maxMovementDetourFactor,3
;   toolChangeRetractionDistance,12
;   toolChangeExtraRestartDistance,-0.5
;   toolChangeRetractionSpeed,600
;   externalThinWallType,0
;   internalThinWallType,2
;   thinWallAllowedOverlapPercentage,10
;   singleExtrusionMinLength,1
;   singleExtrusionMinPrintingWidthPercentage,50
;   singleExtrusionMaxPrintingWidthPercentage,200
;   singleExtrusionEndpointExtension,0.2
;   horizontalSizeCompensation,0
G90
M82
M106 S0
M140 S60
M190 S60
M104 S210 T0
M109 S210 T0
G28 ; home all axes
; process Process1
; layer 1, Z = 0.180
T0
G92 E0.0000
G1 E-1.0000 F1800
; feature skirt
; tool H0.180 W0.400
G1 Z0.180 F1000
G1 X123.584 Y106.433 F4800
G1 E0.0000 F1800
G92 E0.0000
G1 X123.775 Y106.222 E0.0077 F1800
G1 X126.252 Y103.748 E0.1020
G1 X126.462 Y103.559 E0.1096
G1 X129.079 Y101.443 E0.2003
G1 X129.305 Y101.279 E0.2078
G1 X132.127 Y99.444 E0.2985
G1 X132.371 Y99.302 E0.3061
G1 X135.490 Y97.710 E0.4004
G1 X135.750 Y97.595 E0.4081
G1 X138.892 Y96.388 E0.4988
G1 X139.158 Y96.301 E0.5063
G1 X142.411 Y95.424 E0.5971
G1 X142.694 Y95.364 E0.6049
G1 X146.286 Y94.799 E0.7028
G1 X146.566 Y94.770 E0.7104
G1 X149.862 Y94.600 E0.7993
G1 X150.143 Y94.600 E0.8069
G1 X153.571 Y94.780 E0.8994
G1 X153.851 Y94.810 E0.9069
G1 X157.176 Y95.335 E0.9976
G1 X157.453 Y95.394 E1.0053
G1 X160.835 Y96.299 E1.0996
G1 X161.105 Y96.387 E1.1072
G1 X164.250 Y97.595 E1.1980
G1 X164.510 Y97.710 E1.2057
G1 X167.629 Y99.302 E1.3000
G1 X167.873 Y99.444 E1.3076
G1 X170.695 Y101.279 E1.3983
G1 X170.921 Y101.443 E1.4058
G1 X173.538 Y103.559 E1.4965
G1 X173.748 Y103.748 E1.5041
G1 X176.225 Y106.222 E1.5984
G1 X176.416 Y106.433 E1.6061
G1 X178.536 Y109.051 E1.6968
G1 X178.703 Y109.281 E1.7045
G1 X180.609 Y112.218 E1.7988
G1 X180.751 Y112.463 E1.8064
G1 X182.278 Y115.463 E1.8971
G1 X182.391 Y115.718 E1.9046
G1 X183.600 Y118.858 E1.9953
G1 X183.687 Y119.126 E2.0029
G1 X184.595 Y122.495 E2.0969
G1 X184.655 Y122.774 E2.1046
G1 X185.186 Y126.112 E2.1956
G1 X185.216 Y126.394 E2.2033
G1 X185.400 Y129.891 E2.2976
G1 X185.400 Y130.175 E2.3053
G1 X185.223 Y133.537 E2.3960
G1 X185.194 Y133.814 E2.4035
G1 X184.672 Y137.138 E2.4941
G1 X184.614 Y137.414 E2.5017
G1 X183.713 Y140.797 E2.5960
G1 X183.625 Y141.069 E2.6037
G1 X182.420 Y144.215 E2.6945
G1 X182.305 Y144.473 E2.7021
G1 X180.718 Y147.594 E2.7964
G1 X180.576 Y147.840 E2.8041
G1 X178.742 Y150.666 E2.8949
G1 X178.575 Y150.896 E2.9025
G1 X176.371 Y153.616 E2.9968
G1 X176.181 Y153.826 E3.0045
G1 X173.800 Y156.205 E3.0951
G1 X173.593 Y156.392 E3.1027
G1 X170.979 Y158.513 E3.1933
G1 X170.752 Y158.679 E3.2009
G1 X167.818 Y160.589 E3.2952
G1 X167.571 Y160.732 E3.3029
G1 X164.570 Y162.263 E3.3937
G1 X164.311 Y162.378 E3.4013
G1 X161.039 Y163.635 E3.4958
G1 X160.760 Y163.725 E3.5036
G1 X157.374 Y164.620 E3.5980
G1 X157.100 Y164.678 E3.6055
G1 X153.777 Y165.197 E3.6962
G1 X153.499 Y165.226 E3.7037
G1 X150.136 Y165.400 E3.7944
G1 X149.850 Y165.400 E3.8021
G1 X146.355 Y165.210 E3.8964
G1 X146.075 Y165.181 E3.9040
G1 X142.752 Y164.650 E3.9946
G1 X142.479 Y164.592 E4.0022
G1 X139.227 Y163.721 E4.0929
G1 X138.957 Y163.633 E4.1005
G1 X135.689 Y162.378 E4.1948
G1 X135.430 Y162.263 E4.2025
G1 X132.430 Y160.733 E4.2932
G1 X132.186 Y160.591 E4.3008
G1 X129.307 Y158.721 E4.3933
G1 X129.079 Y158.555 E4.4009
G1 X126.411 Y156.395 E4.4934
G1 X126.201 Y156.207 E4.5010
G1 X123.819 Y153.827 E4.5917
G1 X123.630 Y153.617 E4.5993
G1 X121.447 Y150.924 E4.6927
G1 X121.280 Y150.695 E4.7003
G1 X119.427 Y147.845 E4.7919
G1 X119.286 Y147.602 E4.7995
G1 X117.754 Y144.604 E4.8902
G1 X117.639 Y144.348 E4.8977
G1 X116.379 Y141.081 E4.9921
G1 X116.290 Y140.810 E4.9998
G1 X115.416 Y137.556 E5.0905
G1 X115.357 Y137.280 E5.0981
G1 X114.807 Y133.822 E5.1925
G1 X114.777 Y133.539 E5.2001
G1 X114.600 Y130.175 E5.2909
G1 X114.600 Y129.891 E5.2985
G1 X114.784 Y126.395 E5.3928
G1 X114.814 Y126.113 E5.4005
G1 X115.342 Y122.789 E5.4912
G1 X115.400 Y122.516 E5.4987
G1 X116.268 Y119.264 E5.5893
G1 X116.355 Y118.996 E5.5969
G1 X117.605 Y115.726 E5.6913
G1 X117.721 Y115.465 E5.6989
G1 X119.249 Y112.463 E5.7897
G1 X119.391 Y112.218 E5.7973
G1 X121.297 Y109.281 E5.8917
G1 X121.464 Y109.051 E5.8993
G1 X123.584 Y106.433 E5.9901
G92 E0.0000
G1 E-1.0000 F1800
G1 X123.889 Y106.693 F4800
G1 E0.0000 F1800
G92 E0.0000
G1 X124.065 Y106.497 E0.0071 F1800
G1 X126.528 Y104.039 E0.1009
G1 X126.722 Y103.864 E0.1079
G1 X129.323 Y101.760 E0.1980
G1 X129.532 Y101.608 E0.2050
G1 X132.336 Y99.785 E0.2951
G1 X132.563 Y99.654 E0.3021
G1 X135.662 Y98.072 E0.3959
G1 X135.903 Y97.964 E0.4030
G1 X139.026 Y96.765 E0.4931
G1 X139.272 Y96.685 E0.5001
G1 X142.505 Y95.814 E0.5903
G1 X142.767 Y95.758 E0.5975
G1 X146.338 Y95.196 E0.6949
G1 X146.598 Y95.169 E0.7019
G1 X149.872 Y95.000 E0.7903
G1 X150.133 Y95.000 E0.7973
G1 X153.540 Y95.179 E0.8892
G1 X153.798 Y95.206 E0.8962
G1 X157.104 Y95.729 E0.9864
G1 X157.360 Y95.783 E0.9934
G1 X160.722 Y96.683 E1.0872
G1 X160.972 Y96.764 E1.0943
G1 X164.097 Y97.964 E1.1845
G1 X164.338 Y98.072 E1.1916
G1 X167.437 Y99.654 E1.2853
G1 X167.664 Y99.785 E1.2924
G1 X170.468 Y101.608 E1.3825
G1 X170.677 Y101.760 E1.3894
G1 X173.278 Y103.864 E1.4796
G1 X173.472 Y104.039 E1.4866
G1 X175.935 Y106.497 E1.5804
G1 X176.111 Y106.693 E1.5875
G1 X178.219 Y109.295 E1.6777
G1 X178.373 Y109.507 E1.6847
G1 X180.268 Y112.427 E1.7785
G1 X180.399 Y112.654 E1.7856
G1 X181.916 Y115.635 E1.8757
G1 X182.022 Y115.871 E1.8826
G1 X183.223 Y118.992 E1.9727
G1 X183.304 Y119.240 E1.9798
G1 X184.206 Y122.589 E2.0732
G1 X184.261 Y122.847 E2.0803
G1 X184.789 Y126.164 E2.1708
G1 X184.817 Y126.426 E2.1779
G1 X185.000 Y129.902 E2.2717
G1 X185.000 Y130.164 E2.2787
G1 X184.824 Y133.505 E2.3689
G1 X184.797 Y133.762 E2.3758
G1 X184.278 Y137.066 E2.4659
G1 X184.224 Y137.321 E2.4729
G1 X183.330 Y140.684 E2.5667
G1 X183.248 Y140.936 E2.5738
G1 X182.050 Y144.062 E2.6640
G1 X181.944 Y144.301 E2.6711
G1 X180.367 Y147.403 E2.7648
G1 X180.235 Y147.631 E2.7719
G1 X178.412 Y150.439 E2.8621
G1 X178.257 Y150.652 E2.8692
G1 X176.067 Y153.356 E2.9630
G1 X175.891 Y153.551 E2.9700
G1 X173.525 Y155.915 E3.0601
G1 X173.333 Y156.088 E3.0671
G1 X170.736 Y158.195 E3.1572
G1 X170.525 Y158.349 E3.1642
G1 X167.608 Y160.248 E3.2580
G1 X167.380 Y160.380 E3.2651
G1 X164.397 Y161.902 E3.3553
G1 X164.158 Y162.008 E3.3624
G1 X160.905 Y163.258 E3.4562
G1 X160.648 Y163.341 E3.4635
G1 X157.281 Y164.231 E3.5573
G1 X157.028 Y164.284 E3.5643
G1 X153.725 Y164.801 E3.6544
G1 X153.468 Y164.827 E3.6613
G1 X150.126 Y165.000 E3.7515
G1 X149.862 Y165.000 E3.7586
G1 X146.387 Y164.811 E3.8524
G1 X146.128 Y164.784 E3.8594
G1 X142.825 Y164.257 E3.9495
G1 X142.572 Y164.203 E3.9565
G1 X139.341 Y163.337 E4.0466
G1 X139.091 Y163.256 E4.0537
G1 X135.842 Y162.008 E4.1474
G1 X135.603 Y161.902 E4.1545
G1 X132.621 Y160.381 E4.2446
G1 X132.395 Y160.250 E4.2517
G1 X129.534 Y158.391 E4.3436
G1 X129.323 Y158.238 E4.3506
G1 X126.670 Y156.091 E4.4426
G1 X126.476 Y155.916 E4.4496
G1 X124.109 Y153.551 E4.5398
G1 X123.934 Y153.357 E4.5468
G1 X121.764 Y150.680 E4.6396
G1 X121.610 Y150.469 E4.6467
G1 X119.768 Y147.636 E4.7377
G1 X119.637 Y147.410 E4.7447
G1 X118.115 Y144.432 E4.8349
G1 X118.009 Y144.194 E4.8419
G1 X116.756 Y140.947 E4.9356
G1 X116.674 Y140.696 E4.9428
G1 X115.805 Y137.462 E5.0330
G1 X115.751 Y137.207 E5.0400
G1 X115.204 Y133.770 E5.1338
G1 X115.176 Y133.508 E5.1409
G1 X115.000 Y130.164 E5.2311
G1 X115.000 Y129.902 E5.2381
G1 X115.183 Y126.426 E5.3319
G1 X115.211 Y126.165 E5.3390
G1 X115.735 Y122.862 E5.4291
G1 X115.789 Y122.609 E5.4360
G1 X116.652 Y119.377 E5.5262
G1 X116.732 Y119.129 E5.5332
G1 X117.975 Y115.879 E5.6269
G1 X118.082 Y115.637 E5.6341
G1 X119.601 Y112.654 E5.7242
G1 X119.732 Y112.427 E5.7313
G1 X121.627 Y109.507 E5.8251
G1 X121.781 Y109.295 E5.8321
G1 X123.889 Y106.693 E5.9223
G92 E0.0000
G1 E-1.0000 F1800
G1 X124.193 Y106.953 F4800
G1 E0.0000 F1800
G92 E0.0000
G1 X124.355 Y106.773 E0.0065 F1800
G1 X126.803 Y104.329 E0.0997
G1 X126.982 Y104.168 E0.1062
G1 X129.566 Y102.078 E0.1958
G1 X129.759 Y101.938 E0.2022
G1 X132.545 Y100.126 E0.2917
G1 X132.754 Y100.005 E0.2982
G1 X135.835 Y98.433 E0.3914
G1 X136.056 Y98.334 E0.3979
G1 X139.160 Y97.142 E0.4875
G1 X139.386 Y97.068 E0.4939
G1 X142.598 Y96.203 E0.5835
G1 X142.840 Y96.151 E0.5902
G1 X146.390 Y95.593 E0.6870
G1 X146.629 Y95.568 E0.6935
G1 X149.882 Y95.400 E0.7812
G1 X150.122 Y95.400 E0.7877
G1 X153.508 Y95.578 E0.8790
G1 X153.746 Y95.603 E0.8855
G1 X157.031 Y96.122 E0.9751
G1 X157.267 Y96.172 E0.9816
G1 X160.608 Y97.067 E1.0748
G1 X160.838 Y97.141 E1.0813
G1 X163.944 Y98.334 E1.1709
G1 X164.165 Y98.433 E1.1774
G1 X167.246 Y100.005 E1.2706
G1 X167.455 Y100.126 E1.2771
G1 X170.241 Y101.938 E1.3667
G1 X170.434 Y102.078 E1.3731
G1 X173.018 Y104.168 E1.4626
G1 X173.197 Y104.329 E1.4691
G1 X175.645 Y106.773 E1.5623
G1 X175.807 Y106.953 E1.5688
G1 X177.901 Y109.538 E1.6585
G1 X178.043 Y109.734 E1.6650
G1 X179.927 Y112.635 E1.7582
G1 X180.047 Y112.844 E1.7647
G1 X181.555 Y115.807 E1.8542
G1 X181.652 Y116.024 E1.8606
G1 X182.846 Y119.126 E1.9502
G1 X182.920 Y119.354 E1.9566
G1 X183.817 Y122.683 E2.0495
G1 X183.868 Y122.920 E2.0561
G1 X184.392 Y126.217 E2.1460
G1 X184.418 Y126.457 E2.1525
G1 X184.600 Y129.912 E2.2457
G1 X184.600 Y130.154 E2.2522
G1 X184.425 Y133.474 E2.3418
G1 X184.401 Y133.710 E2.3482
G1 X183.885 Y136.994 E2.4377
G1 X183.835 Y137.228 E2.4442
G1 X182.946 Y140.571 E2.5374
G1 X182.871 Y140.802 E2.5439
G1 X181.681 Y143.909 E2.6336
G1 X181.583 Y144.129 E2.6400
G1 X180.015 Y147.212 E2.7332
G1 X179.894 Y147.422 E2.7398
G1 X178.082 Y150.213 E2.8294
G1 X177.940 Y150.408 E2.8359
G1 X175.762 Y153.096 E2.9291
G1 X175.601 Y153.275 E2.9356
G1 X173.249 Y155.625 E3.0252
G1 X173.073 Y155.784 E3.0316
G1 X170.492 Y157.878 E3.1211
G1 X170.297 Y158.020 E3.1276
G1 X167.399 Y159.907 E3.2208
G1 X167.189 Y160.029 E3.2273
G1 X164.225 Y161.540 E3.3169
G1 X164.005 Y161.639 E3.3234
G1 X160.772 Y162.880 E3.4167
G1 X160.535 Y162.957 E3.4234
G1 X157.189 Y163.842 E3.5167
G1 X156.956 Y163.891 E3.5231
G1 X153.674 Y164.404 E3.6126
G1 X153.437 Y164.428 E3.6190
G1 X150.116 Y164.600 E3.7086
G1 X149.873 Y164.600 E3.7152
G1 X146.419 Y164.413 E3.8083
G1 X146.180 Y164.387 E3.8148
G1 X142.899 Y163.863 E3.9043
G1 X142.666 Y163.814 E3.9107
G1 X139.454 Y162.954 E4.0003
G1 X139.225 Y162.879 E4.0068
G1 X135.995 Y161.639 E4.1000
G1 X135.775 Y161.540 E4.1065
G1 X132.813 Y160.029 E4.1961
G1 X132.604 Y159.909 E4.2026
G1 X129.760 Y158.062 E4.2940
G1 X129.566 Y157.920 E4.3004
G1 X126.930 Y155.787 E4.3918
G1 X126.751 Y155.626 E4.3983
G1 X124.399 Y153.276 E4.4878
G1 X124.238 Y153.097 E4.4943
