; G-Code generated by Simplify3D(R) Version 4.1.1
; Mar 7, 2020 at 10:21:57 PM
; Settings Summary
;   processName,Process1
;   applyToModels,Suporte Sensores
;   profileName,Default (modified)
;   profileVersion,2015-05-01 08:00:00
;   baseProfile,
;   printMaterial,PLA
;   printQuality,Medium
;   printExtruders,
;   extruderName,Primary Extruder
;   extruderToolheadNumber,0
;   extruderDiameter,0.35
;   extruderAutoWidth,0
;   extruderWidth,0.4
;   extrusionMultiplier,0.9
;   extruderUseRetract,1
;   extruderRetractionDistance,1
;   extruderExtraRestartDistance,0
;   extruderRetractionZLift,0
;   extruderRetractionSpeed,1800
;   extruderUseCoasting,0
;   extruderCoastingDistance,0.2
;   extruderUseWipe,0
;   extruderWipeDistance,5
;   primaryExtruder,0
;   layerHeight,0.2
;   topSolidLayers,3
;   bottomSolidLayers,3
;   perimeterOutlines,2
;   printPerimetersInsideOut,1
;   startPointOption,2
;   startPointOriginX,0
;   startPointOriginY,0
;   sequentialIslands,0
;   spiralVaseMode,0
;   firstLayerHeightPercentage,90
;   firstLayerWidthPercentage,100
;   firstLayerUnderspeed,0.5
;   useRaft,0
;   raftExtruder,0
;   raftTopLayers,3
;   raftBaseLayers,2
;   raftOffset,3
;   raftSeparationDistance,0.14
;   raftTopInfill,100
;   aboveRaftSpeedMultiplier,0.3
;   useSkirt,1
;   skirtExtruder,0
;   skirtLayers,1
;   skirtOutlines,4
;   skirtOffset,4
;   usePrimePillar,0
;   primePillarExtruder,999
;   primePillarWidth,12
;   primePillarLocation,7
;   primePillarSpeedMultiplier,1
;   useOozeShield,0
;   oozeShieldExtruder,999
;   oozeShieldOffset,2
;   oozeShieldOutlines,1
;   oozeShieldSidewallShape,1
;   oozeShieldSidewallAngle,30
;   oozeShieldSpeedMultiplier,1
;   infillExtruder,0
;   internalInfillPattern,Rectilinear
;   externalInfillPattern,Rectilinear
;   infillPercentage,100
;   outlineOverlapPercentage,15
;   infillExtrusionWidthPercentage,100
;   minInfillLength,5
;   infillLayerInterval,1
;   internalInfillAngles,45,-45
;   overlapInternalInfillAngles,0
;   externalInfillAngles,45,-45
;   generateSupport,0
;   supportExtruder,0
;   supportInfillPercentage,20
;   supportExtraInflation,0
;   supportBaseLayers,0
;   denseSupportExtruder,0
;   denseSupportLayers,0
;   denseSupportInfillPercentage,70
;   supportLayerInterval,1
;   supportHorizontalPartOffset,0.3
;   supportUpperSeparationLayers,1
;   supportLowerSeparationLayers,1
;   supportType,0
;   supportGridSpacing,4
;   maxOverhangAngle,45
;   supportAngles,0
;   temperatureName,Primary Extruder,Heated build platform
;   temperatureNumber,0,0
;   temperatureSetpointCount,1,1
;   temperatureSetpointLayers,1,1
;   temperatureSetpointTemperatures,210,60
;   temperatureStabilizeAtStartup,1,1
;   temperatureHeatedBed,0,1
;   fanLayers,1,2
;   fanSpeeds,0,100
;   blipFanToFullPower,0
;   adjustSpeedForCooling,1
;   minSpeedLayerTime,15
;   minCoolingSpeedSlowdown,20
;   increaseFanForCooling,0
;   minFanLayerTime,45
;   maxCoolingFanSpeed,100
;   increaseFanForBridging,0
;   bridgingFanSpeed,100
;   use5D,1
;   relativeEdistances,0
;   allowEaxisZeroing,1
;   independentExtruderAxes,0
;   includeM10123,0
;   stickySupport,1
;   applyToolheadOffsets,0
;   gcodeXoffset,0
;   gcodeYoffset,0
;   gcodeZoffset,0
;   overrideMachineDefinition,0
;   machineTypeOverride,0
;   strokeXoverride,200
;   strokeYoverride,200
;   strokeZoverride,200
;   originOffsetXoverride,0
;   originOffsetYoverride,0
;   originOffsetZoverride,0
;   homeXdirOverride,-1
;   homeYdirOverride,-1
;   homeZdirOverride,-1
;   flipXoverride,1
;   flipYoverride,-1
;   flipZoverride,1
;   toolheadOffsets,0,0|0,0|0,0|0,0|0,0|0,0
;   overrideFirmwareConfiguration,0
;   firmwareTypeOverride,RepRap (Marlin/Repetier/Sprinter)
;   GPXconfigOverride,r2
;   baudRateOverride,115200
;   overridePrinterModels,0
;   printerModelsOverride
;   startingGcode,G28 ; home all axes
;   layerChangeGcode,
;   retractionGcode,
;   toolChangeGcode,
;   endingGcode,M104 S0 ; turn off extruder,M140 S0 ; turn off bed,M84 ; disable motors
;   exportFileFormat,gcode
;   celebration,0
;   celebrationSong,Random Song
;   postProcessing,
;   defaultSpeed,3600
;   outlineUnderspeed,0.5
;   solidInfillUnderspeed,0.8
;   supportUnderspeed,0.8
;   rapidXYspeed,4800
;   rapidZspeed,1000
;   minBridgingArea,50
;   bridgingExtraInflation,0
;   bridgingExtrusionMultiplier,1
;   bridgingSpeedMultiplier,1
;   useFixedBridgingAngle,0
;   fixedBridgingAngle,0
;   applyBridgingToPerimeters,0
;   filamentDiameters,1.75|1.75|1.75|1.75|1.75|1.75
;   filamentPricesPerKg,46|46|46|46|46|46
;   filamentDensities,1.25|1.25|1.25|1.25|1.25|1.25
;   useMinPrintHeight,0
;   minPrintHeight,0
;   useMaxPrintHeight,0
;   maxPrintHeight,0
;   useDiaphragm,0
;   diaphragmLayerInterval,20
;   robustSlicing,1
;   mergeAllIntoSolid,0
;   onlyRetractWhenCrossingOutline,1
;   retractBetweenLayers,1
;   useRetractionMinTravel,0
;   retractionMinTravel,3
;   retractWhileWiping,0
;   onlyWipeOutlines,1
;   avoidCrossingOutline,0
;   maxMovementDetourFactor,3
;   toolChangeRetractionDistance,12
;   toolChangeExtraRestartDistance,-0.5
;   toolChangeRetractionSpeed,600
;   externalThinWallType,0
;   internalThinWallType,2
;   thinWallAllowedOverlapPercentage,10
;   singleExtrusionMinLength,1
;   singleExtrusionMinPrintingWidthPercentage,50
;   singleExtrusionMaxPrintingWidthPercentage,200
;   singleExtrusionEndpointExtension,0.2
;   horizontalSizeCompensation,0
G90
M82
M106 S0
M140 S60
M190 S60
M104 S210 T0
M109 S210 T0
G28 ; home all axes
; process Process1
; layer 1, Z = 0.180
T0
G92 E0.0000
G1 E-1.0000 F1800
; feature skirt
; tool H0.180 W0.400
G1 Z0.180 F1000
G1 X125.850 Y118.513 F4800
G1 E0.0000 F1800
G92 E0.0000
G1 X129.013 Y115.350 E0.1205 F1800
G1 X170.987 Y115.350 E1.2513
G1 X174.150 Y118.513 E1.3718
G1 X174.150 Y141.487 E1.9908
G1 X170.987 Y144.650 E2.1113
G1 X129.013 Y144.650 E3.2421
G1 X125.850 Y141.487 E3.3626
G1 X125.850 Y118.513 E3.9815
G92 E0.0000
G1 E-1.0000 F1800
G1 X126.250 Y118.679 F4800
G1 E0.0000 F1800
G92 E0.0000
G1 X129.179 Y115.750 E0.1116 F1800
G1 X170.821 Y115.750 E1.2335
G1 X173.750 Y118.679 E1.3451
G1 X173.750 Y141.321 E1.9550
G1 X170.821 Y144.250 E2.0666
G1 X129.179 Y144.250 E3.1885
G1 X126.250 Y141.321 E3.3001
G1 X126.250 Y118.679 E3.9101
G92 E0.0000
G1 E-1.0000 F1800
G1 X126.650 Y118.845 F4800
G1 E0.0000 F1800
G92 E0.0000
G1 X129.345 Y116.150 E0.1027 F1800
G1 X170.655 Y116.150 E1.2156
G1 X173.350 Y118.845 E1.3183
G1 X173.350 Y141.155 E1.9193
G1 X170.655 Y143.850 E2.0220
G1 X129.345 Y143.850 E3.1349
G1 X126.650 Y141.155 E3.2376
G1 X126.650 Y118.845 E3.8387
G92 E0.0000
G1 E-1.0000 F1800
G1 X127.050 Y119.010 F4800
G1 E0.0000 F1800
G92 E0.0000
G1 X129.510 Y116.550 E0.0937 F1800
G1 X170.490 Y116.550 E1.1978
G1 X172.950 Y119.010 E1.2915
G1 X172.950 Y140.990 E1.8836
G1 X170.490 Y143.450 E1.9774
G1 X129.510 Y143.450 E3.0814
G1 X127.050 Y140.990 E3.1751
G1 X127.050 Y119.010 E3.7673
G92 E0.0000
G1 E-1.0000 F1800
; feature inner perimeter
G1 X131.850 Y121.350 F4800
G1 E0.0000 F1800
G92 E0.0000
G1 X168.150 Y121.350 E0.9779 F1350
G1 X168.150 Y138.650 E1.4440
G1 X131.850 Y138.650 E2.4220
G1 X131.850 Y121.350 E2.8880
; feature outer perimeter
G1 X131.450 Y120.950 F4800
G92 E0.0000
G1 X168.550 Y120.950 E0.9995 F900
G1 X168.550 Y139.050 E1.4871
G1 X131.450 Y139.050 E2.4866
G1 X131.450 Y120.950 E2.9743
; feature solid layer
G1 X132.288 Y138.310 F4800
G92 E0.0000
G1 X132.190 Y138.212 E0.0038 F1440
G1 X132.190 Y137.646 E0.0190
G1 X132.854 Y138.310 E0.0443
G1 X133.420 Y138.310 E0.0595
G1 X132.190 Y137.080 E0.1064
G1 X132.190 Y136.514 E0.1216
G1 X133.986 Y138.310 E0.1900
G1 X134.551 Y138.310 E0.2053
G1 X132.190 Y135.949 E0.2952
G1 X132.190 Y135.383 E0.3105
G1 X135.117 Y138.310 E0.4220
G1 X135.683 Y138.310 E0.4372
G1 X132.190 Y134.817 E0.5703
G1 X132.190 Y134.252 E0.5855
G1 X136.248 Y138.310 E0.7402
G1 X136.814 Y138.310 E0.7554
G1 X132.190 Y133.686 E0.9316
G1 X132.190 Y133.120 E0.9468
G1 X137.380 Y138.310 E1.1445
G1 X137.945 Y138.310 E1.1598
G1 X132.190 Y132.555 E1.3791
G1 X132.190 Y131.989 E1.3943
G1 X138.511 Y138.310 E1.6351
G1 X139.077 Y138.310 E1.6504
G1 X132.190 Y131.423 E1.9128
G1 X132.190 Y130.858 E1.9280
G1 X139.642 Y138.310 E2.2119
G1 X140.208 Y138.310 E2.2272
G1 X132.190 Y130.292 E2.5327
G1 X132.190 Y129.726 E2.5479
G1 X140.774 Y138.310 E2.8749
G1 X141.339 Y138.310 E2.8902
G1 X132.190 Y129.161 E3.2388
G1 X132.190 Y128.595 E3.2540
G1 X141.905 Y138.310 E3.6242
G1 X142.471 Y138.310 E3.6394
G1 X132.190 Y128.029 E4.0311
G1 X132.190 Y127.463 E4.0463
G1 X143.037 Y138.310 E4.4596
G1 X143.602 Y138.310 E4.4748
G1 X132.190 Y126.898 E4.9096
G1 X132.190 Y126.332 E4.9249
G1 X144.168 Y138.310 E5.3812
G1 X144.734 Y138.310 E5.3965
G1 X132.190 Y125.766 E5.8744
G1 X132.190 Y125.201 E5.8896
G1 X145.299 Y138.310 E6.3891
G1 X145.865 Y138.310 E6.4043
G1 X132.190 Y124.635 E6.9253
G1 X132.190 Y124.069 E6.9406
G1 X146.431 Y138.310 E7.4831
G1 X146.996 Y138.310 E7.4984
G1 X132.190 Y123.504 E8.0625
G1 X132.190 Y122.938 E8.0777
G1 X147.562 Y138.310 E8.6634
G1 X148.128 Y138.310 E8.6787
G1 X132.190 Y122.372 E9.2859
G1 X132.190 Y121.807 E9.3011
G1 X148.693 Y138.310 E9.9299
G1 X149.259 Y138.310 E9.9451
G1 X132.639 Y121.690 E10.5784
G1 X133.205 Y121.690 E10.5936
G1 X149.825 Y138.310 E11.2268
G1 X150.390 Y138.310 E11.2421
G1 X133.770 Y121.690 E11.8753
G1 X134.336 Y121.690 E11.8905
G1 X150.956 Y138.310 E12.5237
G1 X151.522 Y138.310 E12.5390
G1 X134.902 Y121.690 E13.1722
G1 X135.467 Y121.690 E13.1874
G1 X152.087 Y138.310 E13.8207
G1 X152.653 Y138.310 E13.8359
G1 X136.033 Y121.690 E14.4691
G1 X136.599 Y121.690 E14.4844
G1 X153.219 Y138.310 E15.1176
G1 X153.785 Y138.310 E15.1328
G1 X137.165 Y121.690 E15.7660
G1 X137.730 Y121.690 E15.7813
G1 X154.350 Y138.310 E16.4145
G1 X154.916 Y138.310 E16.4297
G1 X138.296 Y121.690 E17.0630
G1 X138.862 Y121.690 E17.0782
G1 X155.482 Y138.310 E17.7114
G1 X156.047 Y138.310 E17.7267
G1 X139.427 Y121.690 E18.3599
G1 X139.993 Y121.690 E18.3751
G1 X156.613 Y138.310 E19.0083
G1 X157.179 Y138.310 E19.0236
G1 X140.559 Y121.690 E19.6568
G1 X141.124 Y121.690 E19.6720
G1 X157.744 Y138.310 E20.3053
G1 X158.310 Y138.310 E20.3205
G1 X141.690 Y121.690 E20.9537
G1 X142.256 Y121.690 E20.9690
G1 X158.876 Y138.310 E21.6022
G1 X159.441 Y138.310 E21.6174
G1 X142.821 Y121.690 E22.2506
G1 X143.387 Y121.690 E22.2659
G1 X160.007 Y138.310 E22.8991
G1 X160.573 Y138.310 E22.9143
G1 X143.953 Y121.690 E23.5476
G1 X144.518 Y121.690 E23.5628
G1 X161.138 Y138.310 E24.1960
G1 X161.704 Y138.310 E24.2113
G1 X145.084 Y121.690 E24.8445
G1 X145.650 Y121.690 E24.8597
G1 X162.270 Y138.310 E25.4929
G1 X162.835 Y138.310 E25.5082
G1 X146.215 Y121.690 E26.1414
G1 X146.781 Y121.690 E26.1566
G1 X163.401 Y138.310 E26.7899
G1 X163.967 Y138.310 E26.8051
G1 X147.347 Y121.690 E27.4383
G1 X147.913 Y121.690 E27.4536
G1 X164.533 Y138.310 E28.0868
G1 X165.098 Y138.310 E28.1020
G1 X148.478 Y121.690 E28.7352
G1 X149.044 Y121.690 E28.7505
G1 X165.664 Y138.310 E29.3837
G1 X166.230 Y138.310 E29.3990
G1 X149.610 Y121.690 E30.0322
G1 X150.175 Y121.690 E30.0474
G1 X166.795 Y138.310 E30.6806
G1 X167.361 Y138.310 E30.6959
G1 X150.741 Y121.690 E31.3291
G1 X151.307 Y121.690 E31.3443
G1 X167.810 Y138.193 E31.9731
G1 X167.810 Y137.628 E31.9883
G1 X151.872 Y121.690 E32.5956
G1 X152.438 Y121.690 E32.6108
G1 X167.810 Y137.062 E33.1965
G1 X167.810 Y136.496 E33.2117
G1 X153.004 Y121.690 E33.7758
G1 X153.569 Y121.690 E33.7911
G1 X167.810 Y135.931 E34.3336
G1 X167.810 Y135.365 E34.3489
G1 X154.135 Y121.690 E34.8699
G1 X154.701 Y121.690 E34.8851
G1 X167.810 Y134.799 E35.3846
G1 X167.810 Y134.234 E35.3998
G1 X155.266 Y121.690 E35.8777
G1 X155.832 Y121.690 E35.8930
G1 X167.810 Y133.668 E36.3493
G1 X167.810 Y133.102 E36.3646
G1 X156.398 Y121.690 E36.7994
G1 X156.964 Y121.690 E36.8146
G1 X167.810 Y132.536 E37.2279
G1 X167.810 Y131.971 E37.2431
G1 X157.529 Y121.690 E37.6348
G1 X158.095 Y121.690 E37.6501
G1 X167.810 Y131.405 E38.0202
G1 X167.810 Y130.839 E38.0354
G1 X158.661 Y121.690 E38.3840
G1 X159.226 Y121.690 E38.3993
G1 X167.810 Y130.274 E38.7263
G1 X167.810 Y129.708 E38.7415
G1 X159.792 Y121.690 E39.0470
G1 X160.358 Y121.690 E39.0623
G1 X167.810 Y129.142 E39.3462
G1 X167.810 Y128.577 E39.3614
G1 X160.923 Y121.690 E39.6238
G1 X161.489 Y121.690 E39.6391
G1 X167.810 Y128.011 E39.8799
G1 X167.810 Y127.445 E39.8951
G1 X162.055 Y121.690 E40.1144
G1 X162.620 Y121.690 E40.1297
G1 X167.810 Y126.880 E40.3274
G1 X167.810 Y126.314 E40.3426
G1 X163.186 Y121.690 E40.5188
G1 X163.752 Y121.690 E40.5340
G1 X167.810 Y125.748 E40.6887
G1 X167.810 Y125.183 E40.7039
G1 X164.317 Y121.690 E40.8370
G1 X164.883 Y121.690 E40.8522
G1 X167.810 Y124.617 E40.9637
G1 X167.810 Y124.051 E40.9790
G1 X165.449 Y121.690 E41.0689
G1 X166.014 Y121.690 E41.0842
G1 X167.810 Y123.486 E41.1526
G1 X167.810 Y122.920 E41.1678
G1 X166.580 Y121.690 E41.2147
G1 X167.146 Y121.690 E41.2299
G1 X167.810 Y122.354 E41.2552
G1 X167.810 Y121.788 E41.2704
G1 X167.712 Y121.690 E41.2742
G92 E0.0000
G1 E-1.0000 F1800
; layer 2, Z = 0.380
M106 S255
; feature inner perimeter
; tool H0.200 W0.400
G1 Z0.380 F1000
G1 X168.150 Y121.350 F4800
G1 E0.0000 F1800
G92 E0.0000
G1 X168.150 Y138.650 E0.5179 F2700
G1 X131.850 Y138.650 E1.6045
G1 X131.850 Y121.350 E2.1223
G1 X168.150 Y121.350 E3.2089
; feature outer perimeter
G1 X168.550 Y120.950 F4800
G92 E0.0000
G1 X168.550 Y139.050 E0.5418 F1800
G1 X131.450 Y139.050 E1.6524
G1 X131.450 Y120.950 E2.1942
G1 X168.550 Y120.950 E3.3047
; feature solid layer
G1 X167.810 Y138.212 F4800
G92 E0.0000
G1 X167.712 Y138.310 E0.0042 F2880
G1 X167.146 Y138.310 E0.0211
G1 X167.810 Y137.646 E0.0492
G1 X167.810 Y137.080 E0.0661
G1 X166.580 Y138.310 E0.1182
G1 X166.015 Y138.310 E0.1351
G1 X167.810 Y136.515 E0.2112
G1 X167.810 Y135.949 E0.2281
G1 X165.449 Y138.310 E0.3280
G1 X164.883 Y138.310 E0.3450
G1 X167.810 Y135.383 E0.4689
G1 X167.810 Y134.817 E0.4858
G1 X164.317 Y138.310 E0.6337
G1 X163.752 Y138.310 E0.6506
G1 X167.810 Y134.252 E0.8224
G1 X167.810 Y133.686 E0.8393
G1 X163.186 Y138.310 E1.0351
G1 X162.620 Y138.310 E1.0520
G1 X167.810 Y133.120 E1.2717
G1 X167.810 Y132.555 E1.2886
G1 X162.055 Y138.310 E1.5323
G1 X161.489 Y138.310 E1.5492
G1 X167.810 Y131.989 E1.8168
G1 X167.810 Y131.423 E1.8337
G1 X160.923 Y138.310 E2.1253
G1 X160.358 Y138.310 E2.1422
G1 X167.810 Y130.858 E2.4577
G1 X167.810 Y130.292 E2.4746
G1 X159.792 Y138.310 E2.8140
G1 X159.226 Y138.310 E2.8310
G1 X167.810 Y129.726 E3.1943
G1 X167.810 Y129.161 E3.2113
G1 X158.661 Y138.310 E3.5986
G1 X158.095 Y138.310 E3.6155
G1 X167.810 Y128.595 E4.0268
G1 X167.810 Y128.029 E4.0437
G1 X157.529 Y138.310 E4.4790
G1 X156.964 Y138.310 E4.4959
G1 X167.810 Y127.464 E4.9551
G1 X167.810 Y126.898 E4.9720
G1 X156.398 Y138.310 E5.4551
G1 X155.832 Y138.310 E5.4720
G1 X167.810 Y126.332 E5.9791
G1 X167.810 Y125.766 E5.9960
G1 X155.266 Y138.310 E6.5270
G1 X154.701 Y138.310 E6.5440
G1 X167.810 Y125.201 E7.0989
G1 X167.810 Y124.635 E7.1159
G1 X154.135 Y138.310 E7.6948
G1 X153.569 Y138.310 E7.7117
G1 X167.810 Y124.069 E8.3146
G1 X167.810 Y123.504 E8.3315
G1 X153.004 Y138.310 E8.9583
G1 X152.438 Y138.310 E8.9752
G1 X167.810 Y122.938 E9.6260
G1 X167.810 Y122.372 E9.6429
G1 X151.872 Y138.310 E10.3176
G1 X151.307 Y138.310 E10.3345
G1 X167.810 Y121.807 E11.0332
G1 X167.810 Y121.690 E11.0366
G1 X167.361 Y121.690 E11.0501
G1 X150.741 Y138.310 E11.7537
G1 X150.175 Y138.310 E11.7706
G1 X166.795 Y121.690 E12.4742
G1 X166.230 Y121.690 E12.4911
G1 X149.610 Y138.310 E13.1947
G1 X149.044 Y138.310 E13.2116
G1 X165.664 Y121.690 E13.9152
G1 X165.098 Y121.690 E13.9321
