; G-Code generated by Simplify3D(R) Version 4.1.1
; Mar 7, 2020 at 10:22:47 PM
; Settings Summary
;   processName,Process1
;   applyToModels,Tampa
;   profileName,Default (modified)
;   profileVersion,2015-05-01 08:00:00
;   baseProfile,
;   printMaterial,PLA
;   printQuality,Medium
;   printExtruders,
;   extruderName,Primary Extruder
;   extruderToolheadNumber,0
;   extruderDiameter,0.35
;   extruderAutoWidth,0
;   extruderWidth,0.4
;   extrusionMultiplier,0.9
;   extruderUseRetract,1
;   extruderRetractionDistance,1
;   extruderExtraRestartDistance,0
;   extruderRetractionZLift,0
;   extruderRetractionSpeed,1800
;   extruderUseCoasting,0
;   extruderCoastingDistance,0.2
;   extruderUseWipe,0
;   extruderWipeDistance,5
;   primaryExtruder,0
;   layerHeight,0.2
;   topSolidLayers,3
;   bottomSolidLayers,3
;   perimeterOutlines,2
;   printPerimetersInsideOut,1
;   startPointOption,2
;   startPointOriginX,0
;   startPointOriginY,0
;   sequentialIslands,0
;   spiralVaseMode,0
;   firstLayerHeightPercentage,90
;   firstLayerWidthPercentage,100
;   firstLayerUnderspeed,0.5
;   useRaft,0
;   raftExtruder,0
;   raftTopLayers,3
;   raftBaseLayers,2
;   raftOffset,3
;   raftSeparationDistance,0.14
;   raftTopInfill,100
;   aboveRaftSpeedMultiplier,0.3
;   useSkirt,1
;   skirtExtruder,0
;   skirtLayers,1
;   skirtOutlines,4
;   skirtOffset,4
;   usePrimePillar,0
;   primePillarExtruder,999
;   primePillarWidth,12
;   primePillarLocation,7
;   primePillarSpeedMultiplier,1
;   useOozeShield,0
;   oozeShieldExtruder,999
;   oozeShieldOffset,2
;   oozeShieldOutlines,1
;   oozeShieldSidewallShape,1
;   oozeShieldSidewallAngle,30
;   oozeShieldSpeedMultiplier,1
;   infillExtruder,0
;   internalInfillPattern,Rectilinear
;   externalInfillPattern,Rectilinear
;   infillPercentage,10
;   outlineOverlapPercentage,15
;   infillExtrusionWidthPercentage,100
;   minInfillLength,5
;   infillLayerInterval,1
;   internalInfillAngles,45,-45
;   overlapInternalInfillAngles,0
;   externalInfillAngles,45,-45
;   generateSupport,0
;   supportExtruder,0
;   supportInfillPercentage,20
;   supportExtraInflation,0
;   supportBaseLayers,0
;   denseSupportExtruder,0
;   denseSupportLayers,0
;   denseSupportInfillPercentage,70
;   supportLayerInterval,1
;   supportHorizontalPartOffset,0.3
;   supportUpperSeparationLayers,1
;   supportLowerSeparationLayers,1
;   supportType,0
;   supportGridSpacing,4
;   maxOverhangAngle,45
;   supportAngles,0
;   temperatureName,Primary Extruder,Heated build platform
;   temperatureNumber,0,0
;   temperatureSetpointCount,1,1
;   temperatureSetpointLayers,1,1
;   temperatureSetpointTemperatures,210,60
;   temperatureStabilizeAtStartup,1,1
;   temperatureHeatedBed,0,1
;   fanLayers,1,2
;   fanSpeeds,0,100
;   blipFanToFullPower,0
;   adjustSpeedForCooling,1
;   minSpeedLayerTime,15
;   minCoolingSpeedSlowdown,20
;   increaseFanForCooling,0
;   minFanLayerTime,45
;   maxCoolingFanSpeed,100
;   increaseFanForBridging,0
;   bridgingFanSpeed,100
;   use5D,1
;   relativeEdistances,0
;   allowEaxisZeroing,1
;   independentExtruderAxes,0
;   includeM10123,0
;   stickySupport,1
;   applyToolheadOffsets,0
;   gcodeXoffset,0
;   gcodeYoffset,0
;   gcodeZoffset,0
;   overrideMachineDefinition,0
;   machineTypeOverride,0
;   strokeXoverride,200
;   strokeYoverride,200
;   strokeZoverride,200
;   originOffsetXoverride,0
;   originOffsetYoverride,0
;   originOffsetZoverride,0
;   homeXdirOverride,-1
;   homeYdirOverride,-1
;   homeZdirOverride,-1
;   flipXoverride,1
;   flipYoverride,-1
;   flipZoverride,1
;   toolheadOffsets,0,0|0,0|0,0|0,0|0,0|0,0
;   overrideFirmwareConfiguration,0
;   firmwareTypeOverride,RepRap (Marlin/Repetier/Sprinter)
;   GPXconfigOverride,r2
;   baudRateOverride,115200
;   overridePrinterModels,0
;   printerModelsOverride
;   startingGcode,G28 ; home all axes
;   layerChangeGcode,
;   retractionGcode,
;   toolChangeGcode,
;   endingGcode,M104 S0 ; turn off extruder,M140 S0 ; turn off bed,M84 ; disable motors
;   exportFileFormat,gcode
;   celebration,0
;   celebrationSong,Random Song
;   postProcessing,
;   defaultSpeed,3600
;   outlineUnderspeed,0.5
;   solidInfillUnderspeed,0.8
;   supportUnderspeed,0.8
;   rapidXYspeed,4800
;   rapidZspeed,1000
;   minBridgingArea,50
;   bridgingExtraInflation,0
;   bridgingExtrusionMultiplier,1
;   bridgingSpeedMultiplier,1
;   useFixedBridgingAngle,0
;   fixedBridgingAngle,0
;   applyBridgingToPerimeters,0
;   filamentDiameters,1.75|1.75|1.75|1.75|1.75|1.75
;   filamentPricesPerKg,46|46|46|46|46|46
;   filamentDensities,1.25|1.25|1.25|1.25|1.25|1.25
;   useMinPrintHeight,0
;   minPrintHeight,0
;   useMaxPrintHeight,0
;   maxPrintHeight,0
;   useDiaphragm,0
;   diaphragmLayerInterval,20
;   robustSlicing,1
;   mergeAllIntoSolid,0
;   onlyRetractWhenCrossingOutline,1
;   retractBetweenLayers,1
;   useRetractionMinTravel,0
;   retractionMinTravel,3
;   retractWhileWiping,0
;   onlyWipeOutlines,1
;   avoidCrossingOutline,0
;   maxMovementDetourFactor,3
;   toolChangeRetractionDistance,12
;   toolChangeExtraRestartDistance,-0.5
;   toolChangeRetractionSpeed,600
;   externalThinWallType,0
;   internalThinWallType,2
;   thinWallAllowedOverlapPercentage,10
;   singleExtrusionMinLength,1
;   singleExtrusionMinPrintingWidthPercentage,50
;   singleExtrusionMaxPrintingWidthPercentage,200
;   singleExtrusionEndpointExtension,0.2
;   horizontalSizeCompensation,0
G90
M82
M106 S0
M140 S60
M190 S60
M104 S210 T0
M109 S210 T0
G28 ; home all axes
; process Process1
; layer 1, Z = 0.180
T0
G92 E0.0000
G1 E-1.0000 F1800
; feature skirt
; tool H0.180 W0.400
G1 Z0.180 F1000
G1 X88.263 Y102.600 F4800
G1 E0.0000 F1800
G92 E0.0000
G1 X211.737 Y102.600 E3.3265 F1800
G1 X214.900 Y105.763 E3.4470
G1 X214.900 Y154.237 E4.7529
G1 X211.737 Y157.400 E4.8734
G1 X88.263 Y157.400 E8.1999
G1 X85.100 Y154.237 E8.3204
G1 X85.100 Y105.763 E9.6263
G1 X88.263 Y102.600 E9.7468
G92 E0.0000
G1 E-1.0000 F1800
G1 X88.429 Y103.000 F4800
G1 E0.0000 F1800
G92 E0.0000
G1 X211.571 Y103.000 E3.3175 F1800
G1 X214.500 Y105.929 E3.4291
G1 X214.500 Y154.071 E4.7261
G1 X211.571 Y157.000 E4.8377
G1 X88.429 Y157.000 E8.1552
G1 X85.500 Y154.071 E8.2668
G1 X85.500 Y105.929 E9.5638
G1 X88.429 Y103.000 E9.6754
G92 E0.0000
G1 E-1.0000 F1800
G1 X88.595 Y103.400 F4800
G1 E0.0000 F1800
G92 E0.0000
G1 X211.405 Y103.400 E3.3086 F1800
G1 X214.100 Y106.095 E3.4113
G1 X214.100 Y153.905 E4.6993
G1 X211.405 Y156.600 E4.8020
G1 X88.595 Y156.600 E8.1106
G1 X85.900 Y153.905 E8.2133
G1 X85.900 Y106.095 E9.5013
G1 X88.595 Y103.400 E9.6040
G92 E0.0000
G1 E-1.0000 F1800
G1 X88.760 Y103.800 F4800
G1 E0.0000 F1800
G92 E0.0000
G1 X211.240 Y103.800 E3.2997 F1800
G1 X213.700 Y106.260 E3.3934
G1 X213.700 Y153.740 E4.6725
G1 X211.240 Y156.200 E4.7663
G1 X88.760 Y156.200 E8.0660
G1 X86.300 Y153.740 E8.1597
G1 X86.300 Y106.260 E9.4388
G1 X88.760 Y103.800 E9.5326
G92 E0.0000
G1 E-1.0000 F1800
; feature inner perimeter
G1 X91.100 Y108.600 F4800
G1 E0.0000 F1800
G92 E0.0000
G1 X208.900 Y108.600 E3.1736 F1350
G1 X208.900 Y151.400 E4.3267
G1 X91.100 Y151.400 E7.5003
G1 X91.100 Y108.600 E8.6534
; feature outer perimeter
G1 X90.700 Y108.200 F4800
G92 E0.0000
G1 X209.300 Y108.200 E3.1952 F900
G1 X209.300 Y151.800 E4.3698
G1 X90.700 Y151.800 E7.5650
G1 X90.700 Y108.200 E8.7396
; feature inner perimeter
G1 X134.436 Y117.015 F4800
G92 E0.0000
G1 X134.400 Y117.476 E0.0125 F1350
G1 X134.400 Y142.524 E0.6873
G1 X134.436 Y142.985 E0.6997
G1 X134.550 Y143.459 E0.7129
G1 X134.736 Y143.908 E0.7260
G1 X134.991 Y144.323 E0.7391
G1 X135.307 Y144.693 E0.7522
G1 X135.677 Y145.009 E0.7653
G1 X136.092 Y145.264 E0.7784
G1 X136.541 Y145.450 E0.7915
G1 X137.015 Y145.564 E0.8046
G1 X137.476 Y145.600 E0.8171
G1 X162.524 Y145.600 E1.4919
G1 X162.985 Y145.564 E1.5044
G1 X163.459 Y145.450 E1.5175
G1 X163.908 Y145.264 E1.5306
G1 X164.323 Y145.009 E1.5437
G1 X164.693 Y144.693 E1.5568
G1 X165.009 Y144.323 E1.5699
G1 X165.264 Y143.908 E1.5831
G1 X165.450 Y143.459 E1.5962
G1 X165.564 Y142.985 E1.6093
G1 X165.600 Y142.524 E1.6218
G1 X165.600 Y117.476 E2.2966
G1 X165.564 Y117.015 E2.3090
G1 X165.450 Y116.541 E2.3221
G1 X165.264 Y116.092 E2.3353
G1 X165.009 Y115.677 E2.3484
G1 X164.693 Y115.307 E2.3615
G1 X164.323 Y114.991 E2.3746
G1 X163.908 Y114.736 E2.3877
G1 X163.459 Y114.550 E2.4008
G1 X162.985 Y114.436 E2.4139
G1 X162.524 Y114.400 E2.4264
G1 X137.476 Y114.400 E3.1012
G1 X137.015 Y114.436 E3.1137
G1 X136.541 Y114.550 E3.1268
G1 X136.092 Y114.736 E3.1399
G1 X135.677 Y114.991 E3.1530
G1 X135.307 Y115.307 E3.1661
G1 X134.991 Y115.677 E3.1792
G1 X134.736 Y116.092 E3.1924
G1 X134.550 Y116.541 E3.2055
G1 X134.436 Y117.015 E3.2186
; feature outer perimeter
G1 X134.833 Y117.078 F4800
G92 E0.0000
G1 X134.800 Y117.492 E0.0112 F900
G1 X134.800 Y142.508 E0.6851
G1 X134.833 Y142.922 E0.6963
G1 X134.932 Y143.335 E0.7078
G1 X135.094 Y143.726 E0.7192
G1 X135.315 Y144.087 E0.7306
G1 X135.590 Y144.410 E0.7420
G1 X135.913 Y144.685 E0.7534
G1 X136.274 Y144.906 E0.7649
G1 X136.665 Y145.068 E0.7763
G1 X137.078 Y145.167 E0.7877
G1 X137.492 Y145.200 E0.7989
G1 X162.508 Y145.200 E1.4728
G1 X162.922 Y145.167 E1.4840
G1 X163.335 Y145.068 E1.4955
G1 X163.726 Y144.906 E1.5069
G1 X164.087 Y144.685 E1.5183
G1 X164.410 Y144.410 E1.5297
G1 X164.685 Y144.087 E1.5411
G1 X164.906 Y143.726 E1.5525
G1 X165.068 Y143.335 E1.5640
G1 X165.167 Y142.922 E1.5754
G1 X165.200 Y142.508 E1.5866
G1 X165.200 Y117.492 E2.2605
G1 X165.167 Y117.078 E2.2717
G1 X165.068 Y116.665 E2.2831
G1 X164.906 Y116.274 E2.2946
G1 X164.685 Y115.913 E2.3060
G1 X164.410 Y115.590 E2.3174
G1 X164.087 Y115.315 E2.3288
G1 X163.726 Y115.094 E2.3402
G1 X163.335 Y114.932 E2.3516
G1 X162.922 Y114.833 E2.3631
G1 X162.508 Y114.800 E2.3743
G1 X137.492 Y114.800 E3.0482
G1 X137.078 Y114.833 E3.0594
G1 X136.665 Y114.932 E3.0708
G1 X136.274 Y115.094 E3.0822
G1 X135.913 Y115.315 E3.0937
G1 X135.590 Y115.590 E3.1051
G1 X135.315 Y115.913 E3.1165
G1 X135.094 Y116.274 E3.1279
G1 X134.932 Y116.665 E3.1393
G1 X134.833 Y117.078 E3.1507
G92 E0.0000
G1 E-1.0000 F1800
; feature solid layer
G1 X137.058 Y145.908 F4800
G1 E0.0000 F1800
G92 E0.0000
G1 X142.210 Y151.060 E0.1963 F1440
G1 X142.776 Y151.060 E0.2115
G1 X137.656 Y145.940 E0.4066
G1 X138.221 Y145.940 E0.4218
G1 X143.341 Y151.060 E0.6169
G1 X143.907 Y151.060 E0.6321
G1 X138.787 Y145.940 E0.8272
G1 X139.353 Y145.940 E0.8425
G1 X144.473 Y151.060 E1.0375
G1 X145.038 Y151.060 E1.0528
G1 X139.918 Y145.940 E1.2478
G1 X140.484 Y145.940 E1.2631
G1 X145.604 Y151.060 E1.4582
G1 X146.170 Y151.060 E1.4734
G1 X141.050 Y145.940 E1.6685
G1 X141.616 Y145.940 E1.6837
G1 X146.736 Y151.060 E1.8788
G1 X147.301 Y151.060 E1.8940
G1 X142.181 Y145.940 E2.0891
G1 X142.747 Y145.940 E2.1043
G1 X147.867 Y151.060 E2.2994
G1 X148.433 Y151.060 E2.3146
G1 X143.313 Y145.940 E2.5097
G1 X143.878 Y145.940 E2.5250
G1 X148.998 Y151.060 E2.7200
G1 X149.564 Y151.060 E2.7353
G1 X144.444 Y145.940 E2.9303
G1 X145.010 Y145.940 E2.9456
G1 X150.130 Y151.060 E3.1406
G1 X150.695 Y151.060 E3.1559
G1 X145.575 Y145.940 E3.3510
G1 X146.141 Y145.940 E3.3662
G1 X151.261 Y151.060 E3.5613
G1 X151.827 Y151.060 E3.5765
G1 X146.707 Y145.940 E3.7716
G1 X147.272 Y145.940 E3.7868
G1 X152.392 Y151.060 E3.9819
G1 X152.958 Y151.060 E3.9971
G1 X147.838 Y145.940 E4.1922
G1 X148.404 Y145.940 E4.2074
G1 X153.524 Y151.060 E4.4025
G1 X154.089 Y151.060 E4.4178
G1 X148.969 Y145.940 E4.6128
G1 X149.535 Y145.940 E4.6281
G1 X154.655 Y151.060 E4.8231
G1 X155.221 Y151.060 E4.8384
G1 X150.101 Y145.940 E5.0335
G1 X150.667 Y145.940 E5.0487
G1 X155.787 Y151.060 E5.2438
G1 X156.352 Y151.060 E5.2590
G1 X151.232 Y145.940 E5.4541
G1 X151.798 Y145.940 E5.4693
G1 X156.918 Y151.060 E5.6644
G1 X157.484 Y151.060 E5.6796
G1 X152.364 Y145.940 E5.8747
G1 X152.929 Y145.940 E5.8899
G1 X158.049 Y151.060 E6.0850
G1 X158.615 Y151.060 E6.1002
G1 X153.495 Y145.940 E6.2953
G1 X154.061 Y145.940 E6.3106
G1 X159.181 Y151.060 E6.5056
G1 X159.746 Y151.060 E6.5209
G1 X154.626 Y145.940 E6.7159
G1 X155.192 Y145.940 E6.7312
G1 X160.312 Y151.060 E6.9263
G1 X160.878 Y151.060 E6.9415
G1 X155.758 Y145.940 E7.1366
G1 X156.323 Y145.940 E7.1518
G1 X161.443 Y151.060 E7.3469
G1 X162.009 Y151.060 E7.3621
G1 X156.889 Y145.940 E7.5572
G1 X157.455 Y145.940 E7.5724
G1 X162.575 Y151.060 E7.7675
G1 X163.140 Y151.060 E7.7827
G1 X158.020 Y145.940 E7.9778
G1 X158.586 Y145.940 E7.9931
G1 X163.706 Y151.060 E8.1881
G1 X164.272 Y151.060 E8.2034
G1 X159.152 Y145.940 E8.3984
G1 X159.717 Y145.940 E8.4137
G1 X164.837 Y151.060 E8.6087
G1 X165.403 Y151.060 E8.6240
G1 X160.283 Y145.940 E8.8191
G1 X160.849 Y145.940 E8.8343
G1 X165.969 Y151.060 E9.0294
G1 X166.535 Y151.060 E9.0446
G1 X161.415 Y145.940 E9.2397
G1 X161.980 Y145.940 E9.2549
G1 X167.100 Y151.060 E9.4500
G1 X167.666 Y151.060 E9.4652
G1 X162.545 Y145.939 E9.6603
G1 X163.039 Y145.901 E9.6737
G1 X163.066 Y145.894 E9.6744
G1 X168.232 Y151.060 E9.8712
G1 X168.797 Y151.060 E9.8865
G1 X163.522 Y145.785 E10.0875
G1 X163.564 Y145.774 E10.0886
G1 X163.927 Y145.624 E10.0992
G1 X169.363 Y151.060 E10.3063
G1 X169.929 Y151.060 E10.3216
G1 X164.294 Y145.426 E10.5362
G1 X164.524 Y145.285 E10.5435
G1 X164.629 Y145.195 E10.5472
G1 X170.494 Y151.060 E10.7707
G1 X171.060 Y151.060 E10.7859
G1 X164.935 Y144.934 E11.0193
G1 X165.195 Y144.629 E11.0301
G1 X171.626 Y151.060 E11.2751
G1 X172.191 Y151.060 E11.2904
G1 X165.426 Y144.294 E11.5481
G1 X165.568 Y144.063 E11.5554
G1 X165.624 Y143.927 E11.5594
G1 X172.757 Y151.060 E11.8312
G1 X173.323 Y151.060 E11.8464
G1 X165.785 Y143.522 E12.1336
G1 X165.894 Y143.066 E12.1463
G1 X173.888 Y151.060 E12.4508
G1 X174.454 Y151.060 E12.4661
G1 X165.939 Y142.545 E12.7905
G1 X165.940 Y142.537 E12.7907
G1 X165.940 Y141.980 E12.8057
G1 X175.020 Y151.060 E13.1517
G1 X175.585 Y151.060 E13.1669
G1 X165.940 Y141.415 E13.5344
G1 X165.940 Y140.849 E13.5496
G1 X176.151 Y151.060 E13.9387
G1 X176.717 Y151.060 E13.9539
G1 X165.940 Y140.283 E14.3645
G1 X165.940 Y139.717 E14.3798
G1 X177.283 Y151.060 E14.8119
G1 X177.848 Y151.060 E14.8271
G1 X165.940 Y139.152 E15.2808
G1 X165.940 Y138.586 E15.2961
G1 X178.414 Y151.060 E15.7713
G1 X178.980 Y151.060 E15.7866
G1 X165.940 Y138.020 E16.2834
G1 X165.940 Y137.455 E16.2986
G1 X179.545 Y151.060 E16.8170
G1 X180.111 Y151.060 E16.8322
G1 X165.940 Y136.889 E17.3721
G1 X165.940 Y136.323 E17.3874
G1 X180.677 Y151.060 E17.9488
G1 X181.242 Y151.060 E17.9641
G1 X165.940 Y135.758 E18.5471
G1 X165.940 Y135.192 E18.5623
G1 X181.808 Y151.060 E19.1669
G1 X182.374 Y151.060 E19.1822
G1 X165.940 Y134.626 E19.8083
G1 X165.940 Y134.061 E19.8235
G1 X182.939 Y151.060 E20.4712
G1 X183.505 Y151.060 E20.4864
G1 X165.940 Y133.495 E21.1557
G1 X165.940 Y132.929 E21.1709
G1 X184.071 Y151.060 E21.8617
G1 X184.636 Y151.060 E21.8769
G1 X165.940 Y132.364 E22.5893
G1 X165.940 Y131.798 E22.6045
G1 X185.202 Y151.060 E23.3384
G1 X185.768 Y151.060 E23.3536
G1 X165.940 Y131.232 E24.1091
G1 X165.940 Y130.666 E24.1243
G1 X186.334 Y151.060 E24.9013
G1 X186.899 Y151.060 E24.9165
G1 X165.940 Y130.101 E25.7151
G1 X165.940 Y129.535 E25.7303
G1 X187.465 Y151.060 E26.5504
G1 X188.031 Y151.060 E26.5657
G1 X165.940 Y128.969 E27.4073
G1 X165.940 Y128.404 E27.4225
G1 X188.596 Y151.060 E28.2857
G1 X189.162 Y151.060 E28.3010
G1 X165.940 Y127.838 E29.1857
G1 X165.940 Y127.272 E29.2010
G1 X189.728 Y151.060 E30.1073
G1 X190.293 Y151.060 E30.1225
G1 X165.940 Y126.707 E31.0504
G1 X165.940 Y126.141 E31.0656
G1 X190.859 Y151.060 E32.0150
G1 X191.425 Y151.060 E32.0303
G1 X165.940 Y125.575 E33.0012
G1 X165.940 Y125.010 E33.0165
G1 X191.990 Y151.060 E34.0090
