; G-Code generated by Simplify3D(R) Version 4.1.1
; Mar 7, 2020 at 10:04:24 PM
; Settings Summary
;   processName,Process1
;   applyToModels,Chassi
;   profileName,Default (modified)
;   profileVersion,2015-05-01 08:00:00
;   baseProfile,
;   printMaterial,PLA
;   printQuality,Medium
;   printExtruders,
;   extruderName,Primary Extruder
;   extruderToolheadNumber,0
;   extruderDiameter,0.35
;   extruderAutoWidth,0
;   extruderWidth,0.4
;   extrusionMultiplier,0.9
;   extruderUseRetract,1
;   extruderRetractionDistance,1
;   extruderExtraRestartDistance,0
;   extruderRetractionZLift,0
;   extruderRetractionSpeed,1800
;   extruderUseCoasting,0
;   extruderCoastingDistance,0.2
;   extruderUseWipe,0
;   extruderWipeDistance,5
;   primaryExtruder,0
;   layerHeight,0.2
;   topSolidLayers,3
;   bottomSolidLayers,3
;   perimeterOutlines,2
;   printPerimetersInsideOut,1
;   startPointOption,2
;   startPointOriginX,0
;   startPointOriginY,0
;   sequentialIslands,0
;   spiralVaseMode,0
;   firstLayerHeightPercentage,90
;   firstLayerWidthPercentage,100
;   firstLayerUnderspeed,0.5
;   useRaft,0
;   raftExtruder,0
;   raftTopLayers,3
;   raftBaseLayers,2
;   raftOffset,3
;   raftSeparationDistance,0.14
;   raftTopInfill,100
;   aboveRaftSpeedMultiplier,0.3
;   useSkirt,1
;   skirtExtruder,0
;   skirtLayers,1
;   skirtOutlines,4
;   skirtOffset,4
;   usePrimePillar,0
;   primePillarExtruder,999
;   primePillarWidth,12
;   primePillarLocation,7
;   primePillarSpeedMultiplier,1
;   useOozeShield,0
;   oozeShieldExtruder,999
;   oozeShieldOffset,2
;   oozeShieldOutlines,1
;   oozeShieldSidewallShape,1
;   oozeShieldSidewallAngle,30
;   oozeShieldSpeedMultiplier,1
;   infillExtruder,0
;   internalInfillPattern,Rectilinear
;   externalInfillPattern,Rectilinear
;   infillPercentage,10
;   outlineOverlapPercentage,15
;   infillExtrusionWidthPercentage,100
;   minInfillLength,5
;   infillLayerInterval,1
;   internalInfillAngles,45,-45
;   overlapInternalInfillAngles,0
;   externalInfillAngles,45,-45
;   generateSupport,0
;   supportExtruder,0
;   supportInfillPercentage,20
;   supportExtraInflation,0
;   supportBaseLayers,0
;   denseSupportExtruder,0
;   denseSupportLayers,0
;   denseSupportInfillPercentage,70
;   supportLayerInterval,1
;   supportHorizontalPartOffset,0.3
;   supportUpperSeparationLayers,1
;   supportLowerSeparationLayers,1
;   supportType,0
;   supportGridSpacing,4
;   maxOverhangAngle,45
;   supportAngles,0
;   temperatureName,Primary Extruder,Heated build platform
;   temperatureNumber,0,0
;   temperatureSetpointCount,1,1
;   temperatureSetpointLayers,1,1
;   temperatureSetpointTemperatures,210,60
;   temperatureStabilizeAtStartup,1,1
;   temperatureHeatedBed,0,1
;   fanLayers,1,2
;   fanSpeeds,0,100
;   blipFanToFullPower,0
;   adjustSpeedForCooling,1
;   minSpeedLayerTime,15
;   minCoolingSpeedSlowdown,20
;   increaseFanForCooling,0
;   minFanLayerTime,45
;   maxCoolingFanSpeed,100
;   increaseFanForBridging,0
;   bridgingFanSpeed,100
;   use5D,1
;   relativeEdistances,0
;   allowEaxisZeroing,1
;   independentExtruderAxes,0
;   includeM10123,0
;   stickySupport,1
;   applyToolheadOffsets,0
;   gcodeXoffset,0
;   gcodeYoffset,0
;   gcodeZoffset,0
;   overrideMachineDefinition,0
;   machineTypeOverride,0
;   strokeXoverride,200
;   strokeYoverride,200
;   strokeZoverride,200
;   originOffsetXoverride,0
;   originOffsetYoverride,0
;   originOffsetZoverride,0
;   homeXdirOverride,-1
;   homeYdirOverride,-1
;   homeZdirOverride,-1
;   flipXoverride,1
;   flipYoverride,-1
;   flipZoverride,1
;   toolheadOffsets,0,0|0,0|0,0|0,0|0,0|0,0
;   overrideFirmwareConfiguration,0
;   firmwareTypeOverride,RepRap (Marlin/Repetier/Sprinter)
;   GPXconfigOverride,r2
;   baudRateOverride,115200
;   overridePrinterModels,0
;   printerModelsOverride
;   startingGcode,G28 ; home all axes
;   layerChangeGcode,
;   retractionGcode,
;   toolChangeGcode,
;   endingGcode,M104 S0 ; turn off extruder,M140 S0 ; turn off bed,M84 ; disable motors
;   exportFileFormat,gcode
;   celebration,0
;   celebrationSong,Random Song
;   postProcessing,
;   defaultSpeed,3600
;   outlineUnderspeed,0.5
;   solidInfillUnderspeed,0.8
;   supportUnderspeed,0.8
;   rapidXYspeed,4800
;   rapidZspeed,1000
;   minBridgingArea,50
;   bridgingExtraInflation,0
;   bridgingExtrusionMultiplier,1
;   bridgingSpeedMultiplier,1
;   useFixedBridgingAngle,0
;   fixedBridgingAngle,0
;   applyBridgingToPerimeters,0
;   filamentDiameters,1.75|1.75|1.75|1.75|1.75|1.75
;   filamentPricesPerKg,46|46|46|46|46|46
;   filamentDensities,1.25|1.25|1.25|1.25|1.25|1.25
;   useMinPrintHeight,0
;   minPrintHeight,0
;   useMaxPrintHeight,0
;   maxPrintHeight,0
;   useDiaphragm,0
;   diaphragmLayerInterval,20
;   robustSlicing,1
;   mergeAllIntoSolid,0
;   onlyRetractWhenCrossingOutline,1
;   retractBetweenLayers,1
;   useRetractionMinTravel,0
;   retractionMinTravel,3
;   retractWhileWiping,0
;   onlyWipeOutlines,1
;   avoidCrossingOutline,0
;   maxMovementDetourFactor,3
;   toolChangeRetractionDistance,12
;   toolChangeExtraRestartDistance,-0.5
;   toolChangeRetractionSpeed,600
;   externalThinWallType,0
;   internalThinWallType,2
;   thinWallAllowedOverlapPercentage,10
;   singleExtrusionMinLength,1
;   singleExtrusionMinPrintingWidthPercentage,50
;   singleExtrusionMaxPrintingWidthPercentage,200
;   singleExtrusionEndpointExtension,0.2
;   horizontalSizeCompensation,0
G90
M82
M106 S0
M140 S60
M190 S60
M104 S210 T0
M109 S210 T0
G28 ; home all axes
; process Process1
; layer 1, Z = 0.180
T0
G92 E0.0000
G1 E-1.0000 F1800
; feature skirt
; tool H0.180 W0.400
G1 Z0.180 F1000
G1 X43.763 Y74.600 F4800
G1 E0.0000 F1800
G92 E0.0000
G1 X122.763 Y74.600 E2.1283 F1800
G1 X125.763 Y71.600 E2.2426
G1 X140.237 Y71.600 E2.6325
G1 X143.237 Y74.600 E2.7468
G1 X206.237 Y74.600 E4.4441
G1 X209.400 Y77.763 E4.5646
G1 X209.400 Y182.237 E7.3792
G1 X206.237 Y185.400 E7.4997
G1 X143.236 Y185.400 E9.1970
G1 X140.237 Y188.400 E9.3113
G1 X125.763 Y188.400 E9.7012
G1 X122.763 Y185.400 E9.8155
G1 X43.763 Y185.400 E11.9438
G1 X40.600 Y182.237 E12.0644
G1 X40.600 Y77.763 E14.8790
G1 X43.763 Y74.600 E14.9995
G92 E0.0000
G1 E-1.0000 F1800
G1 X43.929 Y75.000 F4800
G1 E0.0000 F1800
G92 E0.0000
G1 X123.000 Y75.000 E2.1302 F1800
G1 X123.000 Y74.929 E2.1321
G1 X125.929 Y72.000 E2.2437
G1 X140.071 Y72.000 E2.6247
G1 X143.000 Y74.929 E2.7363
G1 X143.000 Y75.000 E2.7382
G1 X206.071 Y75.000 E4.4374
G1 X209.000 Y77.929 E4.5490
G1 X209.000 Y182.071 E7.3547
G1 X206.071 Y185.000 E7.4663
G1 X143.000 Y185.000 E9.1654
G1 X143.000 Y185.071 E9.1674
G1 X140.071 Y188.000 E9.2789
G1 X125.929 Y188.000 E9.6599
G1 X123.000 Y185.071 E9.7715
G1 X123.000 Y185.000 E9.7735
G1 X43.929 Y185.000 E11.9037
G1 X41.000 Y182.071 E12.0153
G1 X41.000 Y77.929 E14.8209
G1 X43.929 Y75.000 E14.9325
G92 E0.0000
G1 E-1.0000 F1800
G1 X44.095 Y75.400 F4800
G1 E0.0000 F1800
G92 E0.0000
G1 X123.400 Y75.400 E2.1365 F1800
G1 X123.400 Y75.095 E2.1448
G1 X126.095 Y72.400 E2.2474
G1 X139.905 Y72.400 E2.6195
G1 X142.600 Y75.095 E2.7222
G1 X142.600 Y75.400 E2.7304
G1 X205.905 Y75.400 E4.4359
G1 X208.600 Y78.095 E4.5386
G1 X208.600 Y181.905 E7.3353
G1 X205.905 Y184.600 E7.4380
G1 X142.600 Y184.600 E9.1434
G1 X142.600 Y184.905 E9.1517
G1 X139.905 Y187.600 E9.2543
G1 X126.095 Y187.600 E9.6264
G1 X123.400 Y184.905 E9.7291
G1 X123.400 Y184.600 E9.7373
G1 X44.095 Y184.600 E11.8738
G1 X41.400 Y181.905 E11.9765
G1 X41.400 Y78.095 E14.7732
G1 X44.095 Y75.400 E14.8759
G92 E0.0000
G1 E-1.0000 F1800
G1 X44.260 Y75.800 F4800
G1 E0.0000 F1800
G92 E0.0000
G1 X123.800 Y75.800 E2.1429 F1800
G1 X123.800 Y75.260 E2.1574
G1 X126.260 Y72.800 E2.2511
G1 X139.740 Y72.800 E2.6143
G1 X142.200 Y75.260 E2.7080
G1 X142.200 Y75.800 E2.7226
G1 X205.740 Y75.800 E4.4344
G1 X208.200 Y78.260 E4.5281
G1 X208.200 Y181.740 E7.3159
G1 X205.740 Y184.200 E7.4096
G1 X142.200 Y184.200 E9.1214
G1 X142.200 Y184.740 E9.1360
G1 X139.740 Y187.200 E9.2297
G1 X126.260 Y187.200 E9.5929
G1 X123.800 Y184.740 E9.6866
G1 X123.800 Y184.200 E9.7011
G1 X44.260 Y184.200 E11.8440
G1 X41.800 Y181.740 E11.9377
G1 X41.800 Y78.260 E14.7255
G1 X44.260 Y75.800 E14.8193
G92 E0.0000
G1 E-1.0000 F1800
; feature inner perimeter
G1 X46.600 Y80.600 F4800
G1 E0.0000 F1800
G92 E0.0000
G1 X128.600 Y80.600 E2.2091 F1350
G1 X128.600 Y77.600 E2.2900
G1 X137.400 Y77.600 E2.5270
G1 X137.400 Y80.600 E2.6079
G1 X203.400 Y80.600 E4.3859
G1 X203.400 Y179.400 E7.0477
G1 X137.400 Y179.400 E8.8258
G1 X137.400 Y182.400 E8.9066
G1 X128.600 Y182.400 E9.1437
G1 X128.600 Y179.400 E9.2245
G1 X46.600 Y179.400 E11.4336
G1 X46.600 Y80.600 E14.0954
; feature outer perimeter
G1 X46.200 Y80.200 F4800
G92 E0.0000
G1 X128.200 Y80.200 E2.2091 F900
G1 X128.200 Y77.200 E2.2900
G1 X137.800 Y77.200 E2.5486
G1 X137.800 Y80.200 E2.6294
G1 X203.800 Y80.200 E4.4075
G1 X203.800 Y179.800 E7.0908
G1 X137.800 Y179.800 E8.8689
G1 X137.800 Y182.800 E8.9497
G1 X128.200 Y182.800 E9.2083
G1 X128.200 Y179.800 E9.2891
G1 X46.200 Y179.800 E11.4983
G1 X46.200 Y80.200 E14.1816
G92 E0.0000
G1 E-1.0000 F1800
; feature solid layer
G1 X133.013 Y77.940 F4800
G1 E0.0000 F1800
G92 E0.0000
G1 X203.060 Y147.987 E2.6688 F1440
G1 X203.060 Y148.553 E2.6840
G1 X132.447 Y77.940 E5.3744
G1 X131.881 Y77.940 E5.3896
G1 X203.060 Y149.119 E8.1015
G1 X203.060 Y149.685 E8.1168
G1 X131.315 Y77.940 E10.8503
G1 X130.750 Y77.940 E10.8655
G1 X203.060 Y150.250 E13.6205
G1 X203.060 Y150.816 E13.6357
G1 X130.184 Y77.940 E16.4123
G1 X129.618 Y77.940 E16.4276
G1 X203.060 Y151.382 E19.2257
G1 X203.060 Y151.947 E19.2409
G1 X129.053 Y77.940 E22.0606
G1 X128.940 Y77.940 E22.0636
G1 X128.940 Y78.393 E22.0758
G1 X203.060 Y152.513 E24.8998
G1 X203.060 Y153.079 E24.9150
G1 X128.940 Y78.959 E27.7390
G1 X128.940 Y79.524 E27.7542
G1 X203.060 Y153.644 E30.5782
G1 X203.060 Y154.210 E30.5934
G1 X128.940 Y80.090 E33.4174
G1 X128.940 Y80.656 E33.4326
G1 X203.060 Y154.776 E36.2566
G1 X203.060 Y155.341 E36.2719
G1 X128.659 Y80.940 E39.1065
G1 X128.093 Y80.940 E39.1218
G1 X203.060 Y155.907 E41.9780
G1 X203.060 Y156.473 E41.9933
G1 X127.527 Y80.940 E44.8711
G1 X126.962 Y80.940 E44.8863
G1 X203.060 Y157.038 E47.7856
G1 X203.060 Y157.604 E47.8009
G1 X126.396 Y80.940 E50.7218
G1 X125.830 Y80.940 E50.7370
G1 X203.060 Y158.170 E53.6795
G1 X203.060 Y158.736 E53.6947
G1 X125.264 Y80.940 E56.6587
G1 X124.699 Y80.940 E56.6739
G1 X203.060 Y159.301 E59.6595
G1 X203.060 Y159.867 E59.6747
G1 X124.133 Y80.940 E62.6818
G1 X123.567 Y80.940 E62.6971
G1 X203.060 Y160.433 E65.7257
G1 X203.060 Y160.998 E65.7410
G1 X123.002 Y80.940 E68.7912
G1 X122.436 Y80.940 E68.8064
G1 X203.060 Y161.564 E71.8782
G1 X203.060 Y162.130 E71.8934
G1 X121.870 Y80.940 E74.9868
G1 X121.305 Y80.940 E75.0020
G1 X203.060 Y162.695 E78.1169
G1 X203.060 Y163.261 E78.1321
G1 X120.739 Y80.940 E81.2685
G1 X120.173 Y80.940 E81.2838
G1 X203.060 Y163.827 E84.4418
G1 X203.060 Y164.392 E84.4570
G1 X119.608 Y80.940 E87.6365
G1 X119.042 Y80.940 E87.6518
G1 X203.060 Y164.958 E90.8528
G1 X203.060 Y165.524 E90.8681
G1 X118.476 Y80.940 E94.0907
G1 X117.911 Y80.940 E94.1060
G1 X203.060 Y166.089 E97.3501
G1 X203.060 Y166.655 E97.3654
G1 X117.345 Y80.940 E100.6311
G1 X116.779 Y80.940 E100.6464
G1 X203.060 Y167.221 E103.9337
G1 X203.060 Y167.786 E103.9489
G1 X116.214 Y80.940 E107.2577
G1 X115.648 Y80.940 E107.2730
G1 X203.060 Y168.352 E110.6034
G1 X203.060 Y168.918 E110.6186
G1 X115.082 Y80.940 E113.9706
G1 X114.516 Y80.940 E113.9858
G1 X203.060 Y169.484 E117.3593
G1 X203.060 Y170.049 E117.3745
G1 X113.951 Y80.940 E120.7696
G1 X113.385 Y80.940 E120.7848
G1 X203.060 Y170.615 E124.2014
G1 X203.060 Y171.181 E124.2167
G1 X112.819 Y80.940 E127.6548
G1 X112.254 Y80.940 E127.6701
G1 X203.060 Y171.746 E131.1298
G1 X203.060 Y172.312 E131.1450
G1 X111.688 Y80.940 E134.6263
G1 X111.122 Y80.940 E134.6415
G1 X203.060 Y172.878 E138.1444
G1 X203.060 Y173.443 E138.1596
G1 X110.557 Y80.940 E141.6840
G1 X109.991 Y80.940 E141.6992
G1 X203.060 Y174.009 E145.2451
G1 X203.060 Y174.575 E145.2604
G1 X109.425 Y80.940 E148.8278
G1 X108.860 Y80.940 E148.8431
G1 X203.060 Y175.140 E152.4321
G1 X203.060 Y175.706 E152.4474
G1 X108.294 Y80.940 E156.0579
G1 X107.728 Y80.940 E156.0732
G1 X203.060 Y176.272 E159.7053
G1 X203.060 Y176.837 E159.7205
G1 X107.163 Y80.940 E163.3742
G1 X106.597 Y80.940 E163.3895
G1 X203.060 Y177.403 E167.0647
G1 X203.060 Y177.969 E167.0799
G1 X106.031 Y80.940 E170.7767
G1 X105.465 Y80.940 E170.7920
G1 X203.060 Y178.535 E174.5103
G1 X203.060 Y179.060 E174.5245
G1 X203.020 Y179.060 E174.5256
G1 X104.900 Y80.940 E178.2639
G1 X104.334 Y80.940 E178.2792
G1 X202.454 Y179.060 E182.0175
G1 X201.888 Y179.060 E182.0328
G1 X103.768 Y80.940 E185.7711
G1 X103.203 Y80.940 E185.7864
G1 X201.323 Y179.060 E189.5247
G1 X200.757 Y179.060 E189.5400
G1 X102.637 Y80.940 E193.2783
G1 X102.071 Y80.940 E193.2936
G1 X200.191 Y179.060 E197.0319
G1 X199.626 Y179.060 E197.0472
G1 X101.506 Y80.940 E200.7855
G1 X100.940 Y80.940 E200.8008
G1 X199.060 Y179.060 E204.5392
G1 X198.494 Y179.060 E204.5544
G1 X100.374 Y80.940 E208.2928
G1 X99.809 Y80.940 E208.3080
G1 X197.929 Y179.060 E212.0464
G1 X197.363 Y179.060 E212.0616
G1 X99.243 Y80.940 E215.8000
G1 X98.677 Y80.940 E215.8152
G1 X196.797 Y179.060 E219.5536
G1 X196.232 Y179.060 E219.5688
G1 X98.112 Y80.940 E223.3072
G1 X97.546 Y80.940 E223.3224
G1 X195.666 Y179.060 E227.0608
G1 X195.100 Y179.060 E227.0760
G1 X96.980 Y80.940 E230.8144
G1 X96.415 Y80.940 E230.8296
G1 X194.535 Y179.060 E234.5680
G1 X193.969 Y179.060 E234.5832
G1 X95.849 Y80.940 E238.3216
G1 X95.283 Y80.940 E238.3368
G1 X193.403 Y179.060 E242.0752
G1 X192.838 Y179.060 E242.0904
G1 X94.717 Y80.940 E245.8288
G1 X94.152 Y80.940 E245.8441
G1 X192.272 Y179.060 E249.5824
G1 X191.706 Y179.060 E249.5977
G1 X93.586 Y80.940 E253.3360
G1 X93.020 Y80.940 E253.3513
G1 X191.140 Y179.060 E257.0896
G1 X190.575 Y179.060 E257.1049
G1 X92.455 Y80.940 E260.8432
G1 X91.889 Y80.940 E260.8585
G1 X190.009 Y179.060 E264.5968
G1 X189.443 Y179.060 E264.6121
G1 X91.323 Y80.940 E268.3505
G1 X90.758 Y80.940 E268.3657
G1 X188.878 Y179.060 E272.1041
G1 X188.312 Y179.060 E272.1193
G1 X90.192 Y80.940 E275.8577
G1 X89.626 Y80.940 E275.8729
G1 X187.746 Y179.060 E279.6113
G1 X187.181 Y179.060 E279.6265
G1 X89.061 Y80.940 E283.3649
G1 X88.495 Y80.940 E283.3801
G1 X186.615 Y179.060 E287.1185
G1 X186.049 Y179.060 E287.1337
G1 X87.929 Y80.940 E290.8721
G1 X87.364 Y80.940 E290.8873
G1 X185.484 Y179.060 E294.6257
G1 X184.918 Y179.060 E294.6409
G1 X86.798 Y80.940 E298.3793
G1 X86.232 Y80.940 E298.3946
G1 X184.352 Y179.060 E302.1329
G1 X183.787 Y179.060 E302.1482
G1 X85.667 Y80.940 E305.8865
G1 X85.101 Y80.940 E305.9018
G1 X183.221 Y179.060 E309.6401
G1 X182.655 Y179.060 E309.6554
G1 X84.535 Y80.940 E313.3937
G1 X83.969 Y80.940 E313.4090
G1 X182.090 Y179.060 E317.1474
G1 X181.524 Y179.060 E317.1626
G1 X83.404 Y80.940 E320.9010
G1 X82.838 Y80.940 E320.9162
G1 X180.958 Y179.060 E324.6546
G1 X180.393 Y179.060 E324.6698
G1 X82.272 Y80.940 E328.4082
G1 X81.707 Y80.940 E328.4234
G1 X179.827 Y179.060 E332.1618
G1 X179.261 Y179.060 E332.1770
G1 X81.141 Y80.940 E335.9154
G1 X80.575 Y80.940 E335.9306
G1 X178.695 Y179.060 E339.6690
G1 X178.130 Y179.060 E339.6843
G1 X80.010 Y80.940 E343.4226
G1 X79.444 Y80.940 E343.4379
G1 X177.564 Y179.060 E347.1762
G1 X176.998 Y179.060 E347.1915
G1 X78.878 Y80.940 E350.9298
G1 X78.313 Y80.940 E350.9451
G1 X176.433 Y179.060 E354.6835
G1 X175.867 Y179.060 E354.6987
G1 X77.747 Y80.940 E358.4371
G1 X77.181 Y80.940 E358.4523
G1 X175.301 Y179.060 E362.1907
G1 X174.736 Y179.060 E362.2059
