; G-Code generated by Simplify3D(R) Version 4.1.1
; Mar 7, 2020 at 9:59:43 PM
; Settings Summary
;   processName,Process1
;   applyToModels,Encoder
;   profileName,Default (modified)
;   profileVersion,2015-05-01 08:00:00
;   baseProfile,
;   printMaterial,PLA
;   printQuality,Medium
;   printExtruders,
;   extruderName,Primary Extruder
;   extruderToolheadNumber,0
;   extruderDiameter,0.35
;   extruderAutoWidth,0
;   extruderWidth,0.4
;   extrusionMultiplier,0.9
;   extruderUseRetract,1
;   extruderRetractionDistance,1
;   extruderExtraRestartDistance,0
;   extruderRetractionZLift,0
;   extruderRetractionSpeed,1800
;   extruderUseCoasting,0
;   extruderCoastingDistance,0.2
;   extruderUseWipe,0
;   extruderWipeDistance,5
;   primaryExtruder,0
;   layerHeight,0.2
;   topSolidLayers,3
;   bottomSolidLayers,3
;   perimeterOutlines,2
;   printPerimetersInsideOut,1
;   startPointOption,2
;   startPointOriginX,0
;   startPointOriginY,0
;   sequentialIslands,0
;   spiralVaseMode,0
;   firstLayerHeightPercentage,90
;   firstLayerWidthPercentage,100
;   firstLayerUnderspeed,0.5
;   useRaft,0
;   raftExtruder,0
;   raftTopLayers,3
;   raftBaseLayers,2
;   raftOffset,3
;   raftSeparationDistance,0.14
;   raftTopInfill,100
;   aboveRaftSpeedMultiplier,0.3
;   useSkirt,1
;   skirtExtruder,0
;   skirtLayers,1
;   skirtOutlines,4
;   skirtOffset,4
;   usePrimePillar,0
;   primePillarExtruder,999
;   primePillarWidth,12
;   primePillarLocation,7
;   primePillarSpeedMultiplier,1
;   useOozeShield,0
;   oozeShieldExtruder,999
;   oozeShieldOffset,2
;   oozeShieldOutlines,1
;   oozeShieldSidewallShape,1
;   oozeShieldSidewallAngle,30
;   oozeShieldSpeedMultiplier,1
;   infillExtruder,0
;   internalInfillPattern,Rectilinear
;   externalInfillPattern,Rectilinear
;   infillPercentage,100
;   outlineOverlapPercentage,15
;   infillExtrusionWidthPercentage,100
;   minInfillLength,5
;   infillLayerInterval,1
;   internalInfillAngles,45,-45
;   overlapInternalInfillAngles,0
;   externalInfillAngles,45,-45
;   generateSupport,0
;   supportExtruder,0
;   supportInfillPercentage,20
;   supportExtraInflation,0
;   supportBaseLayers,0
;   denseSupportExtruder,0
;   denseSupportLayers,0
;   denseSupportInfillPercentage,70
;   supportLayerInterval,1
;   supportHorizontalPartOffset,0.3
;   supportUpperSeparationLayers,1
;   supportLowerSeparationLayers,1
;   supportType,0
;   supportGridSpacing,4
;   maxOverhangAngle,45
;   supportAngles,0
;   temperatureName,Primary Extruder,Heated build platform
;   temperatureNumber,0,0
;   temperatureSetpointCount,1,1
;   temperatureSetpointLayers,1,1
;   temperatureSetpointTemperatures,210,60
;   temperatureStabilizeAtStartup,1,1
;   temperatureHeatedBed,0,1
;   fanLayers,1,2
;   fanSpeeds,0,100
;   blipFanToFullPower,0
;   adjustSpeedForCooling,1
;   minSpeedLayerTime,15
;   minCoolingSpeedSlowdown,20
;   increaseFanForCooling,0
;   minFanLayerTime,45
;   maxCoolingFanSpeed,100
;   increaseFanForBridging,0
;   bridgingFanSpeed,100
;   use5D,1
;   relativeEdistances,0
;   allowEaxisZeroing,1
;   independentExtruderAxes,0
;   includeM10123,0
;   stickySupport,1
;   applyToolheadOffsets,0
;   gcodeXoffset,0
;   gcodeYoffset,0
;   gcodeZoffset,0
;   overrideMachineDefinition,0
;   machineTypeOverride,0
;   strokeXoverride,200
;   strokeYoverride,200
;   strokeZoverride,200
;   originOffsetXoverride,0
;   originOffsetYoverride,0
;   originOffsetZoverride,0
;   homeXdirOverride,-1
;   homeYdirOverride,-1
;   homeZdirOverride,-1
;   flipXoverride,1
;   flipYoverride,-1
;   flipZoverride,1
;   toolheadOffsets,0,0|0,0|0,0|0,0|0,0|0,0
;   overrideFirmwareConfiguration,0
;   firmwareTypeOverride,RepRap (Marlin/Repetier/Sprinter)
;   GPXconfigOverride,r2
;   baudRateOverride,115200
;   overridePrinterModels,0
;   printerModelsOverride
;   startingGcode,G28 ; home all axes
;   layerChangeGcode,
;   retractionGcode,
;   toolChangeGcode,
;   endingGcode,M104 S0 ; turn off extruder,M140 S0 ; turn off bed,M84 ; disable motors
;   exportFileFormat,gcode
;   celebration,0
;   celebrationSong,Random Song
;   postProcessing,
;   defaultSpeed,3600
;   outlineUnderspeed,0.5
;   solidInfillUnderspeed,0.8
;   supportUnderspeed,0.8
;   rapidXYspeed,4800
;   rapidZspeed,1000
;   minBridgingArea,50
;   bridgingExtraInflation,0
;   bridgingExtrusionMultiplier,1
;   bridgingSpeedMultiplier,1
;   useFixedBridgingAngle,0
;   fixedBridgingAngle,0
;   applyBridgingToPerimeters,0
;   filamentDiameters,1.75|1.75|1.75|1.75|1.75|1.75
;   filamentPricesPerKg,46|46|46|46|46|46
;   filamentDensities,1.25|1.25|1.25|1.25|1.25|1.25
;   useMinPrintHeight,0
;   minPrintHeight,0
;   useMaxPrintHeight,0
;   maxPrintHeight,0
;   useDiaphragm,0
;   diaphragmLayerInterval,20
;   robustSlicing,1
;   mergeAllIntoSolid,0
;   onlyRetractWhenCrossingOutline,1
;   retractBetweenLayers,1
;   useRetractionMinTravel,0
;   retractionMinTravel,3
;   retractWhileWiping,0
;   onlyWipeOutlines,1
;   avoidCrossingOutline,0
;   maxMovementDetourFactor,3
;   toolChangeRetractionDistance,12
;   toolChangeExtraRestartDistance,-0.5
;   toolChangeRetractionSpeed,600
;   externalThinWallType,0
;   internalThinWallType,2
;   thinWallAllowedOverlapPercentage,10
;   singleExtrusionMinLength,1
;   singleExtrusionMinPrintingWidthPercentage,50
;   singleExtrusionMaxPrintingWidthPercentage,200
;   singleExtrusionEndpointExtension,0.2
;   horizontalSizeCompensation,0
G90
M82
M106 S0
M140 S60
M190 S60
M104 S210 T0
M109 S210 T0
G28 ; home all axes
; process Process1
; layer 1, Z = 0.180
T0
G92 E0.0000
G1 E-1.0000 F1800
; feature skirt
; tool H0.180 W0.400
G1 Z0.180 F1000
G1 X134.745 Y116.455 F4800
G1 E0.0000 F1800
G92 E0.0000
G1 X134.934 Y116.245 E0.0076 F1800
G1 X136.245 Y114.934 E0.0575
G1 X136.455 Y114.745 E0.0652
G1 X137.873 Y113.597 E0.1143
G1 X138.098 Y113.433 E0.1218
G1 X139.672 Y112.407 E0.1724
G1 X139.920 Y112.263 E0.1802
G1 X141.573 Y111.421 E0.2301
G1 X141.832 Y111.306 E0.2378
G1 X143.562 Y110.642 E0.2877
G1 X143.831 Y110.555 E0.2953
G1 X145.620 Y110.075 E0.3452
G1 X145.897 Y110.016 E0.3528
G1 X147.727 Y109.727 E0.4028
G1 X148.008 Y109.697 E0.4104
G1 X149.859 Y109.600 E0.4603
G1 X150.141 Y109.600 E0.4679
G1 X151.992 Y109.697 E0.5178
G1 X152.273 Y109.727 E0.5254
G1 X154.103 Y110.016 E0.5754
G1 X154.380 Y110.075 E0.5830
G1 X156.169 Y110.555 E0.6329
G1 X156.438 Y110.642 E0.6405
G1 X158.168 Y111.306 E0.6904
G1 X158.427 Y111.421 E0.6981
G1 X160.078 Y112.262 E0.7480
G1 X160.322 Y112.404 E0.7556
G1 X161.876 Y113.413 E0.8055
G1 X162.105 Y113.579 E0.8131
G1 X163.545 Y114.745 E0.8631
G1 X163.755 Y114.934 E0.8707
G1 X165.065 Y116.245 E0.9206
G1 X165.255 Y116.455 E0.9282
G1 X166.421 Y117.895 E0.9781
G1 X166.587 Y118.124 E0.9857
G1 X167.596 Y119.678 E1.0357
G1 X167.738 Y119.922 E1.0433
G1 X168.579 Y121.573 E1.0932
G1 X168.694 Y121.832 E1.1008
G1 X169.358 Y123.562 E1.1507
G1 X169.445 Y123.831 E1.1584
G1 X169.925 Y125.620 E1.2083
G1 X169.984 Y125.897 E1.2159
G1 X170.273 Y127.727 E1.2658
G1 X170.303 Y128.008 E1.2734
G1 X170.400 Y129.859 E1.3234
G1 X170.400 Y130.141 E1.3310
G1 X170.303 Y131.992 E1.3809
G1 X170.273 Y132.273 E1.3885
G1 X169.984 Y134.103 E1.4384
G1 X169.925 Y134.380 E1.4460
G1 X169.445 Y136.169 E1.4960
G1 X169.358 Y136.438 E1.5036
G1 X168.694 Y138.168 E1.5535
G1 X168.579 Y138.427 E1.5611
G1 X167.738 Y140.078 E1.6110
G1 X167.596 Y140.322 E1.6187
G1 X166.587 Y141.876 E1.6686
G1 X166.421 Y142.105 E1.6762
G1 X165.255 Y143.545 E1.7261
G1 X165.066 Y143.755 E1.7337
G1 X163.755 Y145.066 E1.7836
G1 X163.545 Y145.255 E1.7913
G1 X162.105 Y146.421 E1.8412
G1 X161.876 Y146.587 E1.8488
G1 X160.322 Y147.596 E1.8987
G1 X160.078 Y147.738 E1.9063
G1 X158.427 Y148.579 E1.9563
G1 X158.168 Y148.694 E1.9639
G1 X156.438 Y149.358 E2.0138
G1 X156.169 Y149.445 E2.0214
G1 X154.380 Y149.925 E2.0713
G1 X154.103 Y149.984 E2.0790
G1 X152.273 Y150.273 E2.1289
G1 X151.992 Y150.303 E2.1365
G1 X150.141 Y150.400 E2.1864
G1 X149.859 Y150.400 E2.1940
G1 X148.008 Y150.303 E2.2439
G1 X147.727 Y150.273 E2.2516
G1 X145.897 Y149.984 E2.3015
G1 X145.620 Y149.925 E2.3091
G1 X143.831 Y149.445 E2.3590
G1 X143.562 Y149.358 E2.3666
G1 X141.832 Y148.694 E2.4166
G1 X141.573 Y148.579 E2.4242
G1 X139.922 Y147.738 E2.4741
G1 X139.678 Y147.596 E2.4817
G1 X138.124 Y146.587 E2.5316
G1 X137.895 Y146.421 E2.5392
G1 X136.455 Y145.255 E2.5892
G1 X136.245 Y145.065 E2.5968
G1 X134.934 Y143.755 E2.6467
G1 X134.745 Y143.545 E2.6543
G1 X133.597 Y142.127 E2.7035
G1 X133.433 Y141.902 E2.7110
G1 X132.407 Y140.328 E2.7616
G1 X132.263 Y140.080 E2.7693
G1 X131.421 Y138.427 E2.8193
G1 X131.306 Y138.168 E2.8269
G1 X130.642 Y136.438 E2.8768
G1 X130.555 Y136.170 E2.8845
G1 X130.075 Y134.380 E2.9344
G1 X130.016 Y134.103 E2.9420
G1 X129.727 Y132.273 E2.9919
G1 X129.697 Y131.992 E2.9995
G1 X129.600 Y130.141 E3.0495
G1 X129.600 Y129.859 E3.0571
G1 X129.697 Y128.008 E3.1070
G1 X129.727 Y127.727 E3.1146
G1 X130.016 Y125.897 E3.1645
G1 X130.075 Y125.620 E3.1722
G1 X130.555 Y123.831 E3.2221
G1 X130.642 Y123.562 E3.2297
G1 X131.306 Y121.832 E3.2796
G1 X131.421 Y121.573 E3.2872
G1 X132.266 Y119.915 E3.3374
G1 X132.416 Y119.657 E3.3454
G1 X133.487 Y118.030 E3.3979
G1 X133.644 Y117.815 E3.4051
G1 X134.745 Y116.455 E3.4522
G92 E0.0000
G1 E-1.0000 F1800
G1 X135.049 Y116.715 F4800
G1 E0.0000 F1800
G92 E0.0000
G1 X135.225 Y116.520 E0.0071 F1800
G1 X136.520 Y115.225 E0.0564
G1 X136.715 Y115.049 E0.0635
G1 X138.117 Y113.914 E0.1121
G1 X138.325 Y113.762 E0.1190
G1 X139.881 Y112.748 E0.1691
G1 X140.112 Y112.615 E0.1762
G1 X141.746 Y111.782 E0.2256
G1 X141.985 Y111.676 E0.2327
G1 X143.695 Y111.019 E0.2820
G1 X143.944 Y110.938 E0.2891
G1 X145.714 Y110.464 E0.3384
G1 X145.970 Y110.410 E0.3455
G1 X147.779 Y110.123 E0.3949
G1 X148.040 Y110.096 E0.4019
G1 X149.869 Y110.000 E0.4513
G1 X150.131 Y110.000 E0.4583
G1 X151.960 Y110.096 E0.5077
G1 X152.221 Y110.123 E0.5147
G1 X154.030 Y110.410 E0.5641
G1 X154.286 Y110.464 E0.5711
G1 X156.056 Y110.938 E0.6205
G1 X156.305 Y111.019 E0.6275
G1 X158.015 Y111.676 E0.6769
G1 X158.254 Y111.782 E0.6840
G1 X159.887 Y112.614 E0.7333
G1 X160.113 Y112.745 E0.7404
G1 X161.650 Y113.743 E0.7897
G1 X161.862 Y113.897 E0.7968
G1 X163.285 Y115.049 E0.8461
G1 X163.480 Y115.225 E0.8532
G1 X164.775 Y116.520 E0.9025
G1 X164.950 Y116.715 E0.9096
G1 X166.103 Y118.138 E0.9589
G1 X166.257 Y118.350 E0.9660
G1 X167.255 Y119.887 E1.0153
G1 X167.386 Y120.113 E1.0224
G1 X168.218 Y121.746 E1.0718
G1 X168.324 Y121.985 E1.0788
G1 X168.981 Y123.695 E1.1282
G1 X169.062 Y123.944 E1.1352
G1 X169.536 Y125.714 E1.1846
G1 X169.590 Y125.970 E1.1916
G1 X169.877 Y127.779 E1.2410
G1 X169.904 Y128.040 E1.2480
G1 X170.000 Y129.869 E1.2974
G1 X170.000 Y130.131 E1.3044
G1 X169.904 Y131.960 E1.3538
G1 X169.877 Y132.221 E1.3609
G1 X169.590 Y134.030 E1.4102
G1 X169.536 Y134.286 E1.4173
G1 X169.062 Y136.056 E1.4666
G1 X168.981 Y136.305 E1.4737
G1 X168.324 Y138.015 E1.5230
G1 X168.218 Y138.254 E1.5301
G1 X167.386 Y139.887 E1.5794
G1 X167.255 Y140.113 E1.5865
G1 X166.257 Y141.650 E1.6358
G1 X166.103 Y141.862 E1.6429
G1 X164.950 Y143.285 E1.6922
G1 X164.775 Y143.480 E1.6993
G1 X163.480 Y144.775 E1.7487
G1 X163.285 Y144.950 E1.7557
G1 X161.862 Y146.103 E1.8051
G1 X161.650 Y146.257 E1.8121
G1 X160.113 Y147.255 E1.8615
G1 X159.887 Y147.386 E1.8685
G1 X158.254 Y148.218 E1.9179
G1 X158.015 Y148.324 E1.9249
G1 X156.305 Y148.981 E1.9743
G1 X156.056 Y149.062 E1.9813
G1 X154.286 Y149.536 E2.0307
G1 X154.030 Y149.590 E2.0378
G1 X152.221 Y149.877 E2.0871
G1 X151.960 Y149.904 E2.0942
G1 X150.131 Y150.000 E2.1435
G1 X149.869 Y150.000 E2.1506
G1 X148.040 Y149.904 E2.1999
G1 X147.779 Y149.877 E2.2070
G1 X145.970 Y149.590 E2.2563
G1 X145.714 Y149.536 E2.2634
G1 X143.944 Y149.062 E2.3127
G1 X143.695 Y148.981 E2.3198
G1 X141.985 Y148.324 E2.3691
G1 X141.746 Y148.218 E2.3762
G1 X140.113 Y147.386 E2.4256
G1 X139.887 Y147.255 E2.4326
G1 X138.350 Y146.257 E2.4820
G1 X138.138 Y146.103 E2.4890
G1 X136.715 Y144.950 E2.5384
G1 X136.520 Y144.775 E2.5454
G1 X135.225 Y143.480 E2.5948
G1 X135.049 Y143.285 E2.6018
G1 X133.914 Y141.883 E2.6504
G1 X133.762 Y141.675 E2.6574
G1 X132.748 Y140.119 E2.7074
G1 X132.615 Y139.888 E2.7146
G1 X131.782 Y138.254 E2.7640
G1 X131.676 Y138.015 E2.7711
G1 X131.019 Y136.305 E2.8204
G1 X130.938 Y136.056 E2.8275
G1 X130.464 Y134.286 E2.8768
G1 X130.410 Y134.030 E2.8839
G1 X130.123 Y132.221 E2.9332
G1 X130.096 Y131.960 E2.9403
G1 X130.000 Y130.131 E2.9896
G1 X130.000 Y129.869 E2.9967
G1 X130.096 Y128.040 E3.0460
G1 X130.123 Y127.779 E3.0531
G1 X130.410 Y125.970 E3.1025
G1 X130.464 Y125.714 E3.1095
G1 X130.938 Y123.944 E3.1589
G1 X131.019 Y123.695 E3.1659
G1 X131.676 Y121.985 E3.2153
G1 X131.782 Y121.746 E3.2223
G1 X132.617 Y120.107 E3.2719
G1 X132.756 Y119.867 E3.2793
G1 X133.815 Y118.258 E3.3312
G1 X133.961 Y118.059 E3.3379
G1 X135.049 Y116.715 E3.3845
G92 E0.0000
G1 E-1.0000 F1800
G1 X135.354 Y116.975 F4800
G1 E0.0000 F1800
G92 E0.0000
G1 X135.515 Y116.796 E0.0065 F1800
G1 X136.796 Y115.515 E0.0553
G1 X136.975 Y115.354 E0.0618
G1 X138.361 Y114.231 E0.1098
G1 X138.552 Y114.092 E0.1162
G1 X140.091 Y113.089 E0.1657
G1 X140.303 Y112.967 E0.1723
G1 X141.918 Y112.144 E0.2211
G1 X142.138 Y112.046 E0.2276
G1 X143.829 Y111.397 E0.2764
G1 X144.058 Y111.322 E0.2829
G1 X145.807 Y110.853 E0.3317
G1 X146.043 Y110.803 E0.3382
G1 X147.831 Y110.520 E0.3870
G1 X148.071 Y110.495 E0.3934
G1 X149.880 Y110.400 E0.4422
G1 X150.120 Y110.400 E0.4487
G1 X151.929 Y110.495 E0.4975
G1 X152.169 Y110.520 E0.5040
G1 X153.957 Y110.803 E0.5528
G1 X154.193 Y110.853 E0.5593
G1 X155.942 Y111.322 E0.6081
G1 X156.171 Y111.397 E0.6146
G1 X157.862 Y112.046 E0.6634
G1 X158.082 Y112.144 E0.6698
G1 X159.696 Y112.966 E0.7186
G1 X159.904 Y113.086 E0.7251
G1 X161.423 Y114.072 E0.7739
G1 X161.618 Y114.214 E0.7804
G1 X163.025 Y115.354 E0.8292
G1 X163.204 Y115.515 E0.8357
G1 X164.485 Y116.796 E0.8845
G1 X164.646 Y116.975 E0.8910
G1 X165.786 Y118.382 E0.9398
G1 X165.928 Y118.577 E0.9462
G1 X166.914 Y120.096 E0.9950
G1 X167.034 Y120.304 E1.0015
G1 X167.856 Y121.918 E1.0503
G1 X167.954 Y122.138 E1.0568
G1 X168.603 Y123.829 E1.1056
G1 X168.678 Y124.058 E1.1121
G1 X169.147 Y125.807 E1.1609
G1 X169.197 Y126.043 E1.1674
G1 X169.480 Y127.831 E1.2161
G1 X169.505 Y128.071 E1.2226
G1 X169.600 Y129.880 E1.2714
G1 X169.600 Y130.120 E1.2779
G1 X169.505 Y131.929 E1.3267
G1 X169.480 Y132.169 E1.3332
G1 X169.197 Y133.957 E1.3820
G1 X169.147 Y134.193 E1.3885
G1 X168.678 Y135.942 E1.4373
G1 X168.603 Y136.171 E1.4438
G1 X167.954 Y137.862 E1.4925
G1 X167.857 Y138.082 E1.4990
G1 X167.034 Y139.696 E1.5478
G1 X166.914 Y139.904 E1.5543
G1 X165.928 Y141.423 E1.6031
G1 X165.786 Y141.618 E1.6096
G1 X164.646 Y143.025 E1.6584
G1 X164.485 Y143.204 E1.6649
G1 X163.204 Y144.485 E1.7137
G1 X163.025 Y144.646 E1.7202
G1 X161.618 Y145.786 E1.7689
G1 X161.423 Y145.928 E1.7754
G1 X159.904 Y146.914 E1.8242
G1 X159.696 Y147.034 E1.8307
G1 X158.082 Y147.856 E1.8795
G1 X157.862 Y147.954 E1.8860
G1 X156.171 Y148.603 E1.9348
G1 X155.942 Y148.678 E1.9413
G1 X154.193 Y149.147 E1.9901
G1 X153.957 Y149.197 E1.9966
G1 X152.169 Y149.480 E2.0453
G1 X151.929 Y149.505 E2.0518
G1 X150.120 Y149.600 E2.1006
G1 X149.880 Y149.600 E2.1071
G1 X148.071 Y149.505 E2.1559
G1 X147.831 Y149.480 E2.1624
G1 X146.043 Y149.197 E2.2112
G1 X145.807 Y149.147 E2.2177
G1 X144.058 Y148.678 E2.2665
G1 X143.829 Y148.603 E2.2730
G1 X142.138 Y147.954 E2.3217
G1 X141.918 Y147.856 E2.3282
G1 X140.304 Y147.034 E2.3770
G1 X140.096 Y146.914 E2.3835
G1 X138.577 Y145.928 E2.4323
G1 X138.382 Y145.786 E2.4388
G1 X136.975 Y144.646 E2.4876
G1 X136.796 Y144.485 E2.4941
